(G-code generated by FlatCAM Evo vUnstable - Version Date: 2023/6/31)

(Name: solderingStationPCB-Edge_Cuts_follow_1_cnc)
(Type: G-code from Geometry)
(Units: MM)

(Created on Thursday, 02 May 2024 at 03:40)

(This preprocessor is used with a motion controller loaded with GRBL firmware.)
(It is configured to be compatible with almost any version of GRBL firmware. No M6 command.)

(TOOL DIAMETER: 1.5 mm)
(Feedrate_XY: 100.0 mm/min)
(Feedrate_Z: 60.0 mm/min)
(Feedrate rapids 1500.0 mm/min)

(Z_Cut: -0.5 mm)
(DepthPerCut: 0.1 mm <=>5 passes)
(Z_Move: 2.0 mm)
(Z Start: None mm)
(Z End: 15.0 mm)
(X,Y End: None mm)
(Steps per circle: 16)
(Steps per circle: 16)
(Preprocessor Geometry: GRBL_11_no_M6)

(X range:  -74.1965 ...   -0.0285  mm)
(Y range:  -29.2023 ...    0.0077  mm)

(Spindle Speed: 10000.0 RPM)
G21
G90
G17
G94


G01 F100.00
G00 Z2.0000

M03 S10000.0
G01 F100.00
G00 X-8.1565 Y0.0077
G01 F60.00
G01 Z-0.1000
G01 F100.00
G01 X-5.6448 Y-0.3901 F100.00
G01 X-3.3790 Y-1.5446 F100.00
G01 X-1.5808 Y-3.3428 F100.00
G01 X-0.4263 Y-5.6086 F100.00
G01 X-0.0285 Y-8.1203 F100.00
G01 X-0.0285 Y-21.0743 F100.00
G00 X-0.0285 Y-21.0743
G01 F60.00
G01 Z-0.2000
G01 F100.00
G01 X-0.0285 Y-8.1203 F100.00
G01 X-0.4263 Y-5.6086 F100.00
G01 X-1.5808 Y-3.3428 F100.00
G01 X-3.3790 Y-1.5446 F100.00
G01 X-5.6448 Y-0.3901 F100.00
G01 X-8.1565 Y0.0077 F100.00
G00 X-8.1565 Y0.0077
G01 F60.00
G01 Z-0.3000
G01 F100.00
G01 X-5.6448 Y-0.3901 F100.00
G01 X-3.3790 Y-1.5446 F100.00
G01 X-1.5808 Y-3.3428 F100.00
G01 X-0.4263 Y-5.6086 F100.00
G01 X-0.0285 Y-8.1203 F100.00
G01 X-0.0285 Y-21.0743 F100.00
G00 X-0.0285 Y-21.0743
G01 F60.00
G01 Z-0.4000
G01 F100.00
G01 X-0.0285 Y-8.1203 F100.00
G01 X-0.4263 Y-5.6086 F100.00
G01 X-1.5808 Y-3.3428 F100.00
G01 X-3.3790 Y-1.5446 F100.00
G01 X-5.6448 Y-0.3901 F100.00
G01 X-8.1565 Y0.0077 F100.00
G00 X-8.1565 Y0.0077
G01 F60.00
G01 Z-0.5000
G01 F100.00
G01 X-5.6448 Y-0.3901 F100.00
G01 X-3.3790 Y-1.5446 F100.00
G01 X-1.5808 Y-3.3428 F100.00
G01 X-0.4263 Y-5.6086 F100.00
G01 X-0.0285 Y-8.1203 F100.00
G01 X-0.0285 Y-21.0743 F100.00
G00 Z2.0000
G00 X-8.1565 Y0.0077
G01 F60.00
G01 Z-0.1000
G01 F100.00
G01 X-66.0685 Y0.0077 F100.00
G01 X-69.1790 Y-0.6110 F100.00
G01 X-71.8159 Y-2.3729 F100.00
G01 X-73.5778 Y-5.0099 F100.00
G01 X-74.1965 Y-8.1203 F100.00
G00 X-74.1965 Y-8.1203
G01 F60.00
G01 Z-0.2000
G01 F100.00
G01 X-73.5778 Y-5.0099 F100.00
G01 X-71.8159 Y-2.3729 F100.00
G01 X-69.1790 Y-0.6110 F100.00
G01 X-66.0685 Y0.0077 F100.00
G01 X-8.1565 Y0.0077 F100.00
G00 X-8.1565 Y0.0077
G01 F60.00
G01 Z-0.3000
G01 F100.00
G01 X-66.0685 Y0.0077 F100.00
G01 X-69.1790 Y-0.6110 F100.00
G01 X-71.8159 Y-2.3729 F100.00
G01 X-73.5778 Y-5.0099 F100.00
G01 X-74.1965 Y-8.1203 F100.00
G00 X-74.1965 Y-8.1203
G01 F60.00
G01 Z-0.4000
G01 F100.00
G01 X-73.5778 Y-5.0099 F100.00
G01 X-71.8159 Y-2.3729 F100.00
G01 X-69.1790 Y-0.6110 F100.00
G01 X-66.0685 Y0.0077 F100.00
G01 X-8.1565 Y0.0077 F100.00
G00 X-8.1565 Y0.0077
G01 F60.00
G01 Z-0.5000
G01 F100.00
G01 X-66.0685 Y0.0077 F100.00
G01 X-69.1790 Y-0.6110 F100.00
G01 X-71.8159 Y-2.3729 F100.00
G01 X-73.5778 Y-5.0099 F100.00
G01 X-74.1965 Y-8.1203 F100.00
G00 Z2.0000
G00 X-74.1965 Y-8.1203
G01 F60.00
G01 Z-0.1000
G01 F100.00
G01 X-74.1965 Y-21.0743 F100.00
G01 X-73.5778 Y-24.1848 F100.00
G01 X-71.8159 Y-26.8217 F100.00
G01 X-69.1790 Y-28.5836 F100.00
G01 X-66.0685 Y-29.2023 F100.00
G00 X-66.0685 Y-29.2023
G01 F60.00
G01 Z-0.2000
G01 F100.00
G01 X-69.1790 Y-28.5836 F100.00
G01 X-71.8159 Y-26.8217 F100.00
G01 X-73.5778 Y-24.1848 F100.00
G01 X-74.1965 Y-21.0743 F100.00
G01 X-74.1965 Y-8.1203 F100.00
G00 X-74.1965 Y-8.1203
G01 F60.00
G01 Z-0.3000
G01 F100.00
G01 X-74.1965 Y-21.0743 F100.00
G01 X-73.5778 Y-24.1848 F100.00
G01 X-71.8159 Y-26.8217 F100.00
G01 X-69.1790 Y-28.5836 F100.00
G01 X-66.0685 Y-29.2023 F100.00
G00 X-66.0685 Y-29.2023
G01 F60.00
G01 Z-0.4000
G01 F100.00
G01 X-69.1790 Y-28.5836 F100.00
G01 X-71.8159 Y-26.8217 F100.00
G01 X-73.5778 Y-24.1848 F100.00
G01 X-74.1965 Y-21.0743 F100.00
G01 X-74.1965 Y-8.1203 F100.00
G00 X-74.1965 Y-8.1203
G01 F60.00
G01 Z-0.5000
G01 F100.00
G01 X-74.1965 Y-21.0743 F100.00
G01 X-73.5778 Y-24.1848 F100.00
G01 X-71.8159 Y-26.8217 F100.00
G01 X-69.1790 Y-28.5836 F100.00
G01 X-66.0685 Y-29.2023 F100.00
G00 Z2.0000
G00 X-68.4688 Y-17.4929
G01 F60.00
G01 Z-0.1000
G01 F100.00
G01 X-68.5220 Y-17.2256 F100.00
G01 X-68.6734 Y-16.9990 F100.00
G01 X-68.9000 Y-16.8476 F100.00
G01 X-69.1673 Y-16.7944 F100.00
G01 X-69.4346 Y-16.8476 F100.00
G01 X-69.6612 Y-16.9990 F100.00
G01 X-69.8127 Y-17.2256 F100.00
G01 X-69.8658 Y-17.4929 F100.00
G01 X-69.8127 Y-17.7602 F100.00
G01 X-69.6612 Y-17.9868 F100.00
G01 X-69.4346 Y-18.1382 F100.00
G01 X-69.1673 Y-18.1914 F100.00
G01 X-68.9000 Y-18.1382 F100.00
G01 X-68.6734 Y-17.9868 F100.00
G01 X-68.5220 Y-17.7602 F100.00
G01 X-68.4688 Y-17.4929 F100.00
G00 X-68.4688 Y-17.4929
G01 F60.00
G01 Z-0.2000
G01 F100.00
G01 X-68.5220 Y-17.7602 F100.00
G01 X-68.6734 Y-17.9868 F100.00
G01 X-68.9000 Y-18.1382 F100.00
G01 X-69.1673 Y-18.1914 F100.00
G01 X-69.4346 Y-18.1382 F100.00
G01 X-69.6612 Y-17.9868 F100.00
G01 X-69.8127 Y-17.7602 F100.00
G01 X-69.8658 Y-17.4929 F100.00
G01 X-69.8127 Y-17.2256 F100.00
G01 X-69.6612 Y-16.9990 F100.00
G01 X-69.4346 Y-16.8476 F100.00
G01 X-69.1673 Y-16.7944 F100.00
G01 X-68.9000 Y-16.8476 F100.00
G01 X-68.6734 Y-16.9990 F100.00
G01 X-68.5220 Y-17.2256 F100.00
G01 X-68.4688 Y-17.4929 F100.00
G00 X-68.4688 Y-17.4929
G01 F60.00
G01 Z-0.3000
G01 F100.00
G01 X-68.5220 Y-17.2256 F100.00
G01 X-68.6734 Y-16.9990 F100.00
G01 X-68.9000 Y-16.8476 F100.00
G01 X-69.1673 Y-16.7944 F100.00
G01 X-69.4346 Y-16.8476 F100.00
G01 X-69.6612 Y-16.9990 F100.00
G01 X-69.8127 Y-17.2256 F100.00
G01 X-69.8658 Y-17.4929 F100.00
G01 X-69.8127 Y-17.7602 F100.00
G01 X-69.6612 Y-17.9868 F100.00
G01 X-69.4346 Y-18.1382 F100.00
G01 X-69.1673 Y-18.1914 F100.00
G01 X-68.9000 Y-18.1382 F100.00
G01 X-68.6734 Y-17.9868 F100.00
G01 X-68.5220 Y-17.7602 F100.00
G01 X-68.4688 Y-17.4929 F100.00
G00 X-68.4688 Y-17.4929
G01 F60.00
G01 Z-0.4000
G01 F100.00
G01 X-68.5220 Y-17.7602 F100.00
G01 X-68.6734 Y-17.9868 F100.00
G01 X-68.9000 Y-18.1382 F100.00
G01 X-69.1673 Y-18.1914 F100.00
G01 X-69.4346 Y-18.1382 F100.00
G01 X-69.6612 Y-17.9868 F100.00
G01 X-69.8127 Y-17.7602 F100.00
G01 X-69.8658 Y-17.4929 F100.00
G01 X-69.8127 Y-17.2256 F100.00
G01 X-69.6612 Y-16.9990 F100.00
G01 X-69.4346 Y-16.8476 F100.00
G01 X-69.1673 Y-16.7944 F100.00
G01 X-68.9000 Y-16.8476 F100.00
G01 X-68.6734 Y-16.9990 F100.00
G01 X-68.5220 Y-17.2256 F100.00
G01 X-68.4688 Y-17.4929 F100.00
G00 X-68.4688 Y-17.4929
G01 F60.00
G01 Z-0.5000
G01 F100.00
G01 X-68.5220 Y-17.2256 F100.00
G01 X-68.6734 Y-16.9990 F100.00
G01 X-68.9000 Y-16.8476 F100.00
G01 X-69.1673 Y-16.7944 F100.00
G01 X-69.4346 Y-16.8476 F100.00
G01 X-69.6612 Y-16.9990 F100.00
G01 X-69.8127 Y-17.2256 F100.00
G01 X-69.8658 Y-17.4929 F100.00
G01 X-69.8127 Y-17.7602 F100.00
G01 X-69.6612 Y-17.9868 F100.00
G01 X-69.4346 Y-18.1382 F100.00
G01 X-69.1673 Y-18.1914 F100.00
G01 X-68.9000 Y-18.1382 F100.00
G01 X-68.6734 Y-17.9868 F100.00
G01 X-68.5220 Y-17.7602 F100.00
G01 X-68.4688 Y-17.4929 F100.00
G00 Z2.0000
G00 X-66.0685 Y-29.2023
G01 F60.00
G01 Z-0.1000
G01 F100.00
G01 X-8.1565 Y-29.2023 F100.00
G01 X-5.6448 Y-28.8045 F100.00
G01 X-3.3790 Y-27.6500 F100.00
G01 X-1.5808 Y-25.8518 F100.00
G01 X-0.4263 Y-23.5860 F100.00
G01 X-0.0285 Y-21.0743 F100.00
G00 X-0.0285 Y-21.0743
G01 F60.00
G01 Z-0.2000
G01 F100.00
G01 X-0.4263 Y-23.5860 F100.00
G01 X-1.5808 Y-25.8518 F100.00
G01 X-3.3790 Y-27.6500 F100.00
G01 X-5.6448 Y-28.8045 F100.00
G01 X-8.1565 Y-29.2023 F100.00
G01 X-66.0685 Y-29.2023 F100.00
G00 X-66.0685 Y-29.2023
G01 F60.00
G01 Z-0.3000
G01 F100.00
G01 X-8.1565 Y-29.2023 F100.00
G01 X-5.6448 Y-28.8045 F100.00
G01 X-3.3790 Y-27.6500 F100.00
G01 X-1.5808 Y-25.8518 F100.00
G01 X-0.4263 Y-23.5860 F100.00
G01 X-0.0285 Y-21.0743 F100.00
G00 X-0.0285 Y-21.0743
G01 F60.00
G01 Z-0.4000
G01 F100.00
G01 X-0.4263 Y-23.5860 F100.00
G01 X-1.5808 Y-25.8518 F100.00
G01 X-3.3790 Y-27.6500 F100.00
G01 X-5.6448 Y-28.8045 F100.00
G01 X-8.1565 Y-29.2023 F100.00
G01 X-66.0685 Y-29.2023 F100.00
G00 X-66.0685 Y-29.2023
G01 F60.00
G01 Z-0.5000
G01 F100.00
G01 X-8.1565 Y-29.2023 F100.00
G01 X-5.6448 Y-28.8045 F100.00
G01 X-3.3790 Y-27.6500 F100.00
G01 X-1.5808 Y-25.8518 F100.00
G01 X-0.4263 Y-23.5860 F100.00
G01 X-0.0285 Y-21.0743 F100.00
G00 Z2.0000
M05
G00 Z2.0000
G00 Z15.00


