(G-code generated by FlatCAM Evo vUnstable - Version Date: 2023/6/31)

(Name: solderingStationPCB-B_Cu.gbr_iso_combined_cnc)
(Type: G-code from Geometry)
(Units: MM)

(Created on Thursday, 02 May 2024 at 03:31)

(This preprocessor is used with a motion controller loaded with GRBL firmware.)
(It is configured to be compatible with almost any version of GRBL firmware. No M6 command.)

(TOOL DIAMETER: 0.1875 mm)
(Feedrate_XY: 100.0 mm/min)
(Feedrate_Z: 60.0 mm/min)
(Feedrate rapids 1500.0 mm/min)

(Z_Cut: -0.07 mm)
(Z_Move: 2.0 mm)
(Z Start: None mm)
(Z End: 15.0 mm)
(X,Y End: None mm)
(Steps per circle: 16)
(Steps per circle: 16)
(Preprocessor Geometry: GRBL_11_no_M6)

(X range:  -74.3153 ...    0.4399  mm)
(Y range:  -29.3211 ...    0.1265  mm)

(Spindle Speed: 10000.0 RPM)
G21
G90
G17
G94


G01 F100.00
G00 Z2.0000

M03 S10000.0
G01 F100.00
G00 X-3.7873 Y-5.2736
G01 F60.00
G01 Z-0.0700
G01 F100.00
G01 X-3.7017 Y-5.3248 F100.00
G01 X-3.6140 Y-5.3893 F100.00
G01 X-3.5330 Y-5.4621 F100.00
G01 X-3.4578 Y-5.5444 F100.00
G01 X-3.3943 Y-5.6297 F100.00
G01 X-3.3380 Y-5.7229 F100.00
G01 X-3.2875 Y-5.8296 F100.00
G01 X-3.2524 Y-5.9281 F100.00
G01 X-3.2270 Y-6.0290 F100.00
G01 X-3.2089 Y-6.1602 F100.00
G01 X-3.1891 Y-6.1602 F100.00
G01 X-3.2167 Y-5.9865 F100.00
G01 X-3.2714 Y-5.8180 F100.00
G01 X-3.3518 Y-5.6601 F100.00
G01 X-3.4560 Y-5.5168 F100.00
G01 X-3.5812 Y-5.3916 F100.00
G01 X-3.7245 Y-5.2874 F100.00
G01 X-3.8824 Y-5.2070 F100.00
G01 X-3.9706 Y-5.1783 F100.00
G01 X-3.9706 Y-5.1956 F100.00
G01 X-3.8855 Y-5.2266 F100.00
G01 X-3.7873 Y-5.2736 F100.00
G00 Z2.0000
G00 X-5.4036 Y-6.0380
G01 F60.00
G01 Z-0.0700
G01 F100.00
G01 X-5.3764 Y-5.9281 F100.00
G01 X-5.3378 Y-5.8211 F100.00
G01 X-5.2952 Y-5.7310 F100.00
G01 X-5.2396 Y-5.6373 F100.00
G01 X-5.1710 Y-5.5444 F100.00
G01 X-5.0958 Y-5.4621 F100.00
G01 X-5.0200 Y-5.3934 F100.00
G01 X-4.9347 Y-5.3299 F100.00
G01 X-4.8334 Y-5.2692 F100.00
G01 X-4.7433 Y-5.2266 F100.00
G01 X-4.6582 Y-5.1956 F100.00
G01 X-4.6582 Y-5.1783 F100.00
G01 X-4.7464 Y-5.2070 F100.00
G01 X-4.9043 Y-5.2874 F100.00
G01 X-5.0476 Y-5.3916 F100.00
G01 X-5.1728 Y-5.5168 F100.00
G01 X-5.2770 Y-5.6601 F100.00
G01 X-5.3574 Y-5.8180 F100.00
G01 X-5.4121 Y-5.9865 F100.00
G01 X-5.4397 Y-6.1602 F100.00
G01 X-5.4199 Y-6.1602 F100.00
G01 X-5.4036 Y-6.0380 F100.00
G00 Z2.0000
G00 X-5.0476 Y-7.6164
G01 F60.00
G01 Z-0.0700
G01 F100.00
G01 X-4.9043 Y-7.7206 F100.00
G01 X-4.7464 Y-7.8010 F100.00
G01 X-4.6582 Y-7.8297 F100.00
G01 X-4.6582 Y-7.8124 F100.00
G01 X-4.7433 Y-7.7814 F100.00
G01 X-4.8334 Y-7.7388 F100.00
G01 X-4.9347 Y-7.6781 F100.00
G01 X-5.0200 Y-7.6146 F100.00
G01 X-5.0958 Y-7.5459 F100.00
G01 X-5.1751 Y-7.4584 F100.00
G01 X-5.2345 Y-7.3783 F100.00
G01 X-5.2908 Y-7.2851 F100.00
G01 X-5.3378 Y-7.1869 F100.00
G01 X-5.3764 Y-7.0799 F100.00
G01 X-5.4018 Y-6.9790 F100.00
G01 X-5.4199 Y-6.8478 F100.00
G01 X-5.4397 Y-6.8478 F100.00
G01 X-5.4121 Y-7.0215 F100.00
G01 X-5.3574 Y-7.1900 F100.00
G01 X-5.2770 Y-7.3479 F100.00
G01 X-5.1728 Y-7.4912 F100.00
G01 X-5.0476 Y-7.6164 F100.00
G00 Z2.0000
G00 X-3.4560 Y-7.4912
G01 F60.00
G01 Z-0.0700
G01 F100.00
G01 X-3.3518 Y-7.3479 F100.00
G01 X-3.2714 Y-7.1900 F100.00
G01 X-3.2167 Y-7.0215 F100.00
G01 X-3.1891 Y-6.8478 F100.00
G01 X-3.2089 Y-6.8478 F100.00
G01 X-3.2270 Y-6.9790 F100.00
G01 X-3.2524 Y-7.0799 F100.00
G01 X-3.2910 Y-7.1869 F100.00
G01 X-3.3380 Y-7.2851 F100.00
G01 X-3.3892 Y-7.3707 F100.00
G01 X-3.4537 Y-7.4584 F100.00
G01 X-3.5330 Y-7.5459 F100.00
G01 X-3.6088 Y-7.6146 F100.00
G01 X-3.6941 Y-7.6781 F100.00
G01 X-3.7954 Y-7.7388 F100.00
G01 X-3.8855 Y-7.7814 F100.00
G01 X-3.9706 Y-7.8124 F100.00
G01 X-3.9706 Y-7.8297 F100.00
G01 X-3.8824 Y-7.8010 F100.00
G01 X-3.7245 Y-7.7206 F100.00
G01 X-3.5812 Y-7.6164 F100.00
G01 X-3.4560 Y-7.4912 F100.00
G00 Z2.0000
G00 X-2.6682 Y-11.4627
G01 F60.00
G01 Z-0.0700
G01 F100.00
G01 X-2.6597 Y-11.4321 F100.00
G01 X-2.6412 Y-11.4057 F100.00
G01 X-2.6148 Y-11.3872 F100.00
G01 X-2.5842 Y-11.3787 F100.00
G01 X-1.4581 Y-11.3782 F100.00
G01 X-1.4581 Y-11.3625 F100.00
G01 X-2.5857 Y-11.3625 F100.00
G01 X-2.6176 Y-11.3689 F100.00
G01 X-2.6538 Y-11.3931 F100.00
G01 X-2.6780 Y-11.4293 F100.00
G01 X-2.6843 Y-11.4612 F100.00
G01 X-2.6843 Y-13.1602 F100.00
G01 X-2.6686 Y-13.1602 F100.00
G01 X-2.6682 Y-11.4627 F100.00
G00 Z2.0000
G00 X-2.6176 Y-15.6391
G01 F60.00
G01 Z-0.0700
G01 F100.00
G01 X-2.5857 Y-15.6454 F100.00
G01 X-1.4581 Y-15.6454 F100.00
G01 X-1.4581 Y-15.6297 F100.00
G01 X-2.5797 Y-15.6296 F100.00
G01 X-2.6148 Y-15.6208 F100.00
G01 X-2.6500 Y-15.5921 F100.00
G01 X-2.6638 Y-15.5656 F100.00
G01 X-2.6686 Y-15.5360 F100.00
G01 X-2.6686 Y-13.8477 F100.00
G01 X-2.6843 Y-13.8477 F100.00
G01 X-2.6843 Y-15.5468 F100.00
G01 X-2.6780 Y-15.5787 F100.00
G01 X-2.6538 Y-15.6149 F100.00
G01 X-2.6176 Y-15.6391 F100.00
G00 Z2.0000
G00 X-6.2873 Y-19.7736
G01 F60.00
G01 Z-0.0700
G01 F100.00
G01 X-6.1941 Y-19.8299 F100.00
G01 X-6.1088 Y-19.8934 F100.00
G01 X-6.0297 Y-19.9653 F100.00
G01 X-5.9596 Y-20.0425 F100.00
G01 X-5.8943 Y-20.1297 F100.00
G01 X-5.8380 Y-20.2229 F100.00
G01 X-5.7875 Y-20.3296 F100.00
G01 X-5.7524 Y-20.4281 F100.00
G01 X-5.7270 Y-20.5290 F100.00
G01 X-5.7097 Y-20.6458 F100.00
G01 X-5.7047 Y-20.7500 F100.00
G01 X-5.7047 Y-21.2580 F100.00
G01 X-5.7097 Y-21.3622 F100.00
G01 X-5.7270 Y-21.4790 F100.00
G01 X-5.7524 Y-21.5799 F100.00
G01 X-5.7875 Y-21.6784 F100.00
G01 X-5.8380 Y-21.7851 F100.00
G01 X-5.8892 Y-21.8707 F100.00
G01 X-5.9537 Y-21.9584 F100.00
G01 X-6.0330 Y-22.0459 F100.00
G01 X-6.1088 Y-22.1146 F100.00
G01 X-6.1941 Y-22.1781 F100.00
G01 X-6.2954 Y-22.2388 F100.00
G01 X-6.3855 Y-22.2814 F100.00
G01 X-6.4706 Y-22.3123 F100.00
G01 X-6.4706 Y-22.3297 F100.00
G01 X-6.3824 Y-22.3010 F100.00
G01 X-6.2245 Y-22.2206 F100.00
G01 X-6.0812 Y-22.1164 F100.00
G01 X-5.9560 Y-21.9912 F100.00
G01 X-5.8518 Y-21.8479 F100.00
G01 X-5.7449 Y-21.6344 F100.00
G01 X-5.6878 Y-21.5853 F100.00
G01 X-5.6441 Y-21.5708 F100.00
G01 X-5.5772 Y-21.5752 F100.00
G01 X-5.5516 Y-21.5824 F100.00
G01 X-5.5234 Y-21.6018 F100.00
G01 X-5.4873 Y-21.6436 F100.00
G01 X-5.4710 Y-21.6711 F100.00
G01 X-5.4520 Y-21.7292 F100.00
G01 X-5.3643 Y-21.9014 F100.00
G01 X-5.2507 Y-22.0577 F100.00
G01 X-5.1141 Y-22.1943 F100.00
G01 X-4.9578 Y-22.3079 F100.00
G01 X-4.7856 Y-22.3956 F100.00
G01 X-4.6019 Y-22.4553 F100.00
G01 X-4.4110 Y-22.4855 F100.00
G01 X-4.2178 Y-22.4855 F100.00
G01 X-4.0269 Y-22.4553 F100.00
G01 X-3.8432 Y-22.3956 F100.00
G01 X-3.6710 Y-22.3079 F100.00
G01 X-3.5147 Y-22.1943 F100.00
G01 X-3.3781 Y-22.0577 F100.00
G01 X-3.2645 Y-21.9014 F100.00
G01 X-3.1768 Y-21.7292 F100.00
G01 X-3.1171 Y-21.5454 F100.00
G01 X-3.0869 Y-21.3546 F100.00
G01 X-3.0869 Y-20.6534 F100.00
G01 X-3.1171 Y-20.4625 F100.00
G01 X-3.1768 Y-20.2788 F100.00
G01 X-3.2645 Y-20.1066 F100.00
G01 X-3.3781 Y-19.9503 F100.00
G01 X-3.5147 Y-19.8137 F100.00
G01 X-3.6710 Y-19.7001 F100.00
G01 X-3.8432 Y-19.6124 F100.00
G01 X-4.0270 Y-19.5527 F100.00
G01 X-4.2178 Y-19.5224 F100.00
G01 X-4.4110 Y-19.5224 F100.00
G01 X-4.6018 Y-19.5527 F100.00
G01 X-4.7856 Y-19.6124 F100.00
G01 X-4.9578 Y-19.7001 F100.00
G01 X-5.1141 Y-19.8137 F100.00
G01 X-5.2507 Y-19.9503 F100.00
G01 X-5.3643 Y-20.1066 F100.00
G01 X-5.4520 Y-20.2788 F100.00
G01 X-5.4720 Y-20.3394 F100.00
G01 X-5.4869 Y-20.3682 F100.00
G01 X-5.5490 Y-20.4231 F100.00
G01 X-5.5739 Y-20.4341 F100.00
G01 X-5.5988 Y-20.4374 F100.00
G01 X-5.6761 Y-20.4289 F100.00
G01 X-5.7009 Y-20.4162 F100.00
G01 X-5.7177 Y-20.4008 F100.00
G01 X-5.7614 Y-20.3455 F100.00
G01 X-5.7714 Y-20.3180 F100.00
G01 X-5.8518 Y-20.1601 F100.00
G01 X-5.9560 Y-20.0168 F100.00
G01 X-6.0812 Y-19.8916 F100.00
G01 X-6.2245 Y-19.7874 F100.00
G01 X-6.3824 Y-19.7070 F100.00
G01 X-6.4706 Y-19.6783 F100.00
G01 X-6.4706 Y-19.6956 F100.00
G01 X-6.3855 Y-19.7266 F100.00
G01 X-6.2873 Y-19.7736 F100.00
G00 Z2.0000
G00 X-5.4018 Y-21.4790
G01 F60.00
G01 Z-0.0700
G01 F100.00
G01 X-5.4187 Y-21.3679 F100.00
G01 X-5.4240 Y-21.2626 F100.00
G01 X-5.4241 Y-20.7500 F100.00
G01 X-5.4182 Y-20.6367 F100.00
G01 X-5.4028 Y-20.5334 F100.00
G01 X-5.3764 Y-20.4281 F100.00
G01 X-5.3413 Y-20.3296 F100.00
G01 X-5.2952 Y-20.2310 F100.00
G01 X-5.2345 Y-20.1297 F100.00
G01 X-5.1710 Y-20.0444 F100.00
G01 X-5.0991 Y-19.9653 F100.00
G01 X-5.0200 Y-19.8934 F100.00
G01 X-4.9347 Y-19.8299 F100.00
G01 X-4.8415 Y-19.7736 F100.00
G01 X-4.7433 Y-19.7266 F100.00
G01 X-4.6363 Y-19.6879 F100.00
G01 X-4.5310 Y-19.6616 F100.00
G01 X-4.4243 Y-19.6457 F100.00
G01 X-4.3144 Y-19.6402 F100.00
G01 X-4.2045 Y-19.6457 F100.00
G01 X-4.0978 Y-19.6616 F100.00
G01 X-3.9925 Y-19.6879 F100.00
G01 X-3.8940 Y-19.7231 F100.00
G01 X-3.7954 Y-19.7692 F100.00
G01 X-3.7017 Y-19.8248 F100.00
G01 X-3.6088 Y-19.8934 F100.00
G01 X-3.5297 Y-19.9653 F100.00
G01 X-3.4578 Y-20.0444 F100.00
G01 X-3.3943 Y-20.1297 F100.00
G01 X-3.3380 Y-20.2229 F100.00
G01 X-3.2875 Y-20.3296 F100.00
G01 X-3.2524 Y-20.4281 F100.00
G01 X-3.2270 Y-20.5290 F100.00
G01 X-3.2106 Y-20.6367 F100.00
G01 X-3.2047 Y-20.7500 F100.00
G01 X-3.2047 Y-21.2580 F100.00
G01 X-3.2106 Y-21.3713 F100.00
G01 X-3.2260 Y-21.4746 F100.00
G01 X-3.2524 Y-21.5799 F100.00
G01 X-3.2910 Y-21.6869 F100.00
G01 X-3.3380 Y-21.7851 F100.00
G01 X-3.3892 Y-21.8707 F100.00
G01 X-3.4537 Y-21.9584 F100.00
G01 X-3.5265 Y-22.0394 F100.00
G01 X-3.6088 Y-22.1146 F100.00
G01 X-3.6941 Y-22.1781 F100.00
G01 X-3.7873 Y-22.2344 F100.00
G01 X-3.8940 Y-22.2849 F100.00
G01 X-3.9925 Y-22.3200 F100.00
G01 X-4.0934 Y-22.3454 F100.00
G01 X-4.2045 Y-22.3623 F100.00
G01 X-4.3144 Y-22.3677 F100.00
G01 X-4.4277 Y-22.3618 F100.00
G01 X-4.5310 Y-22.3464 F100.00
G01 X-4.6321 Y-22.3212 F100.00
G01 X-4.7348 Y-22.2849 F100.00
G01 X-4.8415 Y-22.2344 F100.00
G01 X-4.9347 Y-22.1781 F100.00
G01 X-5.0200 Y-22.1146 F100.00
G01 X-5.0958 Y-22.0459 F100.00
G01 X-5.1710 Y-21.9636 F100.00
G01 X-5.2396 Y-21.8707 F100.00
G01 X-5.2952 Y-21.7770 F100.00
G01 X-5.3378 Y-21.6869 F100.00
G01 X-5.3749 Y-21.5845 F100.00
G01 X-5.4018 Y-21.4790 F100.00
G00 Z2.0000
G00 X-8.1582 Y-21.6723
G01 F60.00
G01 Z-0.0700
G01 F100.00
G01 X-8.1327 Y-21.6291 F100.00
G01 X-8.0876 Y-21.5903 F100.00
G01 X-8.0634 Y-21.5767 F100.00
G01 X-8.0300 Y-21.5706 F100.00
G01 X-7.9699 Y-21.5752 F100.00
G01 X-7.9279 Y-21.5918 F100.00
G01 X-7.8709 Y-21.6562 F100.00
G01 X-7.7770 Y-21.8479 F100.00
G01 X-7.6728 Y-21.9912 F100.00
G01 X-7.5476 Y-22.1164 F100.00
G01 X-7.4043 Y-22.2206 F100.00
G01 X-7.2464 Y-22.3010 F100.00
G01 X-7.1582 Y-22.3297 F100.00
G01 X-7.1582 Y-22.3123 F100.00
G01 X-7.2433 Y-22.2814 F100.00
G01 X-7.3415 Y-22.2344 F100.00
G01 X-7.4271 Y-22.1832 F100.00
G01 X-7.5148 Y-22.1187 F100.00
G01 X-7.6023 Y-22.0394 F100.00
G01 X-7.6710 Y-21.9636 F100.00
G01 X-7.7345 Y-21.8783 F100.00
G01 X-7.7952 Y-21.7770 F100.00
G01 X-7.8413 Y-21.6784 F100.00
G01 X-7.8764 Y-21.5799 F100.00
G01 X-7.9028 Y-21.4746 F100.00
G01 X-7.9182 Y-21.3713 F100.00
G01 X-7.9241 Y-21.2580 F100.00
G01 X-7.9241 Y-20.7500 F100.00
G01 X-7.9187 Y-20.6401 F100.00
G01 X-7.9028 Y-20.5334 F100.00
G01 X-7.8764 Y-20.4281 F100.00
G01 X-7.8413 Y-20.3296 F100.00
G01 X-7.7952 Y-20.2310 F100.00
G01 X-7.7396 Y-20.1373 F100.00
G01 X-7.6710 Y-20.0444 F100.00
G01 X-7.5991 Y-19.9653 F100.00
G01 X-7.5200 Y-19.8934 F100.00
G01 X-7.4347 Y-19.8299 F100.00
G01 X-7.3415 Y-19.7736 F100.00
G01 X-7.2433 Y-19.7266 F100.00
G01 X-7.1582 Y-19.6956 F100.00
G01 X-7.1582 Y-19.6783 F100.00
G01 X-7.2464 Y-19.7070 F100.00
G01 X-7.4043 Y-19.7874 F100.00
G01 X-7.5476 Y-19.8916 F100.00
G01 X-7.6728 Y-20.0168 F100.00
G01 X-7.7770 Y-20.1601 F100.00
G01 X-7.8839 Y-20.3736 F100.00
G01 X-7.9416 Y-20.4231 F100.00
G01 X-7.9847 Y-20.4372 F100.00
G01 X-8.0516 Y-20.4328 F100.00
G01 X-8.0772 Y-20.4256 F100.00
G01 X-8.1054 Y-20.4062 F100.00
G01 X-8.1415 Y-20.3644 F100.00
G01 X-8.1558 Y-20.3416 F100.00
G01 X-8.1768 Y-20.2788 F100.00
G01 X-8.2645 Y-20.1066 F100.00
G01 X-8.3781 Y-19.9503 F100.00
G01 X-8.5147 Y-19.8137 F100.00
G01 X-8.6710 Y-19.7001 F100.00
G01 X-8.8432 Y-19.6124 F100.00
G01 X-9.0270 Y-19.5527 F100.00
G01 X-9.2178 Y-19.5224 F100.00
G01 X-9.4110 Y-19.5224 F100.00
G01 X-9.6018 Y-19.5527 F100.00
G01 X-9.7856 Y-19.6124 F100.00
G01 X-9.9578 Y-19.7001 F100.00
G01 X-10.1141 Y-19.8137 F100.00
G01 X-10.2507 Y-19.9503 F100.00
G01 X-10.3643 Y-20.1066 F100.00
G01 X-10.4520 Y-20.2788 F100.00
G01 X-10.5117 Y-20.4625 F100.00
G01 X-10.5419 Y-20.6534 F100.00
G01 X-10.5419 Y-21.3546 F100.00
G01 X-10.5117 Y-21.5454 F100.00
G01 X-10.4520 Y-21.7292 F100.00
G01 X-10.3643 Y-21.9014 F100.00
G01 X-10.2507 Y-22.0577 F100.00
G01 X-10.1141 Y-22.1943 F100.00
G01 X-9.9578 Y-22.3079 F100.00
G01 X-9.7856 Y-22.3956 F100.00
G01 X-9.6019 Y-22.4553 F100.00
G01 X-9.4110 Y-22.4855 F100.00
G01 X-9.2178 Y-22.4855 F100.00
G01 X-9.0269 Y-22.4553 F100.00
G01 X-8.8432 Y-22.3956 F100.00
G01 X-8.6710 Y-22.3079 F100.00
G01 X-8.5147 Y-22.1943 F100.00
G01 X-8.3781 Y-22.0577 F100.00
G01 X-8.2645 Y-21.9014 F100.00
G01 X-8.1768 Y-21.7292 F100.00
G01 X-8.1582 Y-21.6723 F100.00
G00 Z2.0000
G00 X-10.4018 Y-21.4790
G01 F60.00
G01 Z-0.0700
G01 F100.00
G01 X-10.4187 Y-21.3679 F100.00
G01 X-10.4240 Y-21.2626 F100.00
G01 X-10.4241 Y-20.7500 F100.00
G01 X-10.4182 Y-20.6367 F100.00
G01 X-10.4028 Y-20.5334 F100.00
G01 X-10.3764 Y-20.4281 F100.00
G01 X-10.3413 Y-20.3296 F100.00
G01 X-10.2952 Y-20.2310 F100.00
G01 X-10.2345 Y-20.1297 F100.00
G01 X-10.1710 Y-20.0444 F100.00
G01 X-10.0991 Y-19.9653 F100.00
G01 X-10.0200 Y-19.8934 F100.00
G01 X-9.9347 Y-19.8299 F100.00
G01 X-9.8415 Y-19.7736 F100.00
G01 X-9.7433 Y-19.7266 F100.00
G01 X-9.6363 Y-19.6879 F100.00
G01 X-9.5310 Y-19.6616 F100.00
G01 X-9.4243 Y-19.6457 F100.00
G01 X-9.3144 Y-19.6402 F100.00
G01 X-9.2045 Y-19.6457 F100.00
G01 X-9.0978 Y-19.6616 F100.00
G01 X-8.9925 Y-19.6879 F100.00
G01 X-8.8940 Y-19.7231 F100.00
G01 X-8.7954 Y-19.7692 F100.00
G01 X-8.7017 Y-19.8248 F100.00
G01 X-8.6088 Y-19.8934 F100.00
G01 X-8.5297 Y-19.9653 F100.00
G01 X-8.4578 Y-20.0444 F100.00
G01 X-8.3943 Y-20.1297 F100.00
G01 X-8.3380 Y-20.2229 F100.00
G01 X-8.2875 Y-20.3296 F100.00
G01 X-8.2524 Y-20.4281 F100.00
G01 X-8.2270 Y-20.5290 F100.00
G01 X-8.2106 Y-20.6367 F100.00
G01 X-8.2047 Y-20.7500 F100.00
G01 X-8.2047 Y-21.2580 F100.00
G01 X-8.2106 Y-21.3713 F100.00
G01 X-8.2260 Y-21.4746 F100.00
G01 X-8.2524 Y-21.5799 F100.00
G01 X-8.2910 Y-21.6869 F100.00
G01 X-8.3380 Y-21.7851 F100.00
G01 X-8.3892 Y-21.8707 F100.00
G01 X-8.4537 Y-21.9584 F100.00
G01 X-8.5265 Y-22.0394 F100.00
G01 X-8.6088 Y-22.1146 F100.00
G01 X-8.6941 Y-22.1781 F100.00
G01 X-8.7873 Y-22.2344 F100.00
G01 X-8.8940 Y-22.2849 F100.00
G01 X-8.9925 Y-22.3200 F100.00
G01 X-9.0934 Y-22.3454 F100.00
G01 X-9.2045 Y-22.3623 F100.00
G01 X-9.3144 Y-22.3677 F100.00
G01 X-9.4277 Y-22.3618 F100.00
G01 X-9.5310 Y-22.3464 F100.00
G01 X-9.6321 Y-22.3212 F100.00
G01 X-9.7348 Y-22.2849 F100.00
G01 X-9.8415 Y-22.2344 F100.00
G01 X-9.9347 Y-22.1781 F100.00
G01 X-10.0200 Y-22.1146 F100.00
G01 X-10.0958 Y-22.0459 F100.00
G01 X-10.1710 Y-21.9636 F100.00
G01 X-10.2396 Y-21.8707 F100.00
G01 X-10.2952 Y-21.7770 F100.00
G01 X-10.3378 Y-21.6869 F100.00
G01 X-10.3749 Y-21.5845 F100.00
G01 X-10.4018 Y-21.4790 F100.00
G00 Z2.0000
G00 X-7.7222 Y-24.6761
G01 F60.00
G01 Z-0.0700
G01 F100.00
G01 X-7.7047 Y-24.6075 F100.00
G01 X-7.6809 Y-24.5416 F100.00
G01 X-7.6495 Y-24.4763 F100.00
G01 X-7.6130 Y-24.4162 F100.00
G01 X-7.5719 Y-24.3613 F100.00
G01 X-7.5266 Y-24.3115 F100.00
G01 X-7.4768 Y-24.2662 F100.00
G01 X-7.4142 Y-24.2200 F100.00
G01 X-7.3537 Y-24.1842 F100.00
G01 X-7.2965 Y-24.1572 F100.00
G01 X-7.2306 Y-24.1334 F100.00
G01 X-7.1620 Y-24.1159 F100.00
G01 X-7.0906 Y-24.1052 F100.00
G01 X-7.0203 Y-24.1017 F100.00
G01 X-6.9500 Y-24.1052 F100.00
G01 X-6.8786 Y-24.1159 F100.00
G01 X-6.8100 Y-24.1334 F100.00
G01 X-6.7441 Y-24.1572 F100.00
G01 X-6.6788 Y-24.1886 F100.00
G01 X-6.6187 Y-24.2251 F100.00
G01 X-6.5638 Y-24.2662 F100.00
G01 X-6.5140 Y-24.3115 F100.00
G01 X-6.4687 Y-24.3613 F100.00
G01 X-6.4225 Y-24.4239 F100.00
G01 X-6.3867 Y-24.4844 F100.00
G01 X-6.3597 Y-24.5416 F100.00
G01 X-6.3359 Y-24.6075 F100.00
G01 X-6.3184 Y-24.6761 F100.00
G01 X-6.3077 Y-24.7475 F100.00
G01 X-6.3043 Y-24.8178 F100.00
G01 X-6.3077 Y-24.8881 F100.00
G01 X-6.3184 Y-24.9595 F100.00
G01 X-6.3359 Y-25.0281 F100.00
G01 X-6.3597 Y-25.0940 F100.00
G01 X-6.3911 Y-25.1593 F100.00
G01 X-6.4276 Y-25.2194 F100.00
G01 X-6.4687 Y-25.2743 F100.00
G01 X-6.5140 Y-25.3241 F100.00
G01 X-6.5638 Y-25.3694 F100.00
G01 X-6.6264 Y-25.4156 F100.00
G01 X-6.6869 Y-25.4514 F100.00
G01 X-6.7441 Y-25.4784 F100.00
G01 X-6.8100 Y-25.5022 F100.00
G01 X-6.8786 Y-25.5197 F100.00
G01 X-6.9500 Y-25.5304 F100.00
G01 X-7.0203 Y-25.5338 F100.00
G01 X-7.0906 Y-25.5304 F100.00
G01 X-7.1620 Y-25.5197 F100.00
G01 X-7.2306 Y-25.5022 F100.00
G01 X-7.2965 Y-25.4784 F100.00
G01 X-7.3618 Y-25.4470 F100.00
G01 X-7.4219 Y-25.4105 F100.00
G01 X-7.4768 Y-25.3694 F100.00
G01 X-7.5266 Y-25.3241 F100.00
G01 X-7.5719 Y-25.2743 F100.00
G01 X-7.6181 Y-25.2117 F100.00
G01 X-7.6539 Y-25.1512 F100.00
G01 X-7.6809 Y-25.0940 F100.00
G01 X-7.7047 Y-25.0281 F100.00
G01 X-7.7222 Y-24.9595 F100.00
G01 X-7.7329 Y-24.8881 F100.00
G01 X-7.7363 Y-24.8178 F100.00
G01 X-7.7329 Y-24.7475 F100.00
G01 X-7.7222 Y-24.6761 F100.00
G00 Z2.0000
G00 X-7.1555 Y-25.6147
G01 F60.00
G01 Z-0.0700
G01 F100.00
G01 X-7.0906 Y-25.6052 F100.00
G01 X-7.0249 Y-25.6019 F100.00
G01 X-6.9547 Y-25.6049 F100.00
G01 X-6.8786 Y-25.6159 F100.00
G01 X-6.8089 Y-25.6338 F100.00
G01 X-6.6011 Y-25.5439 F100.00
G01 X-6.4593 Y-25.4409 F100.00
G01 X-6.3420 Y-25.3106 F100.00
G01 X-6.2543 Y-25.1588 F100.00
G01 X-6.2002 Y-24.9921 F100.00
G01 X-6.1819 Y-24.8178 F100.00
G01 X-6.2002 Y-24.6435 F100.00
G01 X-6.2543 Y-24.4768 F100.00
G01 X-6.3420 Y-24.3250 F100.00
G01 X-6.4593 Y-24.1947 F100.00
G01 X-6.6011 Y-24.0917 F100.00
G01 X-6.7612 Y-24.0204 F100.00
G01 X-6.9327 Y-23.9839 F100.00
G01 X-7.1079 Y-23.9839 F100.00
G01 X-7.2794 Y-24.0204 F100.00
G01 X-7.4395 Y-24.0917 F100.00
G01 X-7.5813 Y-24.1947 F100.00
G01 X-7.6986 Y-24.3250 F100.00
G01 X-7.7863 Y-24.4768 F100.00
G01 X-7.8404 Y-24.6435 F100.00
G01 X-7.8587 Y-24.8178 F100.00
G01 X-7.8404 Y-24.9921 F100.00
G01 X-7.7863 Y-25.1588 F100.00
G01 X-7.6986 Y-25.3106 F100.00
G01 X-7.5813 Y-25.4409 F100.00
G01 X-7.4395 Y-25.5439 F100.00
G01 X-7.2317 Y-25.6338 F100.00
G01 X-7.1555 Y-25.6147 F100.00
G00 Z2.0000
G00 X-6.3332 Y-26.1169
G01 F60.00
G01 Z-0.0700
G01 F100.00
G01 X-6.3184 Y-26.1761 F100.00
G01 X-6.3083 Y-26.2430 F100.00
G01 X-6.3044 Y-26.3132 F100.00
G01 X-6.3083 Y-26.3926 F100.00
G01 X-6.3184 Y-26.4595 F100.00
G01 X-6.3332 Y-26.5187 F100.00
G01 X-6.3204 Y-26.5316 F100.00
G01 X-6.3006 Y-26.4708 F100.00
G01 X-6.2845 Y-26.3178 F100.00
G01 X-6.3006 Y-26.1648 F100.00
G01 X-6.3204 Y-26.1040 F100.00
G01 X-6.3332 Y-26.1169 F100.00
G00 Z2.0000
G00 X-6.8761 Y-27.0191
G01 F60.00
G01 Z-0.0700
G01 F100.00
G01 X-6.9500 Y-27.0304 F100.00
G01 X-7.0249 Y-27.0337 F100.00
G01 X-7.0951 Y-27.0298 F100.00
G01 X-7.1620 Y-27.0197 F100.00
G01 X-7.2212 Y-27.0049 F100.00
G01 X-7.2363 Y-27.0200 F100.00
G01 X-7.0972 Y-27.0496 F100.00
G01 X-6.9434 Y-27.0496 F100.00
G01 X-6.8043 Y-27.0200 F100.00
G01 X-6.8194 Y-27.0049 F100.00
G01 X-6.8761 Y-27.0191 F100.00
G00 Z2.0000
G00 X-7.7074 Y-26.5187
G01 F60.00
G01 Z-0.0700
G01 F100.00
G01 X-7.7222 Y-26.4595 F100.00
G01 X-7.7323 Y-26.3926 F100.00
G01 X-7.7362 Y-26.3224 F100.00
G01 X-7.7323 Y-26.2430 F100.00
G01 X-7.7222 Y-26.1761 F100.00
G01 X-7.7074 Y-26.1169 F100.00
G01 X-7.7202 Y-26.1040 F100.00
G01 X-7.7400 Y-26.1648 F100.00
G01 X-7.7561 Y-26.3178 F100.00
G01 X-7.7400 Y-26.4708 F100.00
G01 X-7.7202 Y-26.5316 F100.00
G01 X-7.7074 Y-26.5187 F100.00
G00 Z2.0000
G00 X-16.9052 Y-27.3720
G01 F60.00
G01 Z-0.0700
G01 F100.00
G01 X-16.8877 Y-27.3034 F100.00
G01 X-16.8639 Y-27.2375 F100.00
G01 X-16.8325 Y-27.1722 F100.00
G01 X-16.7960 Y-27.1121 F100.00
G01 X-16.7549 Y-27.0572 F100.00
G01 X-16.7096 Y-27.0074 F100.00
G01 X-16.6598 Y-26.9621 F100.00
G01 X-16.5972 Y-26.9159 F100.00
G01 X-16.5367 Y-26.8801 F100.00
G01 X-16.4795 Y-26.8531 F100.00
G01 X-16.4136 Y-26.8293 F100.00
G01 X-16.3450 Y-26.8118 F100.00
G01 X-16.2736 Y-26.8011 F100.00
G01 X-16.2033 Y-26.7977 F100.00
G01 X-16.1330 Y-26.8011 F100.00
G01 X-16.0616 Y-26.8118 F100.00
G01 X-15.9930 Y-26.8293 F100.00
G01 X-15.9271 Y-26.8531 F100.00
G01 X-15.8618 Y-26.8845 F100.00
G01 X-15.8017 Y-26.9210 F100.00
G01 X-15.7468 Y-26.9621 F100.00
G01 X-15.6970 Y-27.0074 F100.00
G01 X-15.6517 Y-27.0572 F100.00
G01 X-15.6055 Y-27.1198 F100.00
G01 X-15.5697 Y-27.1803 F100.00
G01 X-15.5427 Y-27.2375 F100.00
G01 X-15.5189 Y-27.3034 F100.00
G01 X-15.5014 Y-27.3720 F100.00
G01 X-15.4907 Y-27.4434 F100.00
G01 X-15.4873 Y-27.5137 F100.00
G01 X-15.4907 Y-27.5840 F100.00
G01 X-15.5014 Y-27.6554 F100.00
G01 X-15.5189 Y-27.7240 F100.00
G01 X-15.5427 Y-27.7899 F100.00
G01 X-15.5741 Y-27.8552 F100.00
G01 X-15.6106 Y-27.9153 F100.00
G01 X-15.6517 Y-27.9702 F100.00
G01 X-15.6970 Y-28.0200 F100.00
G01 X-15.7468 Y-28.0653 F100.00
G01 X-15.8094 Y-28.1115 F100.00
G01 X-15.8699 Y-28.1473 F100.00
G01 X-15.9271 Y-28.1743 F100.00
G01 X-15.9930 Y-28.1981 F100.00
G01 X-16.0616 Y-28.2156 F100.00
G01 X-16.1330 Y-28.2263 F100.00
G01 X-16.2033 Y-28.2297 F100.00
G01 X-16.2736 Y-28.2263 F100.00
G01 X-16.3450 Y-28.2156 F100.00
G01 X-16.4136 Y-28.1981 F100.00
G01 X-16.4795 Y-28.1743 F100.00
G01 X-16.5448 Y-28.1429 F100.00
G01 X-16.6049 Y-28.1064 F100.00
G01 X-16.6598 Y-28.0653 F100.00
G01 X-16.7096 Y-28.0200 F100.00
G01 X-16.7549 Y-27.9702 F100.00
G01 X-16.8011 Y-27.9076 F100.00
G01 X-16.8369 Y-27.8471 F100.00
G01 X-16.8639 Y-27.7899 F100.00
G01 X-16.8877 Y-27.7240 F100.00
G01 X-16.9052 Y-27.6554 F100.00
G01 X-16.9159 Y-27.5840 F100.00
G01 X-16.9193 Y-27.5137 F100.00
G01 X-16.9159 Y-27.4434 F100.00
G01 X-16.9052 Y-27.3720 F100.00
G00 Z2.0000
G00 X-18.4052 Y-27.3720
G01 F60.00
G01 Z-0.0700
G01 F100.00
G01 X-18.3877 Y-27.3034 F100.00
G01 X-18.3639 Y-27.2375 F100.00
G01 X-18.3325 Y-27.1722 F100.00
G01 X-18.2960 Y-27.1121 F100.00
G01 X-18.2549 Y-27.0572 F100.00
G01 X-18.2096 Y-27.0074 F100.00
G01 X-18.1598 Y-26.9621 F100.00
G01 X-18.0972 Y-26.9159 F100.00
G01 X-18.0367 Y-26.8801 F100.00
G01 X-17.9795 Y-26.8531 F100.00
G01 X-17.9136 Y-26.8293 F100.00
G01 X-17.8450 Y-26.8118 F100.00
G01 X-17.7736 Y-26.8011 F100.00
G01 X-17.7033 Y-26.7977 F100.00
G01 X-17.6330 Y-26.8011 F100.00
G01 X-17.5616 Y-26.8118 F100.00
G01 X-17.4930 Y-26.8293 F100.00
G01 X-17.4271 Y-26.8531 F100.00
G01 X-17.3618 Y-26.8845 F100.00
G01 X-17.3017 Y-26.9210 F100.00
G01 X-17.2468 Y-26.9621 F100.00
G01 X-17.1970 Y-27.0074 F100.00
G01 X-17.1517 Y-27.0572 F100.00
G01 X-17.1055 Y-27.1198 F100.00
G01 X-17.0697 Y-27.1803 F100.00
G01 X-17.0427 Y-27.2375 F100.00
G01 X-17.0189 Y-27.3034 F100.00
G01 X-17.0014 Y-27.3720 F100.00
G01 X-16.9907 Y-27.4434 F100.00
G01 X-16.9873 Y-27.5137 F100.00
G01 X-16.9907 Y-27.5840 F100.00
G01 X-17.0014 Y-27.6554 F100.00
G01 X-17.0189 Y-27.7240 F100.00
G01 X-17.0427 Y-27.7899 F100.00
G01 X-17.0741 Y-27.8552 F100.00
G01 X-17.1106 Y-27.9153 F100.00
G01 X-17.1517 Y-27.9702 F100.00
G01 X-17.1970 Y-28.0200 F100.00
G01 X-17.2468 Y-28.0653 F100.00
G01 X-17.3094 Y-28.1115 F100.00
G01 X-17.3699 Y-28.1473 F100.00
G01 X-17.4271 Y-28.1743 F100.00
G01 X-17.4930 Y-28.1981 F100.00
G01 X-17.5616 Y-28.2156 F100.00
G01 X-17.6330 Y-28.2263 F100.00
G01 X-17.7033 Y-28.2297 F100.00
G01 X-17.7736 Y-28.2263 F100.00
G01 X-17.8450 Y-28.2156 F100.00
G01 X-17.9136 Y-28.1981 F100.00
G01 X-17.9795 Y-28.1743 F100.00
G01 X-18.0448 Y-28.1429 F100.00
G01 X-18.1049 Y-28.1064 F100.00
G01 X-18.1598 Y-28.0653 F100.00
G01 X-18.2096 Y-28.0200 F100.00
G01 X-18.2549 Y-27.9702 F100.00
G01 X-18.3011 Y-27.9076 F100.00
G01 X-18.3369 Y-27.8471 F100.00
G01 X-18.3639 Y-27.7899 F100.00
G01 X-18.3877 Y-27.7240 F100.00
G01 X-18.4052 Y-27.6554 F100.00
G01 X-18.4159 Y-27.5840 F100.00
G01 X-18.4194 Y-27.5137 F100.00
G01 X-18.4159 Y-27.4434 F100.00
G01 X-18.4052 Y-27.3720 F100.00
G00 Z2.0000
G00 X-29.1337 Y-24.8451
G01 F60.00
G01 Z-0.0700
G01 F100.00
G01 X-29.1607 Y-24.8336 F100.00
G01 X-29.1860 Y-24.8104 F100.00
G01 X-29.1992 Y-24.7858 F100.00
G01 X-29.2046 Y-24.7589 F100.00
G01 X-29.2048 Y-23.3825 F100.00
G01 X-29.1992 Y-23.3508 F100.00
G01 X-29.1801 Y-23.3192 F100.00
G01 X-29.1491 Y-23.2968 F100.00
G01 X-29.1110 Y-23.2887 F100.00
G01 X-27.7394 Y-23.2887 F100.00
G01 X-27.7077 Y-23.2943 F100.00
G01 X-27.6761 Y-23.3134 F100.00
G01 X-27.6537 Y-23.3444 F100.00
G01 X-27.6456 Y-23.3825 F100.00
G01 X-27.6456 Y-24.7541 F100.00
G01 X-27.6512 Y-24.7858 F100.00
G01 X-27.6703 Y-24.8174 F100.00
G01 X-27.7013 Y-24.8398 F100.00
G01 X-27.7394 Y-24.8479 F100.00
G01 X-29.1337 Y-24.8451 F100.00
G00 Z2.0000
G00 X-29.3225 Y-23.3423
G01 F60.00
G01 Z-0.0700
G01 F100.00
G01 X-29.3225 Y-24.7943 F100.00
G01 X-29.2886 Y-24.8757 F100.00
G01 X-29.2326 Y-24.9317 F100.00
G01 X-29.1512 Y-24.9656 F100.00
G01 X-27.6992 Y-24.9656 F100.00
G01 X-27.6178 Y-24.9317 F100.00
G01 X-27.5618 Y-24.8757 F100.00
G01 X-27.5279 Y-24.7943 F100.00
G01 X-27.5279 Y-23.3423 F100.00
G01 X-27.5619 Y-23.2609 F100.00
G01 X-27.6178 Y-23.2050 F100.00
G01 X-27.6992 Y-23.1710 F100.00
G01 X-29.1512 Y-23.1710 F100.00
G01 X-29.2326 Y-23.2049 F100.00
G01 X-29.2886 Y-23.2609 F100.00
G01 X-29.3225 Y-23.3423 F100.00
G00 Z2.0000
G00 X-33.1898 Y-23.9161
G01 F60.00
G01 Z-0.0700
G01 F100.00
G01 X-33.1697 Y-23.8376 F100.00
G01 X-33.1445 Y-23.7678 F100.00
G01 X-33.1104 Y-23.6968 F100.00
G01 X-33.0734 Y-23.6353 F100.00
G01 X-33.0303 Y-23.5770 F100.00
G01 X-32.9764 Y-23.5171 F100.00
G01 X-32.9165 Y-23.4632 F100.00
G01 X-32.8582 Y-23.4201 F100.00
G01 X-32.7967 Y-23.3831 F100.00
G01 X-32.7257 Y-23.3490 F100.00
G01 X-32.6559 Y-23.3238 F100.00
G01 X-32.5774 Y-23.3037 F100.00
G01 X-32.5017 Y-23.2925 F100.00
G01 X-32.4252 Y-23.2888 F100.00
G01 X-32.3487 Y-23.2925 F100.00
G01 X-32.2730 Y-23.3037 F100.00
G01 X-32.1945 Y-23.3238 F100.00
G01 X-32.1247 Y-23.3490 F100.00
G01 X-32.0537 Y-23.3831 F100.00
G01 X-31.9922 Y-23.4201 F100.00
G01 X-31.9339 Y-23.4632 F100.00
G01 X-31.8740 Y-23.5171 F100.00
G01 X-31.8201 Y-23.5770 F100.00
G01 X-31.7770 Y-23.6353 F100.00
G01 X-31.7400 Y-23.6968 F100.00
G01 X-31.7059 Y-23.7678 F100.00
G01 X-31.6807 Y-23.8376 F100.00
G01 X-31.6606 Y-23.9161 F100.00
G01 X-31.6494 Y-23.9918 F100.00
G01 X-31.6457 Y-24.0683 F100.00
G01 X-31.6494 Y-24.1448 F100.00
G01 X-31.6606 Y-24.2205 F100.00
G01 X-31.6807 Y-24.2990 F100.00
G01 X-31.7059 Y-24.3688 F100.00
G01 X-31.7400 Y-24.4398 F100.00
G01 X-31.7770 Y-24.5013 F100.00
G01 X-31.8201 Y-24.5596 F100.00
G01 X-31.8740 Y-24.6195 F100.00
G01 X-31.9339 Y-24.6734 F100.00
G01 X-31.9922 Y-24.7165 F100.00
G01 X-32.0537 Y-24.7535 F100.00
G01 X-32.1247 Y-24.7876 F100.00
G01 X-32.1945 Y-24.8128 F100.00
G01 X-32.2730 Y-24.8329 F100.00
G01 X-32.3487 Y-24.8441 F100.00
G01 X-32.4252 Y-24.8478 F100.00
G01 X-32.5017 Y-24.8441 F100.00
G01 X-32.5774 Y-24.8329 F100.00
G01 X-32.6559 Y-24.8128 F100.00
G01 X-32.7257 Y-24.7876 F100.00
G01 X-32.7967 Y-24.7535 F100.00
G01 X-32.8582 Y-24.7165 F100.00
G01 X-32.9165 Y-24.6734 F100.00
G01 X-32.9764 Y-24.6195 F100.00
G01 X-33.0303 Y-24.5596 F100.00
G01 X-33.0734 Y-24.5013 F100.00
G01 X-33.1104 Y-24.4398 F100.00
G01 X-33.1445 Y-24.3688 F100.00
G01 X-33.1697 Y-24.2990 F100.00
G01 X-33.1898 Y-24.2205 F100.00
G01 X-33.2010 Y-24.1448 F100.00
G01 X-33.2047 Y-24.0683 F100.00
G01 X-33.2010 Y-23.9918 F100.00
G01 X-33.1898 Y-23.9161 F100.00
G00 Z2.0000
G00 X-33.3096 Y-24.2442
G01 F60.00
G01 Z-0.0700
G01 F100.00
G01 X-33.2583 Y-24.4134 F100.00
G01 X-33.1749 Y-24.5693 F100.00
G01 X-33.0628 Y-24.7059 F100.00
G01 X-32.9262 Y-24.8180 F100.00
G01 X-32.7703 Y-24.9014 F100.00
G01 X-32.6011 Y-24.9527 F100.00
G01 X-32.4252 Y-24.9700 F100.00
G01 X-32.2493 Y-24.9527 F100.00
G01 X-32.0801 Y-24.9014 F100.00
G01 X-31.9242 Y-24.8180 F100.00
G01 X-31.7876 Y-24.7059 F100.00
G01 X-31.6755 Y-24.5692 F100.00
G01 X-31.5921 Y-24.4134 F100.00
G01 X-31.5408 Y-24.2442 F100.00
G01 X-31.5235 Y-24.0683 F100.00
G01 X-31.5408 Y-23.8924 F100.00
G01 X-31.5921 Y-23.7232 F100.00
G01 X-31.6755 Y-23.5673 F100.00
G01 X-31.7876 Y-23.4307 F100.00
G01 X-31.9243 Y-23.3186 F100.00
G01 X-32.0801 Y-23.2352 F100.00
G01 X-32.2493 Y-23.1839 F100.00
G01 X-32.4252 Y-23.1666 F100.00
G01 X-32.6011 Y-23.1839 F100.00
G01 X-32.7703 Y-23.2352 F100.00
G01 X-32.9262 Y-23.3186 F100.00
G01 X-33.0628 Y-23.4307 F100.00
G01 X-33.1749 Y-23.5674 F100.00
G01 X-33.2583 Y-23.7232 F100.00
G01 X-33.3096 Y-23.8924 F100.00
G01 X-33.3269 Y-24.0683 F100.00
G01 X-33.3096 Y-24.2442 F100.00
G00 Z2.0000
G00 X-41.8302 Y-27.3920
G01 F60.00
G01 Z-0.0700
G01 F100.00
G01 X-41.8127 Y-27.3234 F100.00
G01 X-41.7889 Y-27.2575 F100.00
G01 X-41.7575 Y-27.1922 F100.00
G01 X-41.7210 Y-27.1321 F100.00
G01 X-41.6799 Y-27.0772 F100.00
G01 X-41.6346 Y-27.0274 F100.00
G01 X-41.5848 Y-26.9821 F100.00
G01 X-41.5222 Y-26.9359 F100.00
G01 X-41.4617 Y-26.9001 F100.00
G01 X-41.4045 Y-26.8731 F100.00
G01 X-41.3386 Y-26.8493 F100.00
G01 X-41.2700 Y-26.8318 F100.00
G01 X-41.1986 Y-26.8211 F100.00
G01 X-41.1283 Y-26.8177 F100.00
G01 X-41.0580 Y-26.8211 F100.00
G01 X-40.9866 Y-26.8318 F100.00
G01 X-40.9180 Y-26.8493 F100.00
G01 X-40.8521 Y-26.8731 F100.00
G01 X-40.7868 Y-26.9045 F100.00
G01 X-40.7267 Y-26.9410 F100.00
G01 X-40.6718 Y-26.9821 F100.00
G01 X-40.6220 Y-27.0274 F100.00
G01 X-40.5767 Y-27.0772 F100.00
G01 X-40.5305 Y-27.1398 F100.00
G01 X-40.4947 Y-27.2003 F100.00
G01 X-40.4677 Y-27.2575 F100.00
G01 X-40.4439 Y-27.3234 F100.00
G01 X-40.4264 Y-27.3920 F100.00
G01 X-40.4157 Y-27.4634 F100.00
G01 X-40.4123 Y-27.5337 F100.00
G01 X-40.4157 Y-27.6040 F100.00
G01 X-40.4264 Y-27.6754 F100.00
G01 X-40.4439 Y-27.7440 F100.00
G01 X-40.4677 Y-27.8099 F100.00
G01 X-40.4991 Y-27.8752 F100.00
G01 X-40.5356 Y-27.9353 F100.00
G01 X-40.5767 Y-27.9902 F100.00
G01 X-40.6220 Y-28.0400 F100.00
G01 X-40.6718 Y-28.0853 F100.00
G01 X-40.7344 Y-28.1315 F100.00
G01 X-40.7949 Y-28.1673 F100.00
G01 X-40.8521 Y-28.1943 F100.00
G01 X-40.9180 Y-28.2181 F100.00
G01 X-40.9866 Y-28.2356 F100.00
G01 X-41.0580 Y-28.2463 F100.00
G01 X-41.1283 Y-28.2497 F100.00
G01 X-41.1986 Y-28.2463 F100.00
G01 X-41.2700 Y-28.2356 F100.00
G01 X-41.3386 Y-28.2181 F100.00
G01 X-41.4045 Y-28.1943 F100.00
G01 X-41.4698 Y-28.1629 F100.00
G01 X-41.5299 Y-28.1264 F100.00
G01 X-41.5848 Y-28.0853 F100.00
G01 X-41.6346 Y-28.0400 F100.00
G01 X-41.6799 Y-27.9902 F100.00
G01 X-41.7261 Y-27.9276 F100.00
G01 X-41.7619 Y-27.8671 F100.00
G01 X-41.7889 Y-27.8099 F100.00
G01 X-41.8127 Y-27.7440 F100.00
G01 X-41.8302 Y-27.6754 F100.00
G01 X-41.8409 Y-27.6040 F100.00
G01 X-41.8443 Y-27.5337 F100.00
G01 X-41.8409 Y-27.4634 F100.00
G01 X-41.8302 Y-27.3920 F100.00
G00 Z2.0000
G00 X-41.9774 Y-27.0064
G01 F60.00
G01 Z-0.0700
G01 F100.00
G01 X-42.0673 Y-26.9106 F100.00
G01 X-42.2091 Y-26.8076 F100.00
G01 X-42.3692 Y-26.7363 F100.00
G01 X-42.5407 Y-26.6999 F100.00
G01 X-42.7159 Y-26.6999 F100.00
G01 X-42.8874 Y-26.7363 F100.00
G01 X-43.0475 Y-26.8076 F100.00
G01 X-43.1893 Y-26.9106 F100.00
G01 X-43.3066 Y-27.0409 F100.00
G01 X-43.3943 Y-27.1927 F100.00
G01 X-43.4484 Y-27.3594 F100.00
G01 X-43.4667 Y-27.5337 F100.00
G01 X-43.4484 Y-27.7080 F100.00
G01 X-43.3943 Y-27.8747 F100.00
G01 X-43.3066 Y-28.0265 F100.00
G01 X-43.1893 Y-28.1568 F100.00
G01 X-43.0475 Y-28.2598 F100.00
G01 X-42.8874 Y-28.3311 F100.00
G01 X-42.7159 Y-28.3675 F100.00
G01 X-42.5407 Y-28.3675 F100.00
G01 X-42.3692 Y-28.3311 F100.00
G01 X-42.2091 Y-28.2598 F100.00
G01 X-42.0673 Y-28.1568 F100.00
G01 X-41.9928 Y-28.0741 F100.00
G01 X-41.9702 Y-28.0547 F100.00
G01 X-41.9018 Y-28.0282 F100.00
G01 X-41.8750 Y-28.0243 F100.00
G01 X-41.8393 Y-28.0313 F100.00
G01 X-41.7792 Y-28.0610 F100.00
G01 X-41.6893 Y-28.1568 F100.00
G01 X-41.5475 Y-28.2598 F100.00
G01 X-41.3874 Y-28.3311 F100.00
G01 X-41.2159 Y-28.3675 F100.00
G01 X-41.0407 Y-28.3675 F100.00
G01 X-40.8692 Y-28.3311 F100.00
G01 X-40.7091 Y-28.2598 F100.00
G01 X-40.5673 Y-28.1568 F100.00
G01 X-40.4500 Y-28.0265 F100.00
G01 X-40.3623 Y-27.8747 F100.00
G01 X-40.3082 Y-27.7080 F100.00
G01 X-40.2899 Y-27.5337 F100.00
G01 X-40.3082 Y-27.3594 F100.00
G01 X-40.3623 Y-27.1927 F100.00
G01 X-40.4500 Y-27.0409 F100.00
G01 X-40.5673 Y-26.9106 F100.00
G01 X-40.7091 Y-26.8076 F100.00
G01 X-40.8692 Y-26.7363 F100.00
G01 X-41.0407 Y-26.6999 F100.00
G01 X-41.2159 Y-26.6999 F100.00
G01 X-41.3874 Y-26.7363 F100.00
G01 X-41.5475 Y-26.8076 F100.00
G01 X-41.6893 Y-26.9106 F100.00
G01 X-41.7702 Y-26.9997 F100.00
G01 X-41.8017 Y-27.0205 F100.00
G01 X-41.8548 Y-27.0392 F100.00
G01 X-41.8909 Y-27.0427 F100.00
G01 X-41.9169 Y-27.0362 F100.00
G01 X-41.9774 Y-27.0064 F100.00
G00 Z2.0000
G00 X-43.3302 Y-27.3920
G01 F60.00
G01 Z-0.0700
G01 F100.00
G01 X-43.3127 Y-27.3234 F100.00
G01 X-43.2889 Y-27.2575 F100.00
G01 X-43.2575 Y-27.1922 F100.00
G01 X-43.2210 Y-27.1321 F100.00
G01 X-43.1799 Y-27.0772 F100.00
G01 X-43.1346 Y-27.0274 F100.00
G01 X-43.0848 Y-26.9821 F100.00
G01 X-43.0222 Y-26.9359 F100.00
G01 X-42.9617 Y-26.9001 F100.00
G01 X-42.9045 Y-26.8731 F100.00
G01 X-42.8386 Y-26.8493 F100.00
G01 X-42.7700 Y-26.8318 F100.00
G01 X-42.6986 Y-26.8211 F100.00
G01 X-42.6283 Y-26.8177 F100.00
G01 X-42.5580 Y-26.8211 F100.00
G01 X-42.4866 Y-26.8318 F100.00
G01 X-42.4180 Y-26.8493 F100.00
G01 X-42.3521 Y-26.8731 F100.00
G01 X-42.2868 Y-26.9045 F100.00
G01 X-42.2267 Y-26.9410 F100.00
G01 X-42.1718 Y-26.9821 F100.00
G01 X-42.1220 Y-27.0274 F100.00
G01 X-42.0767 Y-27.0772 F100.00
G01 X-42.0305 Y-27.1398 F100.00
G01 X-41.9947 Y-27.2003 F100.00
G01 X-41.9677 Y-27.2575 F100.00
G01 X-41.9439 Y-27.3234 F100.00
G01 X-41.9264 Y-27.3920 F100.00
G01 X-41.9157 Y-27.4634 F100.00
G01 X-41.9123 Y-27.5337 F100.00
G01 X-41.9157 Y-27.6040 F100.00
G01 X-41.9264 Y-27.6754 F100.00
G01 X-41.9439 Y-27.7440 F100.00
G01 X-41.9677 Y-27.8099 F100.00
G01 X-41.9991 Y-27.8752 F100.00
G01 X-42.0356 Y-27.9353 F100.00
G01 X-42.0767 Y-27.9902 F100.00
G01 X-42.1220 Y-28.0400 F100.00
G01 X-42.1718 Y-28.0853 F100.00
G01 X-42.2344 Y-28.1315 F100.00
G01 X-42.2949 Y-28.1673 F100.00
G01 X-42.3521 Y-28.1943 F100.00
G01 X-42.4180 Y-28.2181 F100.00
G01 X-42.4866 Y-28.2356 F100.00
G01 X-42.5580 Y-28.2463 F100.00
G01 X-42.6283 Y-28.2497 F100.00
G01 X-42.6986 Y-28.2463 F100.00
G01 X-42.7700 Y-28.2356 F100.00
G01 X-42.8386 Y-28.2181 F100.00
G01 X-42.9045 Y-28.1943 F100.00
G01 X-42.9698 Y-28.1629 F100.00
G01 X-43.0299 Y-28.1264 F100.00
G01 X-43.0848 Y-28.0853 F100.00
G01 X-43.1346 Y-28.0400 F100.00
G01 X-43.1799 Y-27.9902 F100.00
G01 X-43.2261 Y-27.9276 F100.00
G01 X-43.2619 Y-27.8671 F100.00
G01 X-43.2889 Y-27.8099 F100.00
G01 X-43.3127 Y-27.7440 F100.00
G01 X-43.3302 Y-27.6754 F100.00
G01 X-43.3409 Y-27.6040 F100.00
G01 X-43.3444 Y-27.5337 F100.00
G01 X-43.3409 Y-27.4634 F100.00
G01 X-43.3302 Y-27.3920 F100.00
G00 Z2.0000
G00 X-58.9209 Y-24.4006
G01 F60.00
G01 Z-0.0700
G01 F100.00
G01 X-58.9479 Y-24.3891 F100.00
G01 X-58.9732 Y-24.3658 F100.00
G01 X-58.9871 Y-24.3392 F100.00
G01 X-58.9920 Y-24.3096 F100.00
G01 X-58.9920 Y-22.6096 F100.00
G01 X-58.9839 Y-22.5715 F100.00
G01 X-58.9645 Y-22.5433 F100.00
G01 X-58.9363 Y-22.5239 F100.00
G01 X-58.8982 Y-22.5158 F100.00
G01 X-57.1982 Y-22.5158 F100.00
G01 X-57.1601 Y-22.5239 F100.00
G01 X-57.1319 Y-22.5433 F100.00
G01 X-57.1125 Y-22.5715 F100.00
G01 X-57.1044 Y-22.6096 F100.00
G01 X-57.1044 Y-24.3096 F100.00
G01 X-57.1125 Y-24.3477 F100.00
G01 X-57.1319 Y-24.3759 F100.00
G01 X-57.1601 Y-24.3953 F100.00
G01 X-57.1982 Y-24.4034 F100.00
G01 X-58.9209 Y-24.4006 F100.00
G00 Z2.0000
G00 X-59.1097 Y-22.5694
G01 F60.00
G01 Z-0.0700
G01 F100.00
G01 X-59.1097 Y-24.3498 F100.00
G01 X-59.0758 Y-24.4312 F100.00
G01 X-59.0198 Y-24.4872 F100.00
G01 X-58.9384 Y-24.5211 F100.00
G01 X-57.1580 Y-24.5211 F100.00
G01 X-57.0766 Y-24.4872 F100.00
G01 X-57.0206 Y-24.4312 F100.00
G01 X-56.9867 Y-24.3498 F100.00
G01 X-56.9867 Y-22.5694 F100.00
G01 X-57.0207 Y-22.4880 F100.00
G01 X-57.0766 Y-22.4321 F100.00
G01 X-57.1580 Y-22.3981 F100.00
G01 X-58.9384 Y-22.3981 F100.00
G01 X-59.0198 Y-22.4320 F100.00
G01 X-59.0758 Y-22.4880 F100.00
G01 X-59.1097 Y-22.5694 F100.00
G00 Z2.0000
G00 X-63.7669 Y-26.2856
G01 F60.00
G01 Z-0.0700
G01 F100.00
G01 X-63.7669 Y-28.0660 F100.00
G01 X-63.7330 Y-28.1474 F100.00
G01 X-63.6770 Y-28.2034 F100.00
G01 X-63.5956 Y-28.2373 F100.00
G01 X-61.8152 Y-28.2373 F100.00
G01 X-61.7338 Y-28.2034 F100.00
G01 X-61.6778 Y-28.1474 F100.00
G01 X-61.6439 Y-28.0660 F100.00
G01 X-61.6439 Y-26.2856 F100.00
G01 X-61.6779 Y-26.2042 F100.00
G01 X-61.7338 Y-26.1483 F100.00
G01 X-61.8152 Y-26.1143 F100.00
G01 X-63.5956 Y-26.1143 F100.00
G01 X-63.6770 Y-26.1482 F100.00
G01 X-63.7330 Y-26.2042 F100.00
G01 X-63.7669 Y-26.2856 F100.00
G00 Z2.0000
G00 X-63.5781 Y-28.1168
G01 F60.00
G01 Z-0.0700
G01 F100.00
G01 X-63.6051 Y-28.1053 F100.00
G01 X-63.6304 Y-28.0821 F100.00
G01 X-63.6443 Y-28.0554 F100.00
G01 X-63.6492 Y-28.0258 F100.00
G01 X-63.6492 Y-26.3258 F100.00
G01 X-63.6411 Y-26.2877 F100.00
G01 X-63.6217 Y-26.2595 F100.00
G01 X-63.5935 Y-26.2401 F100.00
G01 X-63.5554 Y-26.2320 F100.00
G01 X-61.8554 Y-26.2320 F100.00
G01 X-61.8173 Y-26.2401 F100.00
G01 X-61.7891 Y-26.2595 F100.00
G01 X-61.7697 Y-26.2877 F100.00
G01 X-61.7616 Y-26.3258 F100.00
G01 X-61.7616 Y-28.0258 F100.00
G01 X-61.7697 Y-28.0639 F100.00
G01 X-61.7891 Y-28.0921 F100.00
G01 X-61.8173 Y-28.1115 F100.00
G01 X-61.8554 Y-28.1196 F100.00
G01 X-63.5781 Y-28.1168 F100.00
G00 Z2.0000
G00 X-69.7727 Y-21.1289
G01 F60.00
G01 Z-0.0700
G01 F100.00
G01 X-69.7884 Y-21.1445 F100.00
G01 X-68.5418 Y-21.1445 F100.00
G01 X-68.5575 Y-21.1289 F100.00
G01 X-69.7727 Y-21.1289 F100.00
G00 Z2.0000
G00 X-70.2746 Y-19.4545
G01 F60.00
G01 Z-0.0700
G01 F100.00
G01 X-70.2746 Y-20.6584 F100.00
G01 X-70.2589 Y-20.6427 F100.00
G01 X-70.2589 Y-19.4388 F100.00
G01 X-70.2746 Y-19.4545 F100.00
G00 Z2.0000
G00 X-72.1884 Y-19.3738
G01 F60.00
G01 Z-0.0700
G01 F100.00
G01 X-72.2041 Y-19.3895 F100.00
G01 X-70.9575 Y-19.3895 F100.00
G01 X-70.9732 Y-19.3738 F100.00
G01 X-72.1884 Y-19.3738 F100.00
G00 Z2.0000
G00 X-72.6746 Y-17.6724
G01 F60.00
G01 Z-0.0700
G01 F100.00
G01 X-72.6903 Y-17.6567 F100.00
G01 X-72.6903 Y-18.9033 F100.00
G01 X-72.6746 Y-18.8876 F100.00
G01 X-72.6746 Y-17.6724 F100.00
G00 Z2.0000
G00 X-71.6808 Y-16.5311
G01 F60.00
G01 Z-0.0700
G01 F100.00
G01 X-71.7078 Y-16.5197 F100.00
G01 X-71.7331 Y-16.4964 F100.00
G01 X-71.7470 Y-16.4698 F100.00
G01 X-71.7518 Y-16.4402 F100.00
G01 X-71.7518 Y-14.4402 F100.00
G01 X-71.7438 Y-14.4021 F100.00
G01 X-71.7244 Y-14.3739 F100.00
G01 X-71.6962 Y-14.3545 F100.00
G01 X-71.6581 Y-14.3464 F100.00
G01 X-69.6581 Y-14.3464 F100.00
G01 X-69.6200 Y-14.3545 F100.00
G01 X-69.5918 Y-14.3739 F100.00
G01 X-69.5724 Y-14.4021 F100.00
G01 X-69.5643 Y-14.4402 F100.00
G01 X-69.5643 Y-16.4402 F100.00
G01 X-69.5724 Y-16.4783 F100.00
G01 X-69.5918 Y-16.5065 F100.00
G01 X-69.6200 Y-16.5259 F100.00
G01 X-69.6581 Y-16.5339 F100.00
G01 X-71.6808 Y-16.5311 F100.00
G00 Z2.0000
G00 X-70.9732 Y-17.1863
G01 F60.00
G01 Z-0.0700
G01 F100.00
G01 X-70.9575 Y-17.1706 F100.00
G01 X-72.2041 Y-17.1706 F100.00
G01 X-72.1884 Y-17.1863 F100.00
G01 X-70.9732 Y-17.1863 F100.00
G00 Z2.0000
G00 X-69.9275 Y-17.1956
G01 F60.00
G01 Z-0.0700
G01 F100.00
G01 X-69.9114 Y-17.1596 F100.00
G01 X-69.7452 Y-16.9150 F100.00
G01 X-69.4823 Y-16.7388 F100.00
G01 X-69.1673 Y-16.6756 F100.00
G01 X-68.8524 Y-16.7388 F100.00
G01 X-68.5894 Y-16.9150 F100.00
G01 X-68.4132 Y-17.1779 F100.00
G01 X-68.3501 Y-17.4929 F100.00
G01 X-68.4132 Y-17.8079 F100.00
G01 X-68.5894 Y-18.0708 F100.00
G01 X-68.8524 Y-18.2470 F100.00
G01 X-69.1673 Y-18.3102 F100.00
G01 X-69.4823 Y-18.2470 F100.00
G01 X-69.7452 Y-18.0708 F100.00
G01 X-69.9214 Y-17.8079 F100.00
G01 X-69.9846 Y-17.4929 F100.00
G01 X-69.9275 Y-17.1956 F100.00
G00 Z2.0000
G00 X-69.3883 Y-16.9594
G01 F60.00
G01 Z-0.0700
G01 F100.00
G01 X-69.5756 Y-17.0846 F100.00
G01 X-69.7008 Y-17.2719 F100.00
G01 X-69.7447 Y-17.4929 F100.00
G01 X-69.7008 Y-17.7139 F100.00
G01 X-69.5756 Y-17.9012 F100.00
G01 X-69.3883 Y-18.0264 F100.00
G01 X-69.1673 Y-18.0703 F100.00
G01 X-68.9464 Y-18.0264 F100.00
G01 X-68.7590 Y-17.9012 F100.00
G01 X-68.6339 Y-17.7139 F100.00
G01 X-68.5899 Y-17.4929 F100.00
G01 X-68.6339 Y-17.2719 F100.00
G01 X-68.7590 Y-17.0846 F100.00
G01 X-68.9464 Y-16.9594 F100.00
G01 X-69.1673 Y-16.9155 F100.00
G01 X-69.3883 Y-16.9594 F100.00
G00 Z2.0000
G00 X-68.6949 Y-16.5311
G01 F60.00
G01 Z-0.0700
G01 F100.00
G01 X-68.7218 Y-16.5197 F100.00
G01 X-68.7471 Y-16.4964 F100.00
G01 X-68.7611 Y-16.4698 F100.00
G01 X-68.7659 Y-16.4402 F100.00
G01 X-68.7659 Y-14.4402 F100.00
G01 X-68.7578 Y-14.4021 F100.00
G01 X-68.7384 Y-14.3739 F100.00
G01 X-68.7102 Y-14.3545 F100.00
G01 X-68.6721 Y-14.3464 F100.00
G01 X-66.6721 Y-14.3464 F100.00
G01 X-66.6341 Y-14.3545 F100.00
G01 X-66.6059 Y-14.3739 F100.00
G01 X-66.5865 Y-14.4021 F100.00
G01 X-66.5784 Y-14.4402 F100.00
G01 X-66.5784 Y-16.4402 F100.00
G01 X-66.5865 Y-16.4783 F100.00
G01 X-66.6059 Y-16.5065 F100.00
G01 X-66.6341 Y-16.5259 F100.00
G01 X-66.6721 Y-16.5339 F100.00
G01 X-68.6949 Y-16.5311 F100.00
G00 Z2.0000
G00 X-67.7722 Y-19.3710
G01 F60.00
G01 Z-0.0700
G01 F100.00
G01 X-67.7991 Y-19.3595 F100.00
G01 X-67.8244 Y-19.3363 F100.00
G01 X-67.8384 Y-19.3097 F100.00
G01 X-67.8432 Y-19.2800 F100.00
G01 X-67.8432 Y-17.2800 F100.00
G01 X-67.8351 Y-17.2419 F100.00
G01 X-67.8157 Y-17.2137 F100.00
G01 X-67.7875 Y-17.1943 F100.00
G01 X-67.7494 Y-17.1863 F100.00
G01 X-65.7494 Y-17.1863 F100.00
G01 X-65.7114 Y-17.1943 F100.00
G01 X-65.6831 Y-17.2137 F100.00
G01 X-65.6638 Y-17.2419 F100.00
G01 X-65.6557 Y-17.2800 F100.00
G01 X-65.6557 Y-19.2800 F100.00
G01 X-65.6638 Y-19.3181 F100.00
G01 X-65.6831 Y-19.3463 F100.00
G01 X-65.7114 Y-19.3657 F100.00
G01 X-65.7494 Y-19.3738 F100.00
G01 X-67.7722 Y-19.3710 F100.00
G00 Z2.0000
G00 X-71.8696 Y-14.4000
G01 F60.00
G01 Z-0.0700
G01 F100.00
G01 X-71.8696 Y-16.4804 F100.00
G01 X-71.8356 Y-16.5618 F100.00
G01 X-71.7797 Y-16.6177 F100.00
G01 X-71.6983 Y-16.6517 F100.00
G01 X-70.2216 Y-16.6522 F100.00
G01 X-70.1590 Y-16.6708 F100.00
G01 X-70.1315 Y-16.6876 F100.00
G01 X-70.1124 Y-16.7106 F100.00
G01 X-70.0792 Y-16.7726 F100.00
G01 X-70.0757 Y-16.8090 F100.00
G01 X-70.0929 Y-16.8777 F100.00
G01 X-70.2024 Y-17.0919 F100.00
G01 X-70.2584 Y-17.2889 F100.00
G01 X-70.2695 Y-17.4078 F100.00
G01 X-70.2775 Y-17.4346 F100.00
G01 X-70.3115 Y-17.4967 F100.00
G01 X-70.4871 Y-17.6724 F100.00
G01 X-70.4871 Y-18.8763 F100.00
G01 X-70.4714 Y-18.8606 F100.00
G01 X-70.4707 Y-18.0067 F100.00
G01 X-70.4641 Y-17.9709 F100.00
G01 X-70.4474 Y-17.9393 F100.00
G01 X-70.4043 Y-17.8911 F100.00
G01 X-70.3717 Y-17.8728 F100.00
G01 X-70.2971 Y-17.8650 F100.00
G01 X-70.2696 Y-17.8685 F100.00
G01 X-70.2390 Y-17.8837 F100.00
G01 X-70.1943 Y-17.9224 F100.00
G01 X-70.1777 Y-17.9437 F100.00
G01 X-70.1110 Y-18.0772 F100.00
G01 X-69.9876 Y-18.2407 F100.00
G01 X-69.8362 Y-18.3787 F100.00
G01 X-69.6621 Y-18.4865 F100.00
G01 X-69.4711 Y-18.5605 F100.00
G01 X-69.2697 Y-18.5981 F100.00
G01 X-69.0649 Y-18.5981 F100.00
G01 X-68.8636 Y-18.5605 F100.00
G01 X-68.6726 Y-18.4865 F100.00
G01 X-68.4984 Y-18.3787 F100.00
G01 X-68.3470 Y-18.2407 F100.00
G01 X-68.2392 Y-18.0981 F100.00
G01 X-68.2090 Y-18.0707 F100.00
G01 X-68.1469 Y-18.0442 F100.00
G01 X-68.1125 Y-18.0395 F100.00
G01 X-68.0824 Y-18.0461 F100.00
G01 X-68.0171 Y-18.0762 F100.00
G01 X-67.9884 Y-18.1111 F100.00
G01 X-67.9658 Y-18.1660 F100.00
G01 X-67.9611 Y-18.1909 F100.00
G01 X-67.9611 Y-18.7784 F100.00
G01 X-67.9650 Y-18.8089 F100.00
G01 X-67.9755 Y-18.8341 F100.00
G01 X-68.0113 Y-18.8867 F100.00
G01 X-68.0421 Y-18.9103 F100.00
G01 X-68.1294 Y-18.9288 F100.00
G01 X-68.1543 Y-18.9257 F100.00
G01 X-69.7884 Y-18.9257 F100.00
G01 X-69.7727 Y-18.9413 F100.00
G01 X-68.1603 Y-18.9415 F100.00
G01 X-68.1270 Y-18.9494 F100.00
G01 X-68.0988 Y-18.9688 F100.00
G01 X-68.0795 Y-18.9970 F100.00
G01 X-68.0715 Y-19.0303 F100.00
G01 X-68.0714 Y-20.6427 F100.00
G01 X-68.0557 Y-20.6584 F100.00
G01 X-68.0553 Y-19.6073 F100.00
G01 X-68.0464 Y-19.5637 F100.00
G01 X-68.0359 Y-19.5406 F100.00
G01 X-67.9867 Y-19.4898 F100.00
G01 X-67.9639 Y-19.4737 F100.00
G01 X-67.9324 Y-19.4644 F100.00
G01 X-67.8675 Y-19.4652 F100.00
G01 X-67.8445 Y-19.4697 F100.00
G01 X-67.7896 Y-19.4916 F100.00
G01 X-65.7093 Y-19.4916 F100.00
G01 X-65.6278 Y-19.4576 F100.00
G01 X-65.5719 Y-19.4016 F100.00
G01 X-65.5379 Y-19.3202 F100.00
G01 X-65.5379 Y-17.2398 F100.00
G01 X-65.5719 Y-17.1584 F100.00
G01 X-65.6278 Y-17.1025 F100.00
G01 X-65.7093 Y-17.0685 F100.00
G01 X-67.7896 Y-17.0685 F100.00
G01 X-67.8711 Y-17.1025 F100.00
G01 X-67.8970 Y-17.1274 F100.00
G01 X-67.9362 Y-17.1523 F100.00
G01 X-67.9597 Y-17.1583 F100.00
G01 X-68.0264 Y-17.1620 F100.00
G01 X-68.0696 Y-17.1473 F100.00
G01 X-68.1319 Y-17.0905 F100.00
G01 X-68.2375 Y-16.8876 F100.00
G01 X-68.2587 Y-16.8237 F100.00
G01 X-68.2552 Y-16.7783 F100.00
G01 X-68.2325 Y-16.7234 F100.00
G01 X-68.2191 Y-16.7028 F100.00
G01 X-68.1899 Y-16.6799 F100.00
G01 X-68.1171 Y-16.6527 F100.00
G01 X-66.6320 Y-16.6517 F100.00
G01 X-66.5505 Y-16.6177 F100.00
G01 X-66.4946 Y-16.5618 F100.00
G01 X-66.4606 Y-16.4804 F100.00
G01 X-66.4606 Y-14.4000 F100.00
G01 X-66.4946 Y-14.3186 F100.00
G01 X-66.5505 Y-14.2626 F100.00
G01 X-66.6320 Y-14.2286 F100.00
G01 X-68.7123 Y-14.2286 F100.00
G01 X-68.7938 Y-14.2626 F100.00
G01 X-68.8497 Y-14.3186 F100.00
G01 X-68.8837 Y-14.4000 F100.00
G01 X-68.8858 Y-16.2585 F100.00
G01 X-68.9000 Y-16.2960 F100.00
G01 X-68.9291 Y-16.3404 F100.00
G01 X-68.9481 Y-16.3597 F100.00
G01 X-68.9808 Y-16.3756 F100.00
G01 X-69.0514 Y-16.3885 F100.00
G01 X-69.2903 Y-16.3888 F100.00
G01 X-69.3219 Y-16.3833 F100.00
G01 X-69.3764 Y-16.3606 F100.00
G01 X-69.4008 Y-16.3430 F100.00
G01 X-69.4183 Y-16.3187 F100.00
G01 X-69.4437 Y-16.2555 F100.00
G01 X-69.4465 Y-14.4000 F100.00
G01 X-69.4805 Y-14.3186 F100.00
G01 X-69.5365 Y-14.2626 F100.00
G01 X-69.6179 Y-14.2286 F100.00
G01 X-71.6983 Y-14.2286 F100.00
G01 X-71.7797 Y-14.2626 F100.00
G01 X-71.8356 Y-14.3186 F100.00
G01 X-71.8696 Y-14.4000 F100.00
G00 Z2.0000
G00 X-72.0325 Y-7.9481
G01 F60.00
G01 Z-0.0700
G01 F100.00
G01 X-72.0613 Y-7.9405 F100.00
G01 X-72.0865 Y-7.9239 F100.00
G01 X-72.1080 Y-7.8947 F100.00
G01 X-72.1160 Y-7.8682 F100.00
G01 X-72.1170 Y-7.3486 F100.00
G01 X-72.1326 Y-7.3486 F100.00
G01 X-72.1326 Y-7.8656 F100.00
G01 X-72.1263 Y-7.8975 F100.00
G01 X-72.1021 Y-7.9337 F100.00
G01 X-72.0659 Y-7.9579 F100.00
G01 X-72.0340 Y-7.9642 F100.00
G01 X-71.5170 Y-7.9642 F100.00
G01 X-71.5170 Y-7.9486 F100.00
G01 X-72.0325 Y-7.9481 F100.00
G00 Z2.0000
G00 X-73.7898 Y-8.1204
G01 F60.00
G01 Z-0.0700
G01 F100.00
G01 X-73.7713 Y-7.5881 F100.00
G01 X-73.7181 Y-7.0710 F100.00
G01 X-73.6292 Y-6.5546 F100.00
G01 X-73.5028 Y-6.0351 F100.00
G01 X-73.3420 Y-5.5296 F100.00
G01 X-73.1496 Y-5.0422 F100.00
G01 X-72.9264 Y-4.5728 F100.00
G01 X-72.6667 Y-4.1103 F100.00
G01 X-72.3734 Y-3.6633 F100.00
G01 X-72.0592 Y-3.2492 F100.00
G01 X-71.7150 Y-2.8541 F100.00
G01 X-71.3371 Y-2.4759 F100.00
G01 X-70.9371 Y-2.1276 F100.00
G01 X-70.5229 Y-1.8136 F100.00
G01 X-70.0848 Y-1.5260 F100.00
G01 X-69.6226 Y-1.2658 F100.00
G01 X-69.1397 Y-1.0363 F100.00
G01 X-68.6562 Y-0.8457 F100.00
G01 X-68.1568 Y-0.6869 F100.00
G01 X-67.6415 Y-0.5610 F100.00
G01 X-67.1155 Y-0.4705 F100.00
G01 X-66.5934 Y-0.4170 F100.00
G01 X-66.0674 Y-0.3990 F100.00
G01 X-8.1582 Y-0.3990 F100.00
G01 X-7.6349 Y-0.4168 F100.00
G01 X-7.0999 Y-0.4718 F100.00
G01 X-6.5835 Y-0.5611 F100.00
G01 X-6.0754 Y-0.6849 F100.00
G01 X-5.5728 Y-0.8442 F100.00
G01 X-5.0853 Y-1.0363 F100.00
G01 X-4.5996 Y-1.2673 F100.00
G01 X-4.1429 Y-1.5243 F100.00
G01 X-3.7021 Y-1.8136 F100.00
G01 X-3.2854 Y-2.1296 F100.00
G01 X-2.8903 Y-2.4738 F100.00
G01 X-2.5100 Y-2.8541 F100.00
G01 X-2.1658 Y-3.2492 F100.00
G01 X-1.8459 Y-3.6715 F100.00
G01 X-1.5583 Y-4.1103 F100.00
G01 X-1.3020 Y-4.5662 F100.00
G01 X-1.0754 Y-5.0422 F100.00
G01 X-0.8830 Y-5.5296 F100.00
G01 X-0.7203 Y-6.0423 F100.00
G01 X-0.5964 Y-6.5515 F100.00
G01 X-0.5075 Y-7.0668 F100.00
G01 X-0.4532 Y-7.5955 F100.00
G01 X-0.4353 Y-8.1177 F100.00
G01 X-0.4354 Y-11.2111 F100.00
G01 X-0.4407 Y-11.2376 F100.00
G01 X-0.4669 Y-11.2987 F100.00
G01 X-0.4845 Y-11.3200 F100.00
G01 X-0.5054 Y-11.3343 F100.00
G01 X-0.5812 Y-11.3620 F100.00
G01 X-0.7706 Y-11.3625 F100.00
G01 X-0.7706 Y-11.3782 F100.00
G01 X-0.1473 Y-11.3782 F100.00
G01 X-0.1473 Y-8.1296 F100.00
G01 X-0.5407 Y-5.6458 F100.00
G01 X-1.6781 Y-3.4135 F100.00
G01 X-3.4497 Y-1.6419 F100.00
G01 X-5.6820 Y-0.5045 F100.00
G01 X-8.1660 Y-0.1111 F100.00
G01 X-66.0568 Y-0.1111 F100.00
G01 X-69.1326 Y-0.7229 F100.00
G01 X-71.7302 Y-2.4586 F100.00
G01 X-73.4659 Y-5.0562 F100.00
G01 X-74.0778 Y-8.1321 F100.00
G01 X-74.0778 Y-21.0626 F100.00
G01 X-73.4659 Y-24.1384 F100.00
G01 X-71.7303 Y-26.7360 F100.00
G01 X-69.1326 Y-28.4717 F100.00
G01 X-66.0569 Y-29.0835 F100.00
G01 X-8.1659 Y-29.0835 F100.00
G01 X-5.6820 Y-28.6901 F100.00
G01 X-3.4497 Y-27.5527 F100.00
G01 X-1.6781 Y-25.7811 F100.00
G01 X-0.5407 Y-23.5488 F100.00
G01 X-0.1473 Y-21.0651 F100.00
G01 X-0.1473 Y-15.6297 F100.00
G01 X-0.7706 Y-15.6297 F100.00
G01 X-0.7706 Y-15.6454 F100.00
G01 X-0.5812 Y-15.6460 F100.00
G01 X-0.5054 Y-15.6737 F100.00
G01 X-0.4845 Y-15.6880 F100.00
G01 X-0.4669 Y-15.7093 F100.00
G01 X-0.4407 Y-15.7703 F100.00
G01 X-0.4354 Y-15.7969 F100.00
G01 X-0.4353 Y-21.0738 F100.00
G01 X-0.4532 Y-21.5991 F100.00
G01 X-0.5080 Y-22.1309 F100.00
G01 X-0.5973 Y-22.6473 F100.00
G01 X-0.7211 Y-23.1554 F100.00
G01 X-0.8830 Y-23.6650 F100.00
G01 X-1.0754 Y-24.1524 F100.00
G01 X-1.2994 Y-24.6234 F100.00
G01 X-1.5583 Y-25.0843 F100.00
G01 X-1.8455 Y-25.5226 F100.00
G01 X-2.1705 Y-25.9512 F100.00
G01 X-2.5150 Y-26.3460 F100.00
G01 X-2.8880 Y-26.7187 F100.00
G01 X-3.2821 Y-27.0624 F100.00
G01 X-3.6995 Y-27.3792 F100.00
G01 X-4.1493 Y-27.6742 F100.00
G01 X-4.6062 Y-27.9308 F100.00
G01 X-5.0784 Y-28.1554 F100.00
G01 X-5.5688 Y-28.3489 F100.00
G01 X-6.0682 Y-28.5077 F100.00
G01 X-6.5891 Y-28.6347 F100.00
G01 X-7.1030 Y-28.7233 F100.00
G01 X-7.6243 Y-28.7771 F100.00
G01 X-8.1576 Y-28.7956 F100.00
G01 X-66.0681 Y-28.7956 F100.00
G01 X-66.5933 Y-28.7776 F100.00
G01 X-67.1146 Y-28.7243 F100.00
G01 X-67.6415 Y-28.6336 F100.00
G01 X-68.1537 Y-28.5086 F100.00
G01 X-68.6522 Y-28.3504 F100.00
G01 X-69.1466 Y-28.1554 F100.00
G01 X-69.6227 Y-27.9289 F100.00
G01 X-70.0822 Y-27.6703 F100.00
G01 X-70.5229 Y-27.3811 F100.00
G01 X-70.9396 Y-27.0651 F100.00
G01 X-71.3371 Y-26.7187 F100.00
G01 X-71.7100 Y-26.3460 F100.00
G01 X-72.0566 Y-25.9487 F100.00
G01 X-72.3753 Y-25.5287 F100.00
G01 X-72.6645 Y-25.0879 F100.00
G01 X-72.9231 Y-24.6284 F100.00
G01 X-73.1496 Y-24.1524 F100.00
G01 X-73.3432 Y-23.6620 F100.00
G01 X-73.5022 Y-23.1614 F100.00
G01 X-73.6278 Y-22.6473 F100.00
G01 X-73.7175 Y-22.1278 F100.00
G01 X-73.7716 Y-21.6034 F100.00
G01 X-73.7897 Y-21.0769 F100.00
G01 X-73.7898 Y-8.1204 F100.00
G00 Z2.0000
G00 X-74.3138 Y-8.1017
G01 F60.00
G01 Z-0.0700
G01 F100.00
G01 X-73.6943 Y-4.9866 F100.00
G01 X-73.6857 Y-4.9602 F100.00
G01 X-71.8998 Y-2.2890 F100.00
G01 X-69.2266 Y-0.5022 F100.00
G01 X-66.0803 Y0.1259 F100.00
G01 X-8.1565 Y0.1265 F100.00
G01 X-5.6214 Y-0.2737 F100.00
G01 X-5.5909 Y-0.2843 F100.00
G01 X-3.3251 Y-1.4388 F100.00
G01 X-3.2950 Y-1.4606 F100.00
G01 X-1.4840 Y-3.2741 F100.00
G01 X-0.3205 Y-5.5547 F100.00
G01 X-0.3105 Y-5.5826 F100.00
G01 X0.0899 Y-8.1115 F100.00
G01 X0.0902 Y-11.3782 F100.00
G01 X0.3688 Y-11.3810 F100.00
G01 X0.3958 Y-11.3925 F100.00
G01 X0.4211 Y-11.4157 F100.00
G01 X0.4350 Y-11.4424 F100.00
G01 X0.4399 Y-11.4720 F100.00
G01 X0.4397 Y-15.5408 F100.00
G01 X0.4343 Y-15.5677 F100.00
G01 X0.4211 Y-15.5922 F100.00
G01 X0.3958 Y-15.6155 F100.00
G01 X0.3688 Y-15.6269 F100.00
G01 X0.0902 Y-15.6297 F100.00
G01 X0.0901 Y-21.0791 F100.00
G01 X-0.3099 Y-23.6094 F100.00
G01 X-0.3205 Y-23.6399 F100.00
G01 X-1.4840 Y-25.9206 F100.00
G01 X-3.3081 Y-27.7453 F100.00
G01 X-5.6069 Y-28.9170 F100.00
G01 X-8.1477 Y-29.3207 F100.00
G01 X-66.0685 Y-29.3211 F100.00
G01 X-69.2022 Y-28.7001 F100.00
G01 X-69.2450 Y-28.6824 F100.00
G01 X-71.8965 Y-26.9088 F100.00
G01 X-71.9146 Y-26.8877 F100.00
G01 X-73.6766 Y-24.2507 F100.00
G01 X-73.6933 Y-24.2124 F100.00
G01 X-74.3152 Y-21.0789 F100.00
G01 X-74.3138 Y-8.1017 F100.00
G00 Z2.0000
G00 X-72.1165 Y-6.1455
G01 F60.00
G01 Z-0.0700
G01 F100.00
G01 X-72.1089 Y-6.1167 F100.00
G01 X-72.0923 Y-6.0915 F100.00
G01 X-72.0631 Y-6.0700 F100.00
G01 X-72.0366 Y-6.0620 F100.00
G01 X-71.5170 Y-6.0610 F100.00
G01 X-71.5170 Y-6.0454 F100.00
G01 X-72.0340 Y-6.0454 F100.00
G01 X-72.0659 Y-6.0517 F100.00
G01 X-72.1021 Y-6.0759 F100.00
G01 X-72.1263 Y-6.1121 F100.00
G01 X-72.1326 Y-6.1440 F100.00
G01 X-72.1326 Y-6.6610 F100.00
G01 X-72.1170 Y-6.6610 F100.00
G01 X-72.1165 Y-6.1455 F100.00
G00 Z2.0000
G00 X-70.8294 Y-6.0454
G01 F60.00
G01 Z-0.0700
G01 F100.00
G01 X-70.8294 Y-6.0610 F100.00
G01 X-70.3184 Y-6.0612 F100.00
G01 X-70.2851 Y-6.0691 F100.00
G01 X-70.2569 Y-6.0885 F100.00
G01 X-70.2375 Y-6.1167 F100.00
G01 X-70.2296 Y-6.1500 F100.00
G01 X-70.2294 Y-6.6610 F100.00
G01 X-70.2138 Y-6.6610 F100.00
G01 X-70.2138 Y-6.1440 F100.00
G01 X-70.2201 Y-6.1121 F100.00
G01 X-70.2443 Y-6.0759 F100.00
G01 X-70.2805 Y-6.0517 F100.00
G01 X-70.3124 Y-6.0454 F100.00
G01 X-70.8294 Y-6.0454 F100.00
G00 Z2.0000
G00 X-70.2138 Y-7.3486
G01 F60.00
G01 Z-0.0700
G01 F100.00
G01 X-70.2294 Y-7.3486 F100.00
G01 X-70.2296 Y-7.8596 F100.00
G01 X-70.2375 Y-7.8929 F100.00
G01 X-70.2569 Y-7.9211 F100.00
G01 X-70.2851 Y-7.9405 F100.00
G01 X-70.3184 Y-7.9484 F100.00
G01 X-70.8294 Y-7.9486 F100.00
G01 X-70.8294 Y-7.9642 F100.00
G01 X-70.3124 Y-7.9642 F100.00
G01 X-70.2805 Y-7.9579 F100.00
G01 X-70.2443 Y-7.9337 F100.00
G01 X-70.2201 Y-7.8975 F100.00
G01 X-70.2138 Y-7.8656 F100.00
G01 X-70.2138 Y-7.3486 F100.00
G00 Z2.0000
G00 X-68.2859 Y-7.9411
G01 F60.00
G01 Z-0.0700
G01 F100.00
G01 X-68.3147 Y-7.9335 F100.00
G01 X-68.3399 Y-7.9169 F100.00
G01 X-68.3614 Y-7.8877 F100.00
G01 X-68.3694 Y-7.8612 F100.00
G01 X-68.3704 Y-7.3416 F100.00
G01 X-68.3860 Y-7.3416 F100.00
G01 X-68.3860 Y-7.8586 F100.00
G01 X-68.3797 Y-7.8905 F100.00
G01 X-68.3555 Y-7.9267 F100.00
G01 X-68.3193 Y-7.9509 F100.00
G01 X-68.2874 Y-7.9572 F100.00
G01 X-67.7704 Y-7.9572 F100.00
G01 X-67.7704 Y-7.9416 F100.00
G01 X-68.2859 Y-7.9411 F100.00
G00 Z2.0000
G00 X-68.3699 Y-6.1385
G01 F60.00
G01 Z-0.0700
G01 F100.00
G01 X-68.3623 Y-6.1097 F100.00
G01 X-68.3457 Y-6.0845 F100.00
G01 X-68.3165 Y-6.0630 F100.00
G01 X-68.2900 Y-6.0550 F100.00
G01 X-67.7704 Y-6.0540 F100.00
G01 X-67.7704 Y-6.0384 F100.00
G01 X-68.2874 Y-6.0384 F100.00
G01 X-68.3193 Y-6.0447 F100.00
G01 X-68.3555 Y-6.0689 F100.00
G01 X-68.3797 Y-6.1051 F100.00
G01 X-68.3860 Y-6.1370 F100.00
G01 X-68.3860 Y-6.6540 F100.00
G01 X-68.3704 Y-6.6540 F100.00
G01 X-68.3699 Y-6.1385 F100.00
G00 Z2.0000
G00 X-67.0828 Y-6.0384
G01 F60.00
G01 Z-0.0700
G01 F100.00
G01 X-67.0828 Y-6.0540 F100.00
G01 X-66.5718 Y-6.0542 F100.00
G01 X-66.5385 Y-6.0621 F100.00
G01 X-66.5103 Y-6.0815 F100.00
G01 X-66.4909 Y-6.1097 F100.00
G01 X-66.4830 Y-6.1430 F100.00
G01 X-66.4828 Y-6.6540 F100.00
G01 X-66.4672 Y-6.6540 F100.00
G01 X-66.4672 Y-6.1370 F100.00
G01 X-66.4735 Y-6.1051 F100.00
G01 X-66.4977 Y-6.0689 F100.00
G01 X-66.5339 Y-6.0447 F100.00
G01 X-66.5658 Y-6.0384 F100.00
G01 X-67.0828 Y-6.0384 F100.00
G00 Z2.0000
G00 X-66.4672 Y-7.3416
G01 F60.00
G01 Z-0.0700
G01 F100.00
G01 X-66.4828 Y-7.3416 F100.00
G01 X-66.4830 Y-7.8526 F100.00
G01 X-66.4909 Y-7.8859 F100.00
G01 X-66.5103 Y-7.9141 F100.00
G01 X-66.5385 Y-7.9335 F100.00
G01 X-66.5718 Y-7.9414 F100.00
G01 X-67.0828 Y-7.9416 F100.00
G01 X-67.0828 Y-7.9572 F100.00
G01 X-66.5658 Y-7.9572 F100.00
G01 X-66.5339 Y-7.9509 F100.00
G01 X-66.4977 Y-7.9267 F100.00
G01 X-66.4735 Y-7.8905 F100.00
G01 X-66.4672 Y-7.8586 F100.00
G01 X-66.4672 Y-7.3416 F100.00
G00 Z2.0000
G00 X-63.9347 Y-7.4450
G01 F60.00
G01 Z-0.0700
G01 F100.00
G01 X-63.9347 Y-9.2254 F100.00
G01 X-63.9008 Y-9.3068 F100.00
G01 X-63.8448 Y-9.3628 F100.00
G01 X-63.7634 Y-9.3967 F100.00
G01 X-61.9830 Y-9.3967 F100.00
G01 X-61.9016 Y-9.3628 F100.00
G01 X-61.8456 Y-9.3068 F100.00
G01 X-61.8117 Y-9.2254 F100.00
G01 X-61.8117 Y-7.4450 F100.00
G01 X-61.8457 Y-7.3636 F100.00
G01 X-61.9016 Y-7.3076 F100.00
G01 X-61.9830 Y-7.2737 F100.00
G01 X-63.7634 Y-7.2737 F100.00
G01 X-63.8448 Y-7.3076 F100.00
G01 X-63.9008 Y-7.3636 F100.00
G01 X-63.9347 Y-7.4450 F100.00
G00 Z2.0000
G00 X-63.7459 Y-9.2762
G01 F60.00
G01 Z-0.0700
G01 F100.00
G01 X-63.7729 Y-9.2647 F100.00
G01 X-63.7982 Y-9.2415 F100.00
G01 X-63.8121 Y-9.2148 F100.00
G01 X-63.8170 Y-9.1852 F100.00
G01 X-63.8170 Y-7.4852 F100.00
G01 X-63.8089 Y-7.4471 F100.00
G01 X-63.7895 Y-7.4189 F100.00
G01 X-63.7613 Y-7.3995 F100.00
G01 X-63.7232 Y-7.3914 F100.00
G01 X-62.0232 Y-7.3914 F100.00
G01 X-61.9851 Y-7.3995 F100.00
G01 X-61.9569 Y-7.4189 F100.00
G01 X-61.9375 Y-7.4471 F100.00
G01 X-61.9294 Y-7.4852 F100.00
G01 X-61.9294 Y-9.1852 F100.00
G01 X-61.9375 Y-9.2233 F100.00
G01 X-61.9569 Y-9.2515 F100.00
G01 X-61.9851 Y-9.2709 F100.00
G01 X-62.0232 Y-9.2790 F100.00
G01 X-63.7459 Y-9.2762 F100.00
G00 Z2.0000
G00 X-63.9299 Y-11.0486
G01 F60.00
G01 Z-0.0700
G01 F100.00
G01 X-63.9299 Y-12.8290 F100.00
G01 X-63.8960 Y-12.9104 F100.00
G01 X-63.8400 Y-12.9664 F100.00
G01 X-63.7586 Y-13.0003 F100.00
G01 X-61.9782 Y-13.0003 F100.00
G01 X-61.8968 Y-12.9664 F100.00
G01 X-61.8408 Y-12.9104 F100.00
G01 X-61.8069 Y-12.8290 F100.00
G01 X-61.8069 Y-11.0486 F100.00
G01 X-61.8409 Y-10.9672 F100.00
G01 X-61.8968 Y-10.9113 F100.00
G01 X-61.9782 Y-10.8773 F100.00
G01 X-63.7586 Y-10.8773 F100.00
G01 X-63.8400 Y-10.9112 F100.00
G01 X-63.8960 Y-10.9672 F100.00
G01 X-63.9299 Y-11.0486 F100.00
G00 Z2.0000
G00 X-63.7411 Y-12.8798
G01 F60.00
G01 Z-0.0700
G01 F100.00
G01 X-63.7681 Y-12.8683 F100.00
G01 X-63.7934 Y-12.8451 F100.00
G01 X-63.8073 Y-12.8184 F100.00
G01 X-63.8122 Y-12.7888 F100.00
G01 X-63.8122 Y-11.0888 F100.00
G01 X-63.8041 Y-11.0507 F100.00
G01 X-63.7847 Y-11.0225 F100.00
G01 X-63.7565 Y-11.0031 F100.00
G01 X-63.7184 Y-10.9950 F100.00
G01 X-62.0184 Y-10.9950 F100.00
G01 X-61.9803 Y-11.0031 F100.00
G01 X-61.9521 Y-11.0225 F100.00
G01 X-61.9327 Y-11.0507 F100.00
G01 X-61.9246 Y-11.0888 F100.00
G01 X-61.9246 Y-12.7888 F100.00
G01 X-61.9327 Y-12.8269 F100.00
G01 X-61.9521 Y-12.8551 F100.00
G01 X-61.9803 Y-12.8745 F100.00
G01 X-62.0184 Y-12.8826 F100.00
G01 X-63.7411 Y-12.8798 F100.00
G00 Z2.0000
G00 X-61.2672 Y-14.4876
G01 F60.00
G01 Z-0.0700
G01 F100.00
G01 X-61.2497 Y-14.4190 F100.00
G01 X-61.2259 Y-14.3531 F100.00
G01 X-61.1945 Y-14.2878 F100.00
G01 X-61.1580 Y-14.2277 F100.00
G01 X-61.1169 Y-14.1728 F100.00
G01 X-61.0716 Y-14.1230 F100.00
G01 X-61.0218 Y-14.0777 F100.00
G01 X-60.9592 Y-14.0315 F100.00
G01 X-60.8987 Y-13.9957 F100.00
G01 X-60.8415 Y-13.9687 F100.00
G01 X-60.7756 Y-13.9449 F100.00
G01 X-60.7070 Y-13.9274 F100.00
G01 X-60.6356 Y-13.9167 F100.00
G01 X-60.5653 Y-13.9132 F100.00
G01 X-60.4950 Y-13.9167 F100.00
G01 X-60.4236 Y-13.9274 F100.00
G01 X-60.3550 Y-13.9449 F100.00
G01 X-60.2891 Y-13.9687 F100.00
G01 X-60.2238 Y-14.0001 F100.00
G01 X-60.1637 Y-14.0366 F100.00
G01 X-60.1088 Y-14.0777 F100.00
G01 X-60.0590 Y-14.1230 F100.00
G01 X-60.0137 Y-14.1728 F100.00
G01 X-59.9675 Y-14.2354 F100.00
G01 X-59.9317 Y-14.2959 F100.00
G01 X-59.9047 Y-14.3531 F100.00
G01 X-59.8809 Y-14.4190 F100.00
G01 X-59.8634 Y-14.4876 F100.00
G01 X-59.8527 Y-14.5590 F100.00
G01 X-59.8493 Y-14.6293 F100.00
G01 X-59.8527 Y-14.6996 F100.00
G01 X-59.8634 Y-14.7710 F100.00
G01 X-59.8809 Y-14.8396 F100.00
G01 X-59.9047 Y-14.9055 F100.00
G01 X-59.9361 Y-14.9708 F100.00
G01 X-59.9726 Y-15.0309 F100.00
G01 X-60.0137 Y-15.0858 F100.00
G01 X-60.0590 Y-15.1356 F100.00
G01 X-60.1088 Y-15.1809 F100.00
G01 X-60.1714 Y-15.2271 F100.00
G01 X-60.2319 Y-15.2629 F100.00
G01 X-60.2891 Y-15.2899 F100.00
G01 X-60.3550 Y-15.3137 F100.00
G01 X-60.4236 Y-15.3312 F100.00
G01 X-60.4950 Y-15.3419 F100.00
G01 X-60.5653 Y-15.3453 F100.00
G01 X-60.6356 Y-15.3419 F100.00
G01 X-60.7070 Y-15.3312 F100.00
G01 X-60.7756 Y-15.3137 F100.00
G01 X-60.8415 Y-15.2899 F100.00
G01 X-60.9068 Y-15.2585 F100.00
G01 X-60.9669 Y-15.2220 F100.00
G01 X-61.0218 Y-15.1809 F100.00
G01 X-61.0716 Y-15.1356 F100.00
G01 X-61.1169 Y-15.0858 F100.00
G01 X-61.1631 Y-15.0232 F100.00
G01 X-61.1989 Y-14.9627 F100.00
G01 X-61.2259 Y-14.9055 F100.00
G01 X-61.2497 Y-14.8396 F100.00
G01 X-61.2672 Y-14.7710 F100.00
G01 X-61.2779 Y-14.6996 F100.00
G01 X-61.2814 Y-14.6293 F100.00
G01 X-61.2779 Y-14.5590 F100.00
G01 X-61.2672 Y-14.4876 F100.00
G00 Z2.0000
G00 X-61.1089 Y-15.4902
G01 F60.00
G01 Z-0.0700
G01 F100.00
G01 X-61.2436 Y-15.6365 F100.00
G01 X-61.3313 Y-15.7883 F100.00
G01 X-61.3854 Y-15.9550 F100.00
G01 X-61.4037 Y-16.1293 F100.00
G01 X-61.3854 Y-16.3036 F100.00
G01 X-61.3313 Y-16.4703 F100.00
G01 X-61.2436 Y-16.6221 F100.00
G01 X-61.1263 Y-16.7524 F100.00
G01 X-60.9845 Y-16.8554 F100.00
G01 X-60.8244 Y-16.9267 F100.00
G01 X-60.6529 Y-16.9632 F100.00
G01 X-60.4777 Y-16.9632 F100.00
G01 X-60.3062 Y-16.9267 F100.00
G01 X-60.1461 Y-16.8554 F100.00
G01 X-60.0043 Y-16.7524 F100.00
G01 X-59.8870 Y-16.6221 F100.00
G01 X-59.7993 Y-16.4703 F100.00
G01 X-59.7452 Y-16.3036 F100.00
G01 X-59.7269 Y-16.1293 F100.00
G01 X-59.7452 Y-15.9550 F100.00
G01 X-59.7993 Y-15.7883 F100.00
G01 X-59.8870 Y-15.6365 F100.00
G01 X-60.0432 Y-15.4656 F100.00
G01 X-60.0539 Y-15.4417 F100.00
G01 X-60.0660 Y-15.3914 F100.00
G01 X-60.0681 Y-15.3599 F100.00
G01 X-60.0605 Y-15.3314 F100.00
G01 X-60.0273 Y-15.2759 F100.00
G01 X-59.8870 Y-15.1221 F100.00
G01 X-59.7993 Y-14.9703 F100.00
G01 X-59.7452 Y-14.8036 F100.00
G01 X-59.7269 Y-14.6293 F100.00
G01 X-59.7452 Y-14.4550 F100.00
G01 X-59.7993 Y-14.2883 F100.00
G01 X-59.8870 Y-14.1365 F100.00
G01 X-60.0043 Y-14.0062 F100.00
G01 X-60.1461 Y-13.9032 F100.00
G01 X-60.3062 Y-13.8319 F100.00
G01 X-60.4777 Y-13.7954 F100.00
G01 X-60.6529 Y-13.7954 F100.00
G01 X-60.8244 Y-13.8319 F100.00
G01 X-60.9845 Y-13.9032 F100.00
G01 X-61.1263 Y-14.0062 F100.00
G01 X-61.2436 Y-14.1365 F100.00
G01 X-61.3313 Y-14.2883 F100.00
G01 X-61.3854 Y-14.4550 F100.00
G01 X-61.4037 Y-14.6293 F100.00
G01 X-61.3854 Y-14.8036 F100.00
G01 X-61.3313 Y-14.9703 F100.00
G01 X-61.2436 Y-15.1221 F100.00
G01 X-61.0957 Y-15.2816 F100.00
G01 X-61.0780 Y-15.3129 F100.00
G01 X-61.0635 Y-15.3723 F100.00
G01 X-61.0640 Y-15.4082 F100.00
G01 X-61.0735 Y-15.4340 F100.00
G01 X-61.1089 Y-15.4902 F100.00
G00 Z2.0000
G00 X-61.2672 Y-15.9876
G01 F60.00
G01 Z-0.0700
G01 F100.00
G01 X-61.2497 Y-15.9190 F100.00
G01 X-61.2259 Y-15.8531 F100.00
G01 X-61.1945 Y-15.7878 F100.00
G01 X-61.1580 Y-15.7277 F100.00
G01 X-61.1169 Y-15.6728 F100.00
G01 X-61.0716 Y-15.6230 F100.00
G01 X-61.0218 Y-15.5777 F100.00
G01 X-60.9592 Y-15.5315 F100.00
G01 X-60.8987 Y-15.4957 F100.00
G01 X-60.8415 Y-15.4687 F100.00
G01 X-60.7756 Y-15.4449 F100.00
G01 X-60.7070 Y-15.4274 F100.00
G01 X-60.6356 Y-15.4167 F100.00
G01 X-60.5653 Y-15.4133 F100.00
G01 X-60.4950 Y-15.4167 F100.00
G01 X-60.4236 Y-15.4274 F100.00
G01 X-60.3550 Y-15.4449 F100.00
G01 X-60.2891 Y-15.4687 F100.00
G01 X-60.2238 Y-15.5001 F100.00
G01 X-60.1637 Y-15.5366 F100.00
G01 X-60.1088 Y-15.5777 F100.00
G01 X-60.0590 Y-15.6230 F100.00
G01 X-60.0137 Y-15.6728 F100.00
G01 X-59.9675 Y-15.7354 F100.00
G01 X-59.9317 Y-15.7959 F100.00
G01 X-59.9047 Y-15.8531 F100.00
G01 X-59.8809 Y-15.9190 F100.00
G01 X-59.8634 Y-15.9876 F100.00
G01 X-59.8527 Y-16.0590 F100.00
G01 X-59.8493 Y-16.1293 F100.00
G01 X-59.8527 Y-16.1996 F100.00
G01 X-59.8634 Y-16.2710 F100.00
G01 X-59.8809 Y-16.3396 F100.00
G01 X-59.9047 Y-16.4055 F100.00
G01 X-59.9361 Y-16.4708 F100.00
G01 X-59.9726 Y-16.5309 F100.00
G01 X-60.0137 Y-16.5858 F100.00
G01 X-60.0590 Y-16.6356 F100.00
G01 X-60.1088 Y-16.6809 F100.00
G01 X-60.1714 Y-16.7271 F100.00
G01 X-60.2319 Y-16.7629 F100.00
G01 X-60.2891 Y-16.7899 F100.00
G01 X-60.3550 Y-16.8137 F100.00
G01 X-60.4236 Y-16.8312 F100.00
G01 X-60.4950 Y-16.8419 F100.00
G01 X-60.5653 Y-16.8454 F100.00
G01 X-60.6356 Y-16.8419 F100.00
G01 X-60.7070 Y-16.8312 F100.00
G01 X-60.7756 Y-16.8137 F100.00
G01 X-60.8415 Y-16.7899 F100.00
G01 X-60.9068 Y-16.7585 F100.00
G01 X-60.9669 Y-16.7220 F100.00
G01 X-61.0218 Y-16.6809 F100.00
G01 X-61.0716 Y-16.6356 F100.00
G01 X-61.1169 Y-16.5858 F100.00
G01 X-61.1631 Y-16.5232 F100.00
G01 X-61.1989 Y-16.4627 F100.00
G01 X-61.2259 Y-16.4055 F100.00
G01 X-61.2497 Y-16.3396 F100.00
G01 X-61.2672 Y-16.2710 F100.00
G01 X-61.2779 Y-16.1996 F100.00
G01 X-61.2814 Y-16.1293 F100.00
G01 X-61.2779 Y-16.0590 F100.00
G01 X-61.2672 Y-15.9876 F100.00
G00 Z2.0000
G00 X-62.5089 Y-3.5774
G01 F60.00
G01 Z-0.0700
G01 F100.00
G01 X-62.5624 Y-3.5966 F100.00
G01 X-62.6431 Y-3.6170 F100.00
G01 X-62.7268 Y-3.6296 F100.00
G01 X-62.8096 Y-3.6336 F100.00
G01 X-62.8924 Y-3.6296 F100.00
G01 X-62.9761 Y-3.6170 F100.00
G01 X-63.0568 Y-3.5966 F100.00
G01 X-63.1103 Y-3.5774 F100.00
G01 X-63.1251 Y-3.5923 F100.00
G01 X-62.9779 Y-3.6369 F100.00
G01 X-62.8096 Y-3.6535 F100.00
G01 X-62.6413 Y-3.6369 F100.00
G01 X-62.4941 Y-3.5923 F100.00
G01 X-62.5089 Y-3.5774 F100.00
G00 Z2.0000
G00 X-61.9832 Y-2.6241
G01 F60.00
G01 Z-0.0700
G01 F100.00
G01 X-61.9703 Y-2.7126 F100.00
G01 X-61.9666 Y-2.7906 F100.00
G01 X-61.9703 Y-2.8686 F100.00
G01 X-61.9832 Y-2.9571 F100.00
G01 X-62.0036 Y-3.0378 F100.00
G01 X-62.0228 Y-3.0913 F100.00
G01 X-62.0079 Y-3.1061 F100.00
G01 X-61.9633 Y-2.9589 F100.00
G01 X-61.9467 Y-2.7906 F100.00
G01 X-61.9633 Y-2.6223 F100.00
G01 X-62.0079 Y-2.4751 F100.00
G01 X-62.0228 Y-2.4899 F100.00
G01 X-62.0036 Y-2.5434 F100.00
G01 X-61.9832 Y-2.6241 F100.00
G00 Z2.0000
G00 X-61.1360 Y-2.6241
G01 F60.00
G01 Z-0.0700
G01 F100.00
G01 X-61.1156 Y-2.5434 F100.00
G01 X-61.0866 Y-2.4638 F100.00
G01 X-61.0543 Y-2.3955 F100.00
G01 X-61.0106 Y-2.3223 F100.00
G01 X-60.9600 Y-2.2542 F100.00
G01 X-60.9057 Y-2.1945 F100.00
G01 X-60.8460 Y-2.1402 F100.00
G01 X-60.7779 Y-2.0896 F100.00
G01 X-60.7047 Y-2.0459 F100.00
G01 X-60.6364 Y-2.0136 F100.00
G01 X-60.5568 Y-1.9846 F100.00
G01 X-60.4761 Y-1.9642 F100.00
G01 X-60.3924 Y-1.9516 F100.00
G01 X-60.3096 Y-1.9475 F100.00
G01 X-60.2268 Y-1.9516 F100.00
G01 X-60.1431 Y-1.9642 F100.00
G01 X-60.0624 Y-1.9846 F100.00
G01 X-59.9828 Y-2.0136 F100.00
G01 X-59.9145 Y-2.0459 F100.00
G01 X-59.8413 Y-2.0896 F100.00
G01 X-59.7732 Y-2.1402 F100.00
G01 X-59.7135 Y-2.1945 F100.00
G01 X-59.6592 Y-2.2542 F100.00
G01 X-59.6086 Y-2.3223 F100.00
G01 X-59.5649 Y-2.3955 F100.00
G01 X-59.5326 Y-2.4638 F100.00
G01 X-59.5036 Y-2.5434 F100.00
G01 X-59.4832 Y-2.6241 F100.00
G01 X-59.4706 Y-2.7078 F100.00
G01 X-59.4666 Y-2.7906 F100.00
G01 X-59.4706 Y-2.8734 F100.00
G01 X-59.4832 Y-2.9571 F100.00
G01 X-59.5036 Y-3.0378 F100.00
G01 X-59.5326 Y-3.1174 F100.00
G01 X-59.5649 Y-3.1857 F100.00
G01 X-59.6086 Y-3.2589 F100.00
G01 X-59.6592 Y-3.3270 F100.00
G01 X-59.7135 Y-3.3867 F100.00
G01 X-59.7732 Y-3.4410 F100.00
G01 X-59.8413 Y-3.4916 F100.00
G01 X-59.9145 Y-3.5353 F100.00
G01 X-59.9828 Y-3.5676 F100.00
G01 X-60.0624 Y-3.5966 F100.00
G01 X-60.1431 Y-3.6170 F100.00
G01 X-60.2268 Y-3.6296 F100.00
G01 X-60.3096 Y-3.6336 F100.00
G01 X-60.3924 Y-3.6296 F100.00
G01 X-60.4761 Y-3.6170 F100.00
G01 X-60.5568 Y-3.5966 F100.00
G01 X-60.6364 Y-3.5676 F100.00
G01 X-60.7047 Y-3.5353 F100.00
G01 X-60.7779 Y-3.4916 F100.00
G01 X-60.8460 Y-3.4410 F100.00
G01 X-60.9057 Y-3.3867 F100.00
G01 X-60.9600 Y-3.3270 F100.00
G01 X-61.0106 Y-3.2589 F100.00
G01 X-61.0543 Y-3.1857 F100.00
G01 X-61.0866 Y-3.1174 F100.00
G01 X-61.1156 Y-3.0378 F100.00
G01 X-61.1360 Y-2.9571 F100.00
G01 X-61.1486 Y-2.8734 F100.00
G01 X-61.1526 Y-2.7906 F100.00
G01 X-61.1486 Y-2.7078 F100.00
G01 X-61.1360 Y-2.6241 F100.00
G00 Z2.0000
G00 X-59.3718 Y-3.0091
G01 F60.00
G01 Z-0.0700
G01 F100.00
G01 X-59.3627 Y-2.9790 F100.00
G01 X-59.3441 Y-2.7906 F100.00
G01 X-59.3627 Y-2.6022 F100.00
G01 X-59.4176 Y-2.4211 F100.00
G01 X-59.5068 Y-2.2542 F100.00
G01 X-59.6269 Y-2.1079 F100.00
G01 X-59.7732 Y-1.9878 F100.00
G01 X-59.9401 Y-1.8986 F100.00
G01 X-60.1212 Y-1.8437 F100.00
G01 X-60.3096 Y-1.8251 F100.00
G01 X-60.4980 Y-1.8437 F100.00
G01 X-60.6791 Y-1.8986 F100.00
G01 X-60.8460 Y-1.9878 F100.00
G01 X-60.9923 Y-2.1079 F100.00
G01 X-61.1124 Y-2.2542 F100.00
G01 X-61.2016 Y-2.4211 F100.00
G01 X-61.2565 Y-2.6022 F100.00
G01 X-61.2751 Y-2.7906 F100.00
G01 X-61.2565 Y-2.9790 F100.00
G01 X-61.2016 Y-3.1601 F100.00
G01 X-61.1124 Y-3.3270 F100.00
G01 X-60.9923 Y-3.4733 F100.00
G01 X-60.8460 Y-3.5934 F100.00
G01 X-60.6791 Y-3.6826 F100.00
G01 X-60.4980 Y-3.7375 F100.00
G01 X-60.3096 Y-3.7561 F100.00
G01 X-60.1212 Y-3.7375 F100.00
G01 X-59.9401 Y-3.6826 F100.00
G01 X-59.7732 Y-3.5934 F100.00
G01 X-59.6269 Y-3.4733 F100.00
G01 X-59.5068 Y-3.3270 F100.00
G01 X-59.4176 Y-3.1601 F100.00
G01 X-59.3718 Y-3.0091 F100.00
G00 Z2.0000
G00 X-56.6000 Y-2.8536
G01 F60.00
G01 Z-0.0700
G01 F100.00
G01 X-56.5691 Y-2.7316 F100.00
G01 X-56.5287 Y-2.6195 F100.00
G01 X-56.4798 Y-2.5161 F100.00
G01 X-56.4169 Y-2.4103 F100.00
G01 X-56.3417 Y-2.3089 F100.00
G01 X-56.2615 Y-2.2205 F100.00
G01 X-56.1731 Y-2.1403 F100.00
G01 X-56.0717 Y-2.0651 F100.00
G01 X-55.9659 Y-2.0022 F100.00
G01 X-55.8625 Y-1.9533 F100.00
G01 X-55.7504 Y-1.9129 F100.00
G01 X-55.6284 Y-1.8820 F100.00
G01 X-55.5084 Y-1.8642 F100.00
G01 X-55.3870 Y-1.8583 F100.00
G01 X-55.2656 Y-1.8642 F100.00
G01 X-55.1456 Y-1.8820 F100.00
G01 X-55.0236 Y-1.9129 F100.00
G01 X-54.9115 Y-1.9533 F100.00
G01 X-54.8081 Y-2.0022 F100.00
G01 X-54.7023 Y-2.0651 F100.00
G01 X-54.6009 Y-2.1403 F100.00
G01 X-54.5125 Y-2.2205 F100.00
G01 X-54.4323 Y-2.3089 F100.00
G01 X-54.3571 Y-2.4103 F100.00
G01 X-54.2942 Y-2.5161 F100.00
G01 X-54.2453 Y-2.6195 F100.00
G01 X-54.2049 Y-2.7316 F100.00
G01 X-54.1740 Y-2.8536 F100.00
G01 X-54.1562 Y-2.9736 F100.00
G01 X-54.1503 Y-3.0950 F100.00
G01 X-54.1562 Y-3.2164 F100.00
G01 X-54.1740 Y-3.3364 F100.00
G01 X-54.2049 Y-3.4584 F100.00
G01 X-54.2453 Y-3.5705 F100.00
G01 X-54.2942 Y-3.6739 F100.00
G01 X-54.3571 Y-3.7797 F100.00
G01 X-54.4323 Y-3.8811 F100.00
G01 X-54.5125 Y-3.9695 F100.00
G01 X-54.6009 Y-4.0497 F100.00
G01 X-54.7023 Y-4.1249 F100.00
G01 X-54.8081 Y-4.1878 F100.00
G01 X-54.9115 Y-4.2367 F100.00
G01 X-55.0236 Y-4.2771 F100.00
G01 X-55.1456 Y-4.3080 F100.00
G01 X-55.2656 Y-4.3258 F100.00
G01 X-55.3870 Y-4.3317 F100.00
G01 X-55.5084 Y-4.3258 F100.00
G01 X-55.6284 Y-4.3080 F100.00
G01 X-55.7504 Y-4.2771 F100.00
G01 X-55.8625 Y-4.2367 F100.00
G01 X-55.9659 Y-4.1878 F100.00
G01 X-56.0717 Y-4.1249 F100.00
G01 X-56.1731 Y-4.0497 F100.00
G01 X-56.2615 Y-3.9695 F100.00
G01 X-56.3417 Y-3.8811 F100.00
G01 X-56.4169 Y-3.7797 F100.00
G01 X-56.4798 Y-3.6739 F100.00
G01 X-56.5287 Y-3.5705 F100.00
G01 X-56.5691 Y-3.4584 F100.00
G01 X-56.6000 Y-3.3364 F100.00
G01 X-56.6178 Y-3.2164 F100.00
G01 X-56.6237 Y-3.0950 F100.00
G01 X-56.6178 Y-2.9736 F100.00
G01 X-56.6000 Y-2.8536 F100.00
G00 Z2.0000
G00 X-54.4636 Y-4.0919
G01 F60.00
G01 Z-0.0700
G01 F100.00
G01 X-54.3144 Y-3.9298 F100.00
G01 X-54.1916 Y-3.7419 F100.00
G01 X-54.1015 Y-3.5363 F100.00
G01 X-54.0463 Y-3.3187 F100.00
G01 X-54.0278 Y-3.0950 F100.00
G01 X-54.0463 Y-2.8713 F100.00
G01 X-54.1015 Y-2.6537 F100.00
G01 X-54.1916 Y-2.4481 F100.00
G01 X-54.3144 Y-2.2602 F100.00
G01 X-54.4664 Y-2.0950 F100.00
G01 X-54.6436 Y-1.9571 F100.00
G01 X-54.8410 Y-1.8503 F100.00
G01 X-55.0533 Y-1.7774 F100.00
G01 X-55.2748 Y-1.7405 F100.00
G01 X-55.4992 Y-1.7405 F100.00
G01 X-55.7207 Y-1.7774 F100.00
G01 X-55.9330 Y-1.8503 F100.00
G01 X-56.1304 Y-1.9571 F100.00
G01 X-56.3076 Y-2.0950 F100.00
G01 X-56.4596 Y-2.2602 F100.00
G01 X-56.5824 Y-2.4481 F100.00
G01 X-56.6725 Y-2.6537 F100.00
G01 X-56.7277 Y-2.8713 F100.00
G01 X-56.7462 Y-3.0950 F100.00
G01 X-56.7277 Y-3.3187 F100.00
G01 X-56.6725 Y-3.5363 F100.00
G01 X-56.5824 Y-3.7419 F100.00
G01 X-56.4596 Y-3.9298 F100.00
G01 X-56.3076 Y-4.0950 F100.00
G01 X-56.1304 Y-4.2329 F100.00
G01 X-55.9330 Y-4.3397 F100.00
G01 X-55.7207 Y-4.4126 F100.00
G01 X-55.4992 Y-4.4495 F100.00
G01 X-55.2748 Y-4.4495 F100.00
G01 X-55.0533 Y-4.4126 F100.00
G01 X-54.8410 Y-4.3397 F100.00
G01 X-54.6436 Y-4.2329 F100.00
G01 X-54.4636 Y-4.0919 F100.00
G00 Z2.0000
G00 X-62.9761 Y-1.9642
G01 F60.00
G01 Z-0.0700
G01 F100.00
G01 X-62.8876 Y-1.9513 F100.00
G01 X-62.8096 Y-1.9475 F100.00
G01 X-62.7316 Y-1.9513 F100.00
G01 X-62.6431 Y-1.9642 F100.00
G01 X-62.5624 Y-1.9846 F100.00
G01 X-62.5089 Y-2.0038 F100.00
G01 X-62.4941 Y-1.9889 F100.00
G01 X-62.6413 Y-1.9443 F100.00
G01 X-62.8096 Y-1.9277 F100.00
G01 X-62.9779 Y-1.9443 F100.00
G01 X-63.1251 Y-1.9889 F100.00
G01 X-63.1103 Y-2.0038 F100.00
G01 X-63.0568 Y-1.9846 F100.00
G01 X-62.9761 Y-1.9642 F100.00
G00 Z2.0000
G00 X-63.6354 Y-2.9596
G01 F60.00
G01 Z-0.0700
G01 F100.00
G01 X-63.6489 Y-2.8686 F100.00
G01 X-63.6526 Y-2.7906 F100.00
G01 X-63.6489 Y-2.7126 F100.00
G01 X-63.6360 Y-2.6241 F100.00
G01 X-63.6156 Y-2.5434 F100.00
G01 X-63.5964 Y-2.4899 F100.00
G01 X-63.6113 Y-2.4751 F100.00
G01 X-63.6559 Y-2.6223 F100.00
G01 X-63.6725 Y-2.7906 F100.00
G01 X-63.6559 Y-2.9589 F100.00
G01 X-63.6113 Y-3.1061 F100.00
G01 X-63.5964 Y-3.0913 F100.00
G01 X-63.6156 Y-3.0378 F100.00
G01 X-63.6354 Y-2.9596 F100.00
G00 Z2.0000
G00 X-66.5219 Y-3.3335
G01 F60.00
G01 Z-0.0700
G01 F100.00
G01 X-66.5028 Y-3.1152 F100.00
G01 X-66.5219 Y-2.8969 F100.00
G01 X-66.5786 Y-2.6852 F100.00
G01 X-66.6629 Y-2.5043 F100.00
G01 X-66.6773 Y-2.5186 F100.00
G01 X-66.6157 Y-2.6462 F100.00
G01 X-66.5779 Y-2.7518 F100.00
G01 X-66.5480 Y-2.8694 F100.00
G01 X-66.5292 Y-2.9938 F100.00
G01 X-66.5233 Y-3.1152 F100.00
G01 X-66.5292 Y-3.2366 F100.00
G01 X-66.5480 Y-3.3610 F100.00
G01 X-66.5753 Y-3.4698 F100.00
G01 X-66.6157 Y-3.5842 F100.00
G01 X-66.6773 Y-3.7118 F100.00
G01 X-66.6629 Y-3.7261 F100.00
G01 X-66.5786 Y-3.5452 F100.00
G01 X-66.5219 Y-3.3335 F100.00
G00 Z2.0000
G00 X-67.3300 Y-4.2966
G01 F60.00
G01 Z-0.0700
G01 F100.00
G01 X-67.1491 Y-4.2123 F100.00
G01 X-67.1634 Y-4.1979 F100.00
G01 X-67.2910 Y-4.2595 F100.00
G01 X-67.3966 Y-4.2973 F100.00
G01 X-67.5142 Y-4.3272 F100.00
G01 X-67.6386 Y-4.3460 F100.00
G01 X-67.7600 Y-4.3519 F100.00
G01 X-67.8814 Y-4.3460 F100.00
G01 X-68.0058 Y-4.3272 F100.00
G01 X-68.1146 Y-4.2999 F100.00
G01 X-68.2290 Y-4.2595 F100.00
G01 X-68.3566 Y-4.1979 F100.00
G01 X-68.3709 Y-4.2123 F100.00
G01 X-68.1900 Y-4.2966 F100.00
G01 X-67.9783 Y-4.3533 F100.00
G01 X-67.7600 Y-4.3724 F100.00
G01 X-67.5417 Y-4.3533 F100.00
G01 X-67.3300 Y-4.2966 F100.00
G00 Z2.0000
G00 X-68.9902 Y-3.2410
G01 F60.00
G01 Z-0.0700
G01 F100.00
G01 X-68.9966 Y-3.1106 F100.00
G01 X-68.9908 Y-2.9938 F100.00
G01 X-68.9730 Y-2.8738 F100.00
G01 X-68.9447 Y-2.7606 F100.00
G01 X-68.9043 Y-2.6462 F100.00
G01 X-68.8427 Y-2.5186 F100.00
G01 X-68.8571 Y-2.5043 F100.00
G01 X-68.9414 Y-2.6852 F100.00
G01 X-68.9981 Y-2.8969 F100.00
G01 X-69.0172 Y-3.1152 F100.00
G01 X-68.9981 Y-3.3335 F100.00
G01 X-68.9414 Y-3.5452 F100.00
G01 X-68.8571 Y-3.7261 F100.00
G01 X-68.8427 Y-3.7118 F100.00
G01 X-68.9017 Y-3.5907 F100.00
G01 X-68.9421 Y-3.4786 F100.00
G01 X-68.9730 Y-3.3566 F100.00
G01 X-68.9902 Y-3.2410 F100.00
G00 Z2.0000
G00 X-68.2290 Y-1.9709
G01 F60.00
G01 Z-0.0700
G01 F100.00
G01 X-68.1146 Y-1.9305 F100.00
G01 X-68.0014 Y-1.9022 F100.00
G01 X-67.8814 Y-1.8844 F100.00
G01 X-67.7554 Y-1.8786 F100.00
G01 X-67.6386 Y-1.8844 F100.00
G01 X-67.5142 Y-1.9032 F100.00
G01 X-67.4054 Y-1.9305 F100.00
G01 X-67.2910 Y-1.9709 F100.00
G01 X-67.1634 Y-2.0325 F100.00
G01 X-67.1491 Y-2.0181 F100.00
G01 X-67.3300 Y-1.9338 F100.00
G01 X-67.5417 Y-1.8771 F100.00
G01 X-67.7600 Y-1.8580 F100.00
G01 X-67.9783 Y-1.8771 F100.00
G01 X-68.1900 Y-1.9338 F100.00
G01 X-68.3709 Y-2.0181 F100.00
G01 X-68.3566 Y-2.0325 F100.00
G01 X-68.2290 Y-1.9709 F100.00
G00 Z2.0000
G00 X-45.2694 Y-1.9270
G01 F60.00
G01 Z-0.0700
G01 F100.00
G01 X-45.2618 Y-1.8982 F100.00
G01 X-45.2452 Y-1.8730 F100.00
G01 X-45.2160 Y-1.8515 F100.00
G01 X-45.1895 Y-1.8435 F100.00
G01 X-44.6699 Y-1.8425 F100.00
G01 X-44.6699 Y-1.8269 F100.00
G01 X-45.1869 Y-1.8269 F100.00
G01 X-45.2188 Y-1.8332 F100.00
G01 X-45.2550 Y-1.8574 F100.00
G01 X-45.2792 Y-1.8936 F100.00
G01 X-45.2856 Y-1.9255 F100.00
G01 X-45.2856 Y-2.4425 F100.00
G01 X-45.2699 Y-2.4425 F100.00
G01 X-45.2694 Y-1.9270 F100.00
G00 Z2.0000
G00 X-43.9824 Y-1.8269
G01 F60.00
G01 Z-0.0700
G01 F100.00
G01 X-43.9824 Y-1.8425 F100.00
G01 X-43.4713 Y-1.8427 F100.00
G01 X-43.4380 Y-1.8506 F100.00
G01 X-43.4098 Y-1.8700 F100.00
G01 X-43.3905 Y-1.8982 F100.00
G01 X-43.3825 Y-1.9315 F100.00
G01 X-43.3824 Y-2.4425 F100.00
G01 X-43.3667 Y-2.4425 F100.00
G01 X-43.3667 Y-1.9255 F100.00
G01 X-43.3730 Y-1.8936 F100.00
G01 X-43.3972 Y-1.8574 F100.00
G01 X-43.4334 Y-1.8332 F100.00
G01 X-43.4653 Y-1.8269 F100.00
G01 X-43.9824 Y-1.8269 F100.00
G00 Z2.0000
G00 X-43.3667 Y-3.1301
G01 F60.00
G01 Z-0.0700
G01 F100.00
G01 X-43.3824 Y-3.1301 F100.00
G01 X-43.3825 Y-3.6411 F100.00
G01 X-43.3905 Y-3.6744 F100.00
G01 X-43.4098 Y-3.7026 F100.00
G01 X-43.4380 Y-3.7220 F100.00
G01 X-43.4713 Y-3.7299 F100.00
G01 X-43.9824 Y-3.7301 F100.00
G01 X-43.9824 Y-3.7457 F100.00
G01 X-43.4653 Y-3.7457 F100.00
G01 X-43.4334 Y-3.7394 F100.00
G01 X-43.3972 Y-3.7152 F100.00
G01 X-43.3730 Y-3.6790 F100.00
G01 X-43.3667 Y-3.6471 F100.00
G01 X-43.3667 Y-3.1301 F100.00
G00 Z2.0000
G00 X-42.2613 Y-3.7406
G01 F60.00
G01 Z-0.0700
G01 F100.00
G01 X-42.0779 Y-3.8117 F100.00
G01 X-41.8845 Y-3.8478 F100.00
G01 X-41.6878 Y-3.8478 F100.00
G01 X-41.4944 Y-3.8117 F100.00
G01 X-41.3109 Y-3.7406 F100.00
G01 X-41.1436 Y-3.6371 F100.00
G01 X-40.9983 Y-3.5045 F100.00
G01 X-40.8797 Y-3.3475 F100.00
G01 X-40.7920 Y-3.1714 F100.00
G01 X-40.7382 Y-2.9822 F100.00
G01 X-40.7200 Y-2.7863 F100.00
G01 X-40.7382 Y-2.5904 F100.00
G01 X-40.7920 Y-2.4012 F100.00
G01 X-40.8797 Y-2.2251 F100.00
G01 X-40.9983 Y-2.0681 F100.00
G01 X-41.1436 Y-1.9355 F100.00
G01 X-41.3109 Y-1.8320 F100.00
G01 X-41.4944 Y-1.7609 F100.00
G01 X-41.6878 Y-1.7248 F100.00
G01 X-41.8845 Y-1.7248 F100.00
G01 X-42.0779 Y-1.7609 F100.00
G01 X-42.2613 Y-1.8320 F100.00
G01 X-42.4286 Y-1.9355 F100.00
G01 X-42.5740 Y-2.0681 F100.00
G01 X-42.6925 Y-2.2251 F100.00
G01 X-42.7802 Y-2.4012 F100.00
G01 X-42.8341 Y-2.5904 F100.00
G01 X-42.8522 Y-2.7863 F100.00
G01 X-42.8341 Y-2.9822 F100.00
G01 X-42.7802 Y-3.1714 F100.00
G01 X-42.6925 Y-3.3475 F100.00
G01 X-42.5740 Y-3.5045 F100.00
G01 X-42.4286 Y-3.6371 F100.00
G01 X-42.2613 Y-3.7406 F100.00
G00 Z2.0000
G00 X-41.9723 Y-3.7115
G01 F60.00
G01 Z-0.0700
G01 F100.00
G01 X-42.0625 Y-3.6886 F100.00
G01 X-42.1495 Y-3.6573 F100.00
G01 X-42.2287 Y-3.6198 F100.00
G01 X-42.3080 Y-3.5725 F100.00
G01 X-42.3816 Y-3.5184 F100.00
G01 X-42.4535 Y-3.4536 F100.00
G01 X-42.5182 Y-3.3818 F100.00
G01 X-42.5724 Y-3.3082 F100.00
G01 X-42.6196 Y-3.2289 F100.00
G01 X-42.6571 Y-3.1497 F100.00
G01 X-42.6885 Y-3.0627 F100.00
G01 X-42.7113 Y-2.9725 F100.00
G01 X-42.7252 Y-2.8800 F100.00
G01 X-42.7299 Y-2.7863 F100.00
G01 X-42.7252 Y-2.6926 F100.00
G01 X-42.7113 Y-2.6001 F100.00
G01 X-42.6885 Y-2.5099 F100.00
G01 X-42.6571 Y-2.4229 F100.00
G01 X-42.6196 Y-2.3437 F100.00
G01 X-42.5724 Y-2.2644 F100.00
G01 X-42.5182 Y-2.1908 F100.00
G01 X-42.4535 Y-2.1190 F100.00
G01 X-42.3816 Y-2.0542 F100.00
G01 X-42.3080 Y-2.0001 F100.00
G01 X-42.2287 Y-1.9528 F100.00
G01 X-42.1495 Y-1.9153 F100.00
G01 X-42.0625 Y-1.8840 F100.00
G01 X-41.9723 Y-1.8611 F100.00
G01 X-41.8798 Y-1.8472 F100.00
G01 X-41.7861 Y-1.8426 F100.00
G01 X-41.6925 Y-1.8472 F100.00
G01 X-41.6000 Y-1.8611 F100.00
G01 X-41.5097 Y-1.8840 F100.00
G01 X-41.4228 Y-1.9153 F100.00
G01 X-41.3435 Y-1.9528 F100.00
G01 X-41.2642 Y-2.0001 F100.00
G01 X-41.1906 Y-2.0542 F100.00
G01 X-41.1188 Y-2.1190 F100.00
G01 X-41.0541 Y-2.1908 F100.00
G01 X-40.9999 Y-2.2644 F100.00
G01 X-40.9526 Y-2.3437 F100.00
G01 X-40.9152 Y-2.4229 F100.00
G01 X-40.8838 Y-2.5099 F100.00
G01 X-40.8609 Y-2.6001 F100.00
G01 X-40.8470 Y-2.6926 F100.00
G01 X-40.8424 Y-2.7863 F100.00
G01 X-40.8470 Y-2.8800 F100.00
G01 X-40.8609 Y-2.9725 F100.00
G01 X-40.8838 Y-3.0627 F100.00
G01 X-40.9152 Y-3.1497 F100.00
G01 X-40.9526 Y-3.2289 F100.00
G01 X-40.9999 Y-3.3082 F100.00
G01 X-41.0541 Y-3.3818 F100.00
G01 X-41.1188 Y-3.4536 F100.00
G01 X-41.1906 Y-3.5184 F100.00
G01 X-41.2642 Y-3.5725 F100.00
G01 X-41.3435 Y-3.6198 F100.00
G01 X-41.4228 Y-3.6573 F100.00
G01 X-41.5097 Y-3.6886 F100.00
G01 X-41.6000 Y-3.7115 F100.00
G01 X-41.6925 Y-3.7254 F100.00
G01 X-41.7861 Y-3.7300 F100.00
G01 X-41.8798 Y-3.7254 F100.00
G01 X-41.9723 Y-3.7115 F100.00
G00 Z2.0000
G00 X-39.7213 Y-3.7406
G01 F60.00
G01 Z-0.0700
G01 F100.00
G01 X-39.5379 Y-3.8117 F100.00
G01 X-39.3445 Y-3.8478 F100.00
G01 X-39.1478 Y-3.8478 F100.00
G01 X-38.9544 Y-3.8117 F100.00
G01 X-38.7709 Y-3.7406 F100.00
G01 X-38.6036 Y-3.6371 F100.00
G01 X-38.4583 Y-3.5045 F100.00
G01 X-38.3397 Y-3.3475 F100.00
G01 X-38.2520 Y-3.1714 F100.00
G01 X-38.1982 Y-2.9822 F100.00
G01 X-38.1800 Y-2.7863 F100.00
G01 X-38.1982 Y-2.5904 F100.00
G01 X-38.2520 Y-2.4012 F100.00
G01 X-38.3397 Y-2.2251 F100.00
G01 X-38.4583 Y-2.0681 F100.00
G01 X-38.6036 Y-1.9355 F100.00
G01 X-38.7709 Y-1.8320 F100.00
G01 X-38.9544 Y-1.7609 F100.00
G01 X-39.1478 Y-1.7248 F100.00
G01 X-39.3445 Y-1.7248 F100.00
G01 X-39.5379 Y-1.7609 F100.00
G01 X-39.7213 Y-1.8320 F100.00
G01 X-39.8886 Y-1.9355 F100.00
G01 X-40.0340 Y-2.0681 F100.00
G01 X-40.1525 Y-2.2251 F100.00
G01 X-40.2402 Y-2.4012 F100.00
G01 X-40.2941 Y-2.5904 F100.00
G01 X-40.3122 Y-2.7863 F100.00
G01 X-40.2941 Y-2.9822 F100.00
G01 X-40.2402 Y-3.1714 F100.00
G01 X-40.1525 Y-3.3475 F100.00
G01 X-40.0340 Y-3.5045 F100.00
G01 X-39.8886 Y-3.6371 F100.00
G01 X-39.7213 Y-3.7406 F100.00
G00 Z2.0000
G00 X-39.4323 Y-3.7115
G01 F60.00
G01 Z-0.0700
G01 F100.00
G01 X-39.5225 Y-3.6886 F100.00
G01 X-39.6095 Y-3.6573 F100.00
G01 X-39.6887 Y-3.6198 F100.00
G01 X-39.7680 Y-3.5725 F100.00
G01 X-39.8416 Y-3.5184 F100.00
G01 X-39.9135 Y-3.4536 F100.00
G01 X-39.9782 Y-3.3818 F100.00
G01 X-40.0324 Y-3.3082 F100.00
G01 X-40.0796 Y-3.2289 F100.00
G01 X-40.1171 Y-3.1497 F100.00
G01 X-40.1485 Y-3.0627 F100.00
G01 X-40.1713 Y-2.9725 F100.00
G01 X-40.1852 Y-2.8800 F100.00
G01 X-40.1899 Y-2.7863 F100.00
G01 X-40.1852 Y-2.6926 F100.00
G01 X-40.1713 Y-2.6001 F100.00
G01 X-40.1485 Y-2.5099 F100.00
G01 X-40.1171 Y-2.4229 F100.00
G01 X-40.0796 Y-2.3437 F100.00
G01 X-40.0324 Y-2.2644 F100.00
G01 X-39.9782 Y-2.1908 F100.00
G01 X-39.9135 Y-2.1190 F100.00
G01 X-39.8416 Y-2.0542 F100.00
G01 X-39.7680 Y-2.0001 F100.00
G01 X-39.6887 Y-1.9528 F100.00
G01 X-39.6095 Y-1.9153 F100.00
G01 X-39.5225 Y-1.8840 F100.00
G01 X-39.4323 Y-1.8611 F100.00
G01 X-39.3398 Y-1.8472 F100.00
G01 X-39.2461 Y-1.8426 F100.00
G01 X-39.1525 Y-1.8472 F100.00
G01 X-39.0600 Y-1.8611 F100.00
G01 X-38.9697 Y-1.8840 F100.00
G01 X-38.8828 Y-1.9153 F100.00
G01 X-38.8035 Y-1.9528 F100.00
G01 X-38.7242 Y-2.0001 F100.00
G01 X-38.6506 Y-2.0542 F100.00
G01 X-38.5788 Y-2.1190 F100.00
G01 X-38.5141 Y-2.1908 F100.00
G01 X-38.4599 Y-2.2644 F100.00
G01 X-38.4126 Y-2.3437 F100.00
G01 X-38.3752 Y-2.4229 F100.00
G01 X-38.3438 Y-2.5099 F100.00
G01 X-38.3209 Y-2.6001 F100.00
G01 X-38.3070 Y-2.6926 F100.00
G01 X-38.3024 Y-2.7863 F100.00
G01 X-38.3070 Y-2.8800 F100.00
G01 X-38.3209 Y-2.9725 F100.00
G01 X-38.3438 Y-3.0627 F100.00
G01 X-38.3752 Y-3.1497 F100.00
G01 X-38.4126 Y-3.2289 F100.00
G01 X-38.4599 Y-3.3082 F100.00
G01 X-38.5141 Y-3.3818 F100.00
G01 X-38.5788 Y-3.4536 F100.00
G01 X-38.6506 Y-3.5184 F100.00
G01 X-38.7242 Y-3.5725 F100.00
G01 X-38.8035 Y-3.6198 F100.00
G01 X-38.8828 Y-3.6573 F100.00
G01 X-38.9697 Y-3.6886 F100.00
G01 X-39.0600 Y-3.7115 F100.00
G01 X-39.1525 Y-3.7254 F100.00
G01 X-39.2461 Y-3.7300 F100.00
G01 X-39.3398 Y-3.7254 F100.00
G01 X-39.4323 Y-3.7115 F100.00
G00 Z2.0000
G00 X-37.1813 Y-3.7406
G01 F60.00
G01 Z-0.0700
G01 F100.00
G01 X-36.9979 Y-3.8117 F100.00
G01 X-36.8045 Y-3.8478 F100.00
G01 X-36.6078 Y-3.8478 F100.00
G01 X-36.4144 Y-3.8117 F100.00
G01 X-36.2309 Y-3.7406 F100.00
G01 X-36.0636 Y-3.6371 F100.00
G01 X-35.9183 Y-3.5045 F100.00
G01 X-35.7997 Y-3.3475 F100.00
G01 X-35.7120 Y-3.1714 F100.00
G01 X-35.6582 Y-2.9822 F100.00
G01 X-35.6400 Y-2.7863 F100.00
G01 X-35.6582 Y-2.5904 F100.00
G01 X-35.7120 Y-2.4012 F100.00
G01 X-35.7997 Y-2.2251 F100.00
G01 X-35.9183 Y-2.0681 F100.00
G01 X-36.0636 Y-1.9355 F100.00
G01 X-36.2309 Y-1.8320 F100.00
G01 X-36.4144 Y-1.7609 F100.00
G01 X-36.6078 Y-1.7248 F100.00
G01 X-36.8045 Y-1.7248 F100.00
G01 X-36.9979 Y-1.7609 F100.00
G01 X-37.1813 Y-1.8320 F100.00
G01 X-37.3486 Y-1.9355 F100.00
G01 X-37.4940 Y-2.0681 F100.00
G01 X-37.6125 Y-2.2251 F100.00
G01 X-37.7002 Y-2.4012 F100.00
G01 X-37.7541 Y-2.5904 F100.00
G01 X-37.7722 Y-2.7863 F100.00
G01 X-37.7541 Y-2.9822 F100.00
G01 X-37.7002 Y-3.1714 F100.00
G01 X-37.6125 Y-3.3475 F100.00
G01 X-37.4940 Y-3.5045 F100.00
G01 X-37.3486 Y-3.6371 F100.00
G01 X-37.1813 Y-3.7406 F100.00
G00 Z2.0000
G00 X-36.8923 Y-3.7115
G01 F60.00
G01 Z-0.0700
G01 F100.00
G01 X-36.9825 Y-3.6886 F100.00
G01 X-37.0695 Y-3.6573 F100.00
G01 X-37.1487 Y-3.6198 F100.00
G01 X-37.2280 Y-3.5725 F100.00
G01 X-37.3016 Y-3.5184 F100.00
G01 X-37.3735 Y-3.4536 F100.00
G01 X-37.4382 Y-3.3818 F100.00
G01 X-37.4924 Y-3.3082 F100.00
G01 X-37.5396 Y-3.2289 F100.00
G01 X-37.5771 Y-3.1497 F100.00
G01 X-37.6085 Y-3.0627 F100.00
G01 X-37.6313 Y-2.9725 F100.00
G01 X-37.6452 Y-2.8800 F100.00
G01 X-37.6499 Y-2.7863 F100.00
G01 X-37.6452 Y-2.6926 F100.00
G01 X-37.6313 Y-2.6001 F100.00
G01 X-37.6085 Y-2.5099 F100.00
G01 X-37.5771 Y-2.4229 F100.00
G01 X-37.5396 Y-2.3437 F100.00
G01 X-37.4924 Y-2.2644 F100.00
G01 X-37.4382 Y-2.1908 F100.00
G01 X-37.3735 Y-2.1190 F100.00
G01 X-37.3016 Y-2.0542 F100.00
G01 X-37.2280 Y-2.0001 F100.00
G01 X-37.1487 Y-1.9528 F100.00
G01 X-37.0695 Y-1.9153 F100.00
G01 X-36.9825 Y-1.8840 F100.00
G01 X-36.8923 Y-1.8611 F100.00
G01 X-36.7998 Y-1.8472 F100.00
G01 X-36.7061 Y-1.8426 F100.00
G01 X-36.6125 Y-1.8472 F100.00
G01 X-36.5200 Y-1.8611 F100.00
G01 X-36.4297 Y-1.8840 F100.00
G01 X-36.3428 Y-1.9153 F100.00
G01 X-36.2635 Y-1.9528 F100.00
G01 X-36.1842 Y-2.0001 F100.00
G01 X-36.1106 Y-2.0542 F100.00
G01 X-36.0388 Y-2.1190 F100.00
G01 X-35.9741 Y-2.1908 F100.00
G01 X-35.9199 Y-2.2644 F100.00
G01 X-35.8726 Y-2.3437 F100.00
G01 X-35.8352 Y-2.4229 F100.00
G01 X-35.8038 Y-2.5099 F100.00
G01 X-35.7809 Y-2.6001 F100.00
G01 X-35.7670 Y-2.6926 F100.00
G01 X-35.7624 Y-2.7863 F100.00
G01 X-35.7670 Y-2.8800 F100.00
G01 X-35.7809 Y-2.9725 F100.00
G01 X-35.8038 Y-3.0627 F100.00
G01 X-35.8352 Y-3.1497 F100.00
G01 X-35.8726 Y-3.2289 F100.00
G01 X-35.9199 Y-3.3082 F100.00
G01 X-35.9741 Y-3.3818 F100.00
G01 X-36.0388 Y-3.4536 F100.00
G01 X-36.1106 Y-3.5184 F100.00
G01 X-36.1842 Y-3.5725 F100.00
G01 X-36.2635 Y-3.6198 F100.00
G01 X-36.3428 Y-3.6573 F100.00
G01 X-36.4297 Y-3.6886 F100.00
G01 X-36.5200 Y-3.7115 F100.00
G01 X-36.6125 Y-3.7254 F100.00
G01 X-36.7061 Y-3.7300 F100.00
G01 X-36.7998 Y-3.7254 F100.00
G01 X-36.8923 Y-3.7115 F100.00
G00 Z2.0000
G00 X-34.6413 Y-3.7406
G01 F60.00
G01 Z-0.0700
G01 F100.00
G01 X-34.4579 Y-3.8117 F100.00
G01 X-34.2645 Y-3.8478 F100.00
G01 X-34.0678 Y-3.8478 F100.00
G01 X-33.8744 Y-3.8117 F100.00
G01 X-33.6909 Y-3.7406 F100.00
G01 X-33.5236 Y-3.6371 F100.00
G01 X-33.3783 Y-3.5045 F100.00
G01 X-33.2597 Y-3.3475 F100.00
G01 X-33.1720 Y-3.1714 F100.00
G01 X-33.1182 Y-2.9822 F100.00
G01 X-33.1000 Y-2.7863 F100.00
G01 X-33.1182 Y-2.5904 F100.00
G01 X-33.1720 Y-2.4012 F100.00
G01 X-33.2597 Y-2.2251 F100.00
G01 X-33.3783 Y-2.0681 F100.00
G01 X-33.5236 Y-1.9355 F100.00
G01 X-33.6909 Y-1.8320 F100.00
G01 X-33.8744 Y-1.7609 F100.00
G01 X-34.0678 Y-1.7248 F100.00
G01 X-34.2645 Y-1.7248 F100.00
G01 X-34.4579 Y-1.7609 F100.00
G01 X-34.6413 Y-1.8320 F100.00
G01 X-34.8086 Y-1.9355 F100.00
G01 X-34.9540 Y-2.0681 F100.00
G01 X-35.0725 Y-2.2251 F100.00
G01 X-35.1602 Y-2.4012 F100.00
G01 X-35.2141 Y-2.5904 F100.00
G01 X-35.2322 Y-2.7863 F100.00
G01 X-35.2141 Y-2.9822 F100.00
G01 X-35.1602 Y-3.1714 F100.00
G01 X-35.0725 Y-3.3475 F100.00
G01 X-34.9540 Y-3.5045 F100.00
G01 X-34.8086 Y-3.6371 F100.00
G01 X-34.6413 Y-3.7406 F100.00
G00 Z2.0000
G00 X-34.3523 Y-3.7115
G01 F60.00
G01 Z-0.0700
G01 F100.00
G01 X-34.4425 Y-3.6886 F100.00
G01 X-34.5295 Y-3.6573 F100.00
G01 X-34.6087 Y-3.6198 F100.00
G01 X-34.6880 Y-3.5725 F100.00
G01 X-34.7616 Y-3.5184 F100.00
G01 X-34.8335 Y-3.4536 F100.00
G01 X-34.8982 Y-3.3818 F100.00
G01 X-34.9524 Y-3.3082 F100.00
G01 X-34.9996 Y-3.2289 F100.00
G01 X-35.0371 Y-3.1497 F100.00
G01 X-35.0685 Y-3.0627 F100.00
G01 X-35.0913 Y-2.9725 F100.00
G01 X-35.1052 Y-2.8800 F100.00
G01 X-35.1099 Y-2.7863 F100.00
G01 X-35.1052 Y-2.6926 F100.00
G01 X-35.0913 Y-2.6001 F100.00
G01 X-35.0685 Y-2.5099 F100.00
G01 X-35.0371 Y-2.4229 F100.00
G01 X-34.9996 Y-2.3437 F100.00
G01 X-34.9524 Y-2.2644 F100.00
G01 X-34.8982 Y-2.1908 F100.00
G01 X-34.8335 Y-2.1190 F100.00
G01 X-34.7616 Y-2.0542 F100.00
G01 X-34.6880 Y-2.0001 F100.00
G01 X-34.6087 Y-1.9528 F100.00
G01 X-34.5295 Y-1.9153 F100.00
G01 X-34.4425 Y-1.8840 F100.00
G01 X-34.3523 Y-1.8611 F100.00
G01 X-34.2598 Y-1.8472 F100.00
G01 X-34.1661 Y-1.8426 F100.00
G01 X-34.0725 Y-1.8472 F100.00
G01 X-33.9800 Y-1.8611 F100.00
G01 X-33.8897 Y-1.8840 F100.00
G01 X-33.8028 Y-1.9153 F100.00
G01 X-33.7235 Y-1.9528 F100.00
G01 X-33.6442 Y-2.0001 F100.00
G01 X-33.5706 Y-2.0542 F100.00
G01 X-33.4988 Y-2.1190 F100.00
G01 X-33.4341 Y-2.1908 F100.00
G01 X-33.3799 Y-2.2644 F100.00
G01 X-33.3326 Y-2.3437 F100.00
G01 X-33.2952 Y-2.4229 F100.00
G01 X-33.2638 Y-2.5099 F100.00
G01 X-33.2409 Y-2.6001 F100.00
G01 X-33.2270 Y-2.6926 F100.00
G01 X-33.2224 Y-2.7863 F100.00
G01 X-33.2270 Y-2.8800 F100.00
G01 X-33.2409 Y-2.9725 F100.00
G01 X-33.2638 Y-3.0627 F100.00
G01 X-33.2952 Y-3.1497 F100.00
G01 X-33.3326 Y-3.2289 F100.00
G01 X-33.3799 Y-3.3082 F100.00
G01 X-33.4341 Y-3.3818 F100.00
G01 X-33.4988 Y-3.4536 F100.00
G01 X-33.5706 Y-3.5184 F100.00
G01 X-33.6442 Y-3.5725 F100.00
G01 X-33.7235 Y-3.6198 F100.00
G01 X-33.8028 Y-3.6573 F100.00
G01 X-33.8897 Y-3.6886 F100.00
G01 X-33.9800 Y-3.7115 F100.00
G01 X-34.0725 Y-3.7254 F100.00
G01 X-34.1661 Y-3.7300 F100.00
G01 X-34.2598 Y-3.7254 F100.00
G01 X-34.3523 Y-3.7115 F100.00
G00 Z2.0000
G00 X-32.1013 Y-3.7406
G01 F60.00
G01 Z-0.0700
G01 F100.00
G01 X-31.9179 Y-3.8117 F100.00
G01 X-31.7245 Y-3.8478 F100.00
G01 X-31.5278 Y-3.8478 F100.00
G01 X-31.3344 Y-3.8117 F100.00
G01 X-31.1509 Y-3.7406 F100.00
G01 X-30.9836 Y-3.6371 F100.00
G01 X-30.8383 Y-3.5045 F100.00
G01 X-30.7197 Y-3.3475 F100.00
G01 X-30.6320 Y-3.1714 F100.00
G01 X-30.5782 Y-2.9822 F100.00
G01 X-30.5600 Y-2.7863 F100.00
G01 X-30.5782 Y-2.5904 F100.00
G01 X-30.6320 Y-2.4012 F100.00
G01 X-30.7197 Y-2.2251 F100.00
G01 X-30.8383 Y-2.0681 F100.00
G01 X-30.9836 Y-1.9355 F100.00
G01 X-31.1509 Y-1.8320 F100.00
G01 X-31.3344 Y-1.7609 F100.00
G01 X-31.5278 Y-1.7248 F100.00
G01 X-31.7245 Y-1.7248 F100.00
G01 X-31.9179 Y-1.7609 F100.00
G01 X-32.1013 Y-1.8320 F100.00
G01 X-32.2686 Y-1.9355 F100.00
G01 X-32.4140 Y-2.0681 F100.00
G01 X-32.5325 Y-2.2251 F100.00
G01 X-32.6202 Y-2.4012 F100.00
G01 X-32.6741 Y-2.5904 F100.00
G01 X-32.6922 Y-2.7863 F100.00
G01 X-32.6741 Y-2.9822 F100.00
G01 X-32.6202 Y-3.1714 F100.00
G01 X-32.5325 Y-3.3475 F100.00
G01 X-32.4140 Y-3.5045 F100.00
G01 X-32.2686 Y-3.6371 F100.00
G01 X-32.1013 Y-3.7406 F100.00
G00 Z2.0000
G00 X-31.8123 Y-3.7115
G01 F60.00
G01 Z-0.0700
G01 F100.00
G01 X-31.9025 Y-3.6886 F100.00
G01 X-31.9895 Y-3.6573 F100.00
G01 X-32.0687 Y-3.6198 F100.00
G01 X-32.1480 Y-3.5725 F100.00
G01 X-32.2216 Y-3.5184 F100.00
G01 X-32.2935 Y-3.4536 F100.00
G01 X-32.3582 Y-3.3818 F100.00
G01 X-32.4124 Y-3.3082 F100.00
G01 X-32.4596 Y-3.2289 F100.00
G01 X-32.4971 Y-3.1497 F100.00
G01 X-32.5285 Y-3.0627 F100.00
G01 X-32.5513 Y-2.9725 F100.00
G01 X-32.5652 Y-2.8800 F100.00
G01 X-32.5699 Y-2.7863 F100.00
G01 X-32.5652 Y-2.6926 F100.00
G01 X-32.5513 Y-2.6001 F100.00
G01 X-32.5285 Y-2.5099 F100.00
G01 X-32.4971 Y-2.4229 F100.00
G01 X-32.4596 Y-2.3437 F100.00
G01 X-32.4124 Y-2.2644 F100.00
G01 X-32.3582 Y-2.1908 F100.00
G01 X-32.2935 Y-2.1190 F100.00
G01 X-32.2216 Y-2.0542 F100.00
G01 X-32.1480 Y-2.0001 F100.00
G01 X-32.0687 Y-1.9528 F100.00
G01 X-31.9895 Y-1.9153 F100.00
G01 X-31.9025 Y-1.8840 F100.00
G01 X-31.8123 Y-1.8611 F100.00
G01 X-31.7198 Y-1.8472 F100.00
G01 X-31.6261 Y-1.8426 F100.00
G01 X-31.5325 Y-1.8472 F100.00
G01 X-31.4400 Y-1.8611 F100.00
G01 X-31.3497 Y-1.8840 F100.00
G01 X-31.2628 Y-1.9153 F100.00
G01 X-31.1835 Y-1.9528 F100.00
G01 X-31.1042 Y-2.0001 F100.00
G01 X-31.0306 Y-2.0542 F100.00
G01 X-30.9588 Y-2.1190 F100.00
G01 X-30.8941 Y-2.1908 F100.00
G01 X-30.8399 Y-2.2644 F100.00
G01 X-30.7926 Y-2.3437 F100.00
G01 X-30.7552 Y-2.4229 F100.00
G01 X-30.7238 Y-2.5099 F100.00
G01 X-30.7009 Y-2.6001 F100.00
G01 X-30.6870 Y-2.6926 F100.00
G01 X-30.6824 Y-2.7863 F100.00
G01 X-30.6870 Y-2.8800 F100.00
G01 X-30.7009 Y-2.9725 F100.00
G01 X-30.7238 Y-3.0627 F100.00
G01 X-30.7552 Y-3.1497 F100.00
G01 X-30.7926 Y-3.2289 F100.00
G01 X-30.8399 Y-3.3082 F100.00
G01 X-30.8941 Y-3.3818 F100.00
G01 X-30.9588 Y-3.4536 F100.00
G01 X-31.0306 Y-3.5184 F100.00
G01 X-31.1042 Y-3.5725 F100.00
G01 X-31.1835 Y-3.6198 F100.00
G01 X-31.2628 Y-3.6573 F100.00
G01 X-31.3497 Y-3.6886 F100.00
G01 X-31.4400 Y-3.7115 F100.00
G01 X-31.5325 Y-3.7254 F100.00
G01 X-31.6261 Y-3.7300 F100.00
G01 X-31.7198 Y-3.7254 F100.00
G01 X-31.8123 Y-3.7115 F100.00
G00 Z2.0000
G00 X-29.7412 Y-7.4618
G01 F60.00
G01 Z-0.0700
G01 F100.00
G01 X-29.7321 Y-7.4005 F100.00
G01 X-29.7006 Y-7.2997 F100.00
G01 X-29.6543 Y-7.2132 F100.00
G01 X-29.5824 Y-7.1261 F100.00
G01 X-29.5018 Y-7.0607 F100.00
G01 X-29.4133 Y-7.0135 F100.00
G01 X-29.3101 Y-6.9819 F100.00
G01 X-29.2096 Y-6.9716 F100.00
G01 X-16.2030 Y-6.9715 F100.00
G01 X-15.3858 Y-6.1542 F100.00
G01 X-15.3430 Y-6.1159 F100.00
G01 X-15.2602 Y-6.0608 F100.00
G01 X-15.1610 Y-6.0196 F100.00
G01 X-15.0579 Y-5.9991 F100.00
G01 X-14.9521 Y-5.9991 F100.00
G01 X-14.8531 Y-6.0185 F100.00
G01 X-14.7947 Y-6.0394 F100.00
G01 X-14.7082 Y-6.0857 F100.00
G01 X-14.6276 Y-6.1511 F100.00
G01 X-11.7570 Y-9.0215 F100.00
G01 X-3.5568 Y-9.0238 F100.00
G01 X-3.4490 Y-9.0446 F100.00
G01 X-3.3498 Y-9.0858 F100.00
G01 X-3.2611 Y-9.1457 F100.00
G01 X-3.1907 Y-9.2161 F100.00
G01 X-3.1308 Y-9.3048 F100.00
G01 X-3.0896 Y-9.4040 F100.00
G01 X-3.0691 Y-9.5071 F100.00
G01 X-3.0691 Y-9.6129 F100.00
G01 X-3.0896 Y-9.7160 F100.00
G01 X-3.1280 Y-9.8097 F100.00
G01 X-3.1599 Y-9.8629 F100.00
G01 X-3.2242 Y-9.9408 F100.00
G01 X-3.3082 Y-10.0093 F100.00
G01 X-3.3947 Y-10.0556 F100.00
G01 X-3.4955 Y-10.0871 F100.00
G01 X-3.5568 Y-10.0962 F100.00
G01 X-11.9800 Y-10.0985 F100.00
G01 X-12.0805 Y-10.0889 F100.00
G01 X-12.1407 Y-10.0738 F100.00
G01 X-12.2352 Y-10.0342 F100.00
G01 X-12.2829 Y-10.0051 F100.00
G01 X-12.3574 Y-9.9439 F100.00
G01 X-14.4665 Y-7.8350 F100.00
G01 X-14.4691 Y-16.5129 F100.00
G01 X-14.4885 Y-16.6119 F100.00
G01 X-14.5094 Y-16.6703 F100.00
G01 X-14.5557 Y-16.7568 F100.00
G01 X-14.6211 Y-16.8374 F100.00
G01 X-16.3665 Y-18.5830 F100.00
G01 X-16.3665 Y-25.3870 F100.00
G01 X-16.2657 Y-25.4911 F100.00
G01 X-16.2307 Y-25.5382 F100.00
G01 X-16.2030 Y-25.5853 F100.00
G01 X-16.1809 Y-25.6332 F100.00
G01 X-16.1529 Y-25.7255 F100.00
G01 X-16.1441 Y-25.7821 F100.00
G01 X-16.1416 Y-25.8396 F100.00
G01 X-16.1519 Y-25.9401 F100.00
G01 X-16.1844 Y-26.0453 F100.00
G01 X-16.2349 Y-26.1379 F100.00
G01 X-16.2961 Y-26.2124 F100.00
G01 X-16.3349 Y-26.2482 F100.00
G01 X-16.4248 Y-26.3092 F100.00
G01 X-16.5240 Y-26.3504 F100.00
G01 X-16.6271 Y-26.3709 F100.00
G01 X-16.7329 Y-26.3709 F100.00
G01 X-16.8360 Y-26.3504 F100.00
G01 X-16.9297 Y-26.3120 F100.00
G01 X-16.9829 Y-26.2801 F100.00
G01 X-17.0608 Y-26.2158 F100.00
G01 X-17.2858 Y-25.9908 F100.00
G01 X-17.3501 Y-25.9129 F100.00
G01 X-17.3792 Y-25.8652 F100.00
G01 X-17.4041 Y-25.8118 F100.00
G01 X-17.4321 Y-25.7195 F100.00
G01 X-17.4403 Y-25.6673 F100.00
G01 X-17.4435 Y-25.6100 F100.00
G01 X-17.4435 Y-21.1235 F100.00
G01 X-25.7782 Y-21.1212 F100.00
G01 X-25.8860 Y-21.1004 F100.00
G01 X-25.9852 Y-21.0592 F100.00
G01 X-26.0739 Y-20.9993 F100.00
G01 X-26.1443 Y-20.9289 F100.00
G01 X-26.2042 Y-20.8402 F100.00
G01 X-26.2454 Y-20.7410 F100.00
G01 X-26.2659 Y-20.6379 F100.00
G01 X-26.2662 Y-20.5368 F100.00
G01 X-26.2571 Y-20.4755 F100.00
G01 X-26.2256 Y-20.3747 F100.00
G01 X-26.1793 Y-20.2882 F100.00
G01 X-26.1108 Y-20.2042 F100.00
G01 X-26.0329 Y-20.1399 F100.00
G01 X-25.9797 Y-20.1080 F100.00
G01 X-25.8860 Y-20.0696 F100.00
G01 X-25.7829 Y-20.0491 F100.00
G01 X-17.6530 Y-20.0465 F100.00
G01 X-17.4435 Y-19.8370 F100.00
G01 X-17.4434 Y-18.3554 F100.00
G01 X-17.4339 Y-18.2595 F100.00
G01 X-17.4215 Y-18.2081 F100.00
G01 X-17.3792 Y-18.1048 F100.00
G01 X-17.3241 Y-18.0220 F100.00
G01 X-17.2858 Y-17.9792 F100.00
G01 X-15.5435 Y-16.2370 F100.00
G01 X-15.5435 Y-7.8350 F100.00
G01 X-15.6361 Y-7.9243 F100.00
G01 X-15.6832 Y-7.9593 F100.00
G01 X-15.7303 Y-7.9870 F100.00
G01 X-15.7782 Y-8.0091 F100.00
G01 X-15.8705 Y-8.0371 F100.00
G01 X-15.9800 Y-8.0485 F100.00
G01 X-28.6665 Y-8.0485 F100.00
G01 X-28.6665 Y-8.4883 F100.00
G01 X-28.6511 Y-8.5495 F100.00
G01 X-28.6415 Y-8.6500 F100.00
G01 X-28.6511 Y-8.7505 F100.00
G01 X-28.6662 Y-8.8107 F100.00
G01 X-28.6844 Y-8.8603 F100.00
G01 X-28.7298 Y-8.9453 F100.00
G01 X-28.7992 Y-9.0308 F100.00
G01 X-28.8736 Y-9.1022 F100.00
G01 X-28.9232 Y-9.1393 F100.00
G01 X-29.0060 Y-9.1840 F100.00
G01 X-29.0581 Y-9.2035 F100.00
G01 X-29.1638 Y-9.2255 F100.00
G01 X-29.2706 Y-9.2261 F100.00
G01 X-29.3760 Y-9.2054 F100.00
G01 X-29.4584 Y-9.1724 F100.00
G01 X-30.2333 Y-9.1882 F100.00
G01 X-31.1876 Y-9.2280 F100.00
G01 X-31.3982 Y-9.2262 F100.00
G01 X-31.5060 Y-9.2054 F100.00
G01 X-31.6052 Y-9.1642 F100.00
G01 X-31.6939 Y-9.1043 F100.00
G01 X-31.7691 Y-9.0280 F100.00
G01 X-31.8242 Y-8.9452 F100.00
G01 X-31.8654 Y-8.8460 F100.00
G01 X-31.8859 Y-8.7429 F100.00
G01 X-31.8859 Y-8.6371 F100.00
G01 X-31.8654 Y-8.5340 F100.00
G01 X-31.8242 Y-8.4348 F100.00
G01 X-31.7643 Y-8.3461 F100.00
G01 X-31.6880 Y-8.2709 F100.00
G01 X-31.6078 Y-8.2174 F100.00
G01 X-31.5583 Y-8.1935 F100.00
G01 X-31.5019 Y-8.1735 F100.00
G01 X-31.4029 Y-8.1541 F100.00
G01 X-31.2212 Y-8.1515 F100.00
G01 X-30.2724 Y-8.1120 F100.00
G01 X-29.7435 Y-8.1011 F100.00
G01 X-29.7412 Y-7.4618 F100.00
G00 Z2.0000
G00 X-31.1931 Y-9.3460
G01 F60.00
G01 Z-0.0700
G01 F100.00
G01 X-30.2303 Y-9.3058 F100.00
G01 X-29.5239 Y-9.2914 F100.00
G01 X-29.4819 Y-9.2968 F100.00
G01 X-29.4114 Y-9.3208 F100.00
G01 X-29.3437 Y-9.3375 F100.00
G01 X-29.2846 Y-9.3461 F100.00
G01 X-29.2150 Y-9.3492 F100.00
G01 X-29.1554 Y-9.3461 F100.00
G01 X-29.0865 Y-9.3356 F100.00
G01 X-29.0286 Y-9.3208 F100.00
G01 X-28.9632 Y-9.2971 F100.00
G01 X-28.9092 Y-9.2714 F100.00
G01 X-28.8496 Y-9.2354 F100.00
G01 X-28.8018 Y-9.1996 F100.00
G01 X-28.7504 Y-9.1526 F100.00
G01 X-28.6704 Y-9.0682 F100.00
G01 X-28.5986 Y-8.9608 F100.00
G01 X-28.5492 Y-8.8414 F100.00
G01 X-28.5240 Y-8.7146 F100.00
G01 X-28.5240 Y-8.5854 F100.00
G01 X-28.5488 Y-8.4490 F100.00
G01 X-28.5461 Y-8.2993 F100.00
G01 X-28.5207 Y-8.2362 F100.00
G01 X-28.4998 Y-8.2086 F100.00
G01 X-28.4728 Y-8.1915 F100.00
G01 X-28.4223 Y-8.1709 F100.00
G01 X-28.3975 Y-8.1662 F100.00
G01 X-15.9154 Y-8.1660 F100.00
G01 X-15.8173 Y-8.1496 F100.00
G01 X-15.7877 Y-8.1544 F100.00
G01 X-15.7327 Y-8.1770 F100.00
G01 X-15.6979 Y-8.2057 F100.00
G01 X-15.6664 Y-8.2745 F100.00
G01 X-15.6610 Y-8.3059 F100.00
G01 X-15.6620 Y-16.1369 F100.00
G01 X-15.6885 Y-16.2081 F100.00
G01 X-15.7068 Y-16.2340 F100.00
G01 X-17.4146 Y-17.9418 F100.00
G01 X-17.4864 Y-18.0492 F100.00
G01 X-17.5358 Y-18.1686 F100.00
G01 X-17.5611 Y-18.2954 F100.00
G01 X-17.5612 Y-19.7283 F100.00
G01 X-17.5678 Y-19.7584 F100.00
G01 X-17.5885 Y-19.8081 F100.00
G01 X-17.6019 Y-19.8287 F100.00
G01 X-17.6740 Y-19.8973 F100.00
G01 X-17.7368 Y-19.9241 F100.00
G01 X-17.7665 Y-19.9290 F100.00
G01 X-25.7946 Y-19.9290 F100.00
G01 X-25.9214 Y-19.9542 F100.00
G01 X-26.0408 Y-20.0036 F100.00
G01 X-26.1482 Y-20.0754 F100.00
G01 X-26.2396 Y-20.1668 F100.00
G01 X-26.3114 Y-20.2742 F100.00
G01 X-26.3608 Y-20.3936 F100.00
G01 X-26.3860 Y-20.5204 F100.00
G01 X-26.3860 Y-20.6496 F100.00
G01 X-26.3608 Y-20.7764 F100.00
G01 X-26.3114 Y-20.8958 F100.00
G01 X-26.2396 Y-21.0032 F100.00
G01 X-26.1482 Y-21.0946 F100.00
G01 X-26.0408 Y-21.1664 F100.00
G01 X-25.9214 Y-21.2158 F100.00
G01 X-25.7946 Y-21.2410 F100.00
G01 X-17.7173 Y-21.2410 F100.00
G01 X-17.6825 Y-21.2478 F100.00
G01 X-17.6312 Y-21.2693 F100.00
G01 X-17.6102 Y-21.2836 F100.00
G01 X-17.5865 Y-21.3172 F100.00
G01 X-17.5659 Y-21.3677 F100.00
G01 X-17.5610 Y-21.3973 F100.00
G01 X-17.5610 Y-25.6746 F100.00
G01 X-17.5358 Y-25.8014 F100.00
G01 X-17.4864 Y-25.9208 F100.00
G01 X-17.4146 Y-26.0282 F100.00
G01 X-17.0982 Y-26.3446 F100.00
G01 X-16.9908 Y-26.4164 F100.00
G01 X-16.8714 Y-26.4658 F100.00
G01 X-16.7446 Y-26.4910 F100.00
G01 X-16.6745 Y-26.4926 F100.00
G01 X-16.6223 Y-26.5078 F100.00
G01 X-16.5665 Y-26.5573 F100.00
G01 X-16.5512 Y-26.5788 F100.00
G01 X-16.5410 Y-26.6143 F100.00
G01 X-16.5395 Y-26.6726 F100.00
G01 X-16.5440 Y-26.6985 F100.00
G01 X-16.5552 Y-26.7217 F100.00
G01 X-16.6052 Y-26.7756 F100.00
G01 X-16.7643 Y-26.8906 F100.00
G01 X-16.8552 Y-26.9884 F100.00
G01 X-16.8767 Y-27.0005 F100.00
