(G-code generated by FlatCAM Evo vUnstable - Version Date: 2023/6/31)

(Name: solderingStationPCB-F_Cu.gbr_iso_combined_cnc)
(Type: G-code from Geometry)
(Units: MM)

(Created on Thursday, 02 May 2024 at 03:26)

(This preprocessor is used with a motion controller loaded with GRBL firmware.)
(It is configured to be compatible with almost any version of GRBL firmware. No M6 command.)

(TOOL DIAMETER: 0.1875 mm)
(Feedrate_XY: 100.0 mm/min)
(Feedrate_Z: 60.0 mm/min)
(Feedrate rapids 1500.0 mm/min)

(Z_Cut: -0.07 mm)
(Z_Move: 2.0 mm)
(Z Start: None mm)
(Z End: 15.0 mm)
(X,Y End: None mm)
(Steps per circle: 16)
(Steps per circle: 16)
(Preprocessor Geometry: GRBL_11_no_M6)

(X range:   -0.4399 ...   74.3153  mm)
(Y range:  -29.3211 ...    0.1265  mm)

(Spindle Speed: 10000.0 RPM)
G21
G90
G17
G94


G01 F100.00
G00 Z2.0000

M03 S10000.0
G01 F100.00
G00 X3.2270 Y-6.0290
G01 F60.00
G01 Z-0.0700
G01 F100.00
G01 X3.2539 Y-5.9235 F100.00
G01 X3.2910 Y-5.8211 F100.00
G01 X3.3336 Y-5.7310 F100.00
G01 X3.3892 Y-5.6373 F100.00
G01 X3.4578 Y-5.5444 F100.00
G01 X3.5330 Y-5.4621 F100.00
G01 X3.6088 Y-5.3934 F100.00
G01 X3.6941 Y-5.3299 F100.00
G01 X3.7954 Y-5.2692 F100.00
G01 X3.8855 Y-5.2266 F100.00
G01 X3.9706 Y-5.1956 F100.00
G01 X3.9706 Y-5.1783 F100.00
G01 X3.8824 Y-5.2070 F100.00
G01 X3.7245 Y-5.2874 F100.00
G01 X3.5812 Y-5.3916 F100.00
G01 X3.4560 Y-5.5168 F100.00
G01 X3.3518 Y-5.6601 F100.00
G01 X3.2714 Y-5.8180 F100.00
G01 X3.2167 Y-5.9865 F100.00
G01 X3.1891 Y-6.1602 F100.00
G01 X3.2089 Y-6.1602 F100.00
G01 X3.2270 Y-6.0290 F100.00
G00 Z2.0000
G00 X3.2539 Y-7.0845
G01 F60.00
G01 Z-0.0700
G01 F100.00
G01 X3.2260 Y-6.9746 F100.00
G01 X3.2089 Y-6.8478 F100.00
G01 X3.1891 Y-6.8478 F100.00
G01 X3.2167 Y-7.0215 F100.00
G01 X3.2714 Y-7.1900 F100.00
G01 X3.2865 Y-7.2196 F100.00
G01 X3.3001 Y-7.2061 F100.00
G01 X3.2539 Y-7.0845 F100.00
G00 Z2.0000
G00 X3.8940 Y-7.7849
G01 F60.00
G01 Z-0.0700
G01 F100.00
G01 X3.7954 Y-7.7388 F100.00
G01 X3.7017 Y-7.6832 F100.00
G01 X3.6140 Y-7.6187 F100.00
G01 X3.5602 Y-7.5705 F100.00
G01 X3.5477 Y-7.5830 F100.00
G01 X3.5812 Y-7.6164 F100.00
G01 X3.7245 Y-7.7206 F100.00
G01 X3.8824 Y-7.8010 F100.00
G01 X3.9706 Y-7.8297 F100.00
G01 X3.9706 Y-7.8124 F100.00
G01 X3.8940 Y-7.7849 F100.00
G00 Z2.0000
G00 X5.3574 Y-7.1900
G01 F60.00
G01 Z-0.0700
G01 F100.00
G01 X5.4121 Y-7.0215 F100.00
G01 X5.4397 Y-6.8478 F100.00
G01 X5.4199 Y-6.8478 F100.00
G01 X5.4018 Y-6.9790 F100.00
G01 X5.3764 Y-7.0799 F100.00
G01 X5.3378 Y-7.1869 F100.00
G01 X5.2908 Y-7.2851 F100.00
G01 X5.2345 Y-7.3783 F100.00
G01 X5.1751 Y-7.4584 F100.00
G01 X5.0958 Y-7.5459 F100.00
G01 X5.0200 Y-7.6146 F100.00
G01 X4.9347 Y-7.6781 F100.00
G01 X4.8334 Y-7.7388 F100.00
G01 X4.7433 Y-7.7814 F100.00
G01 X4.6582 Y-7.8124 F100.00
G01 X4.6582 Y-7.8297 F100.00
G01 X4.7464 Y-7.8010 F100.00
G01 X4.9043 Y-7.7206 F100.00
G01 X5.0476 Y-7.6164 F100.00
G01 X5.1728 Y-7.4912 F100.00
G01 X5.2770 Y-7.3479 F100.00
G01 X5.3574 Y-7.1900 F100.00
G00 Z2.0000
G00 X4.9271 Y-5.3248
G01 F60.00
G01 Z-0.0700
G01 F100.00
G01 X5.0200 Y-5.3934 F100.00
G01 X5.0991 Y-5.4653 F100.00
G01 X5.1710 Y-5.5444 F100.00
G01 X5.2396 Y-5.6373 F100.00
G01 X5.2952 Y-5.7310 F100.00
G01 X5.3413 Y-5.8296 F100.00
G01 X5.3764 Y-5.9281 F100.00
G01 X5.4018 Y-6.0290 F100.00
G01 X5.4199 Y-6.1602 F100.00
G01 X5.4397 Y-6.1602 F100.00
G01 X5.4121 Y-5.9865 F100.00
G01 X5.3574 Y-5.8180 F100.00
G01 X5.2770 Y-5.6601 F100.00
G01 X5.1728 Y-5.5168 F100.00
G01 X5.0476 Y-5.3916 F100.00
G01 X4.9043 Y-5.2874 F100.00
G01 X4.7464 Y-5.2070 F100.00
G01 X4.6582 Y-5.1783 F100.00
G01 X4.6582 Y-5.1956 F100.00
G01 X4.7433 Y-5.2266 F100.00
G01 X4.8334 Y-5.2692 F100.00
G01 X4.9271 Y-5.3248 F100.00
G00 Z2.0000
G00 X7.1864 Y-8.5933
G01 F60.00
G01 Z-0.0700
G01 F100.00
G01 X7.2234 Y-8.5483 F100.00
G01 X7.2548 Y-8.5197 F100.00
G01 X7.3036 Y-8.4871 F100.00
G01 X7.3423 Y-8.4688 F100.00
G01 X7.3980 Y-8.4519 F100.00
G01 X7.4347 Y-8.4460 F100.00
G01 X7.5988 Y-8.4443 F100.00
G01 X7.5995 Y-7.9817 F100.00
G01 X7.6097 Y-7.9303 F100.00
G01 X7.6271 Y-7.8907 F100.00
G01 X7.6635 Y-7.8427 F100.00
G01 X8.3001 Y-7.2061 F100.00
G01 X8.2512 Y-7.0757 F100.00
G01 X8.2260 Y-6.9746 F100.00
G01 X8.2101 Y-6.8679 F100.00
G01 X8.2047 Y-6.7580 F100.00
G01 X8.2047 Y-6.2500 F100.00
G01 X8.2097 Y-6.1458 F100.00
G01 X8.2260 Y-6.0334 F100.00
G01 X8.2539 Y-5.9235 F100.00
G01 X8.2910 Y-5.8211 F100.00
G01 X8.3336 Y-5.7310 F100.00
G01 X8.3943 Y-5.6297 F100.00
G01 X8.4578 Y-5.5444 F100.00
G01 X8.5265 Y-5.4686 F100.00
G01 X8.6088 Y-5.3934 F100.00
G01 X8.6941 Y-5.3299 F100.00
G01 X8.7873 Y-5.2736 F100.00
G01 X8.8940 Y-5.2231 F100.00
G01 X8.9925 Y-5.1880 F100.00
G01 X9.0934 Y-5.1626 F100.00
G01 X9.2102 Y-5.1453 F100.00
G01 X9.3144 Y-5.1403 F100.00
G01 X9.4243 Y-5.1457 F100.00
G01 X9.5310 Y-5.1616 F100.00
G01 X9.6321 Y-5.1868 F100.00
G01 X9.7433 Y-5.2266 F100.00
G01 X9.8415 Y-5.2736 F100.00
G01 X9.9347 Y-5.3299 F100.00
G01 X10.0219 Y-5.3952 F100.00
G01 X10.1023 Y-5.4686 F100.00
G01 X10.1710 Y-5.5444 F100.00
G01 X10.2345 Y-5.6297 F100.00
G01 X10.2908 Y-5.7229 F100.00
G01 X10.3413 Y-5.8296 F100.00
G01 X10.3764 Y-5.9281 F100.00
G01 X10.4028 Y-6.0334 F100.00
G01 X10.4187 Y-6.1401 F100.00
G01 X10.4240 Y-6.2454 F100.00
G01 X10.4241 Y-6.7580 F100.00
G01 X10.4191 Y-6.8622 F100.00
G01 X10.4028 Y-6.9746 F100.00
G01 X10.3764 Y-7.0799 F100.00
G01 X10.3378 Y-7.1869 F100.00
G01 X10.2908 Y-7.2851 F100.00
G01 X10.2345 Y-7.3783 F100.00
G01 X10.1692 Y-7.4655 F100.00
G01 X10.0991 Y-7.5427 F100.00
G01 X10.0148 Y-7.6187 F100.00
G01 X9.9271 Y-7.6832 F100.00
G01 X9.8415 Y-7.7344 F100.00
G01 X9.7433 Y-7.7814 F100.00
G01 X9.6321 Y-7.8212 F100.00
G01 X9.5310 Y-7.8464 F100.00
G01 X9.4243 Y-7.8623 F100.00
G01 X9.3098 Y-7.8676 F100.00
G01 X9.2045 Y-7.8623 F100.00
G01 X9.0978 Y-7.8464 F100.00
G01 X8.9879 Y-7.8185 F100.00
G01 X8.8855 Y-7.7814 F100.00
G01 X8.7954 Y-7.7388 F100.00
G01 X8.6941 Y-7.6781 F100.00
G01 X8.6088 Y-7.6146 F100.00
G01 X8.5602 Y-7.5705 F100.00
G01 X8.0404 Y-8.0903 F100.00
G01 X8.0404 Y-8.4442 F100.00
G01 X8.1987 Y-8.4456 F100.00
G01 X8.2691 Y-8.4590 F100.00
G01 X8.3054 Y-8.4723 F100.00
G01 X8.3567 Y-8.4997 F100.00
G01 X8.3912 Y-8.5253 F100.00
G01 X8.4323 Y-8.5664 F100.00
G01 X8.4579 Y-8.6009 F100.00
G01 X8.4853 Y-8.6522 F100.00
G01 X8.5075 Y-8.7255 F100.00
G01 X8.5133 Y-8.7880 F100.00
G01 X8.5133 Y-9.0172 F100.00
G01 X14.0830 Y-9.0172 F100.00
G01 X14.1306 Y-9.0224 F100.00
G01 X14.1911 Y-9.0455 F100.00
G01 X14.2391 Y-9.0819 F100.00
G01 X16.2797 Y-11.1224 F100.00
G01 X17.0044 Y-11.1224 F100.00
G01 X17.0446 Y-11.1055 F100.00
G01 X17.0892 Y-11.0995 F100.00
G01 X18.4353 Y-11.1008 F100.00
G01 X18.4810 Y-11.1132 F100.00
G01 X18.5176 Y-11.1349 F100.00
G01 X18.5519 Y-11.1707 F100.00
G01 X18.5718 Y-11.2079 F100.00
G01 X18.5829 Y-11.2682 F100.00
G01 X18.5828 Y-11.4228 F100.00
G01 X18.5769 Y-11.4628 F100.00
G01 X18.5561 Y-11.5096 F100.00
G01 X18.5176 Y-11.5515 F100.00
G01 X18.4745 Y-11.5758 F100.00
G01 X18.4188 Y-11.5868 F100.00
G01 X17.0892 Y-11.5869 F100.00
G01 X17.0446 Y-11.5809 F100.00
G01 X17.0044 Y-11.5640 F100.00
G01 X16.1882 Y-11.5640 F100.00
G01 X16.1450 Y-11.5598 F100.00
G01 X16.0995 Y-11.5453 F100.00
G01 X16.0618 Y-11.5242 F100.00
G01 X16.0321 Y-11.4994 F100.00
G01 X13.9915 Y-9.4588 F100.00
G01 X8.5134 Y-9.4588 F100.00
G01 X8.5132 Y-9.6926 F100.00
G01 X8.5075 Y-9.7505 F100.00
G01 X8.4971 Y-9.7922 F100.00
G01 X8.4705 Y-9.8540 F100.00
G01 X8.4323 Y-9.9096 F100.00
G01 X8.3844 Y-9.9563 F100.00
G01 X8.3294 Y-9.9923 F100.00
G01 X8.2650 Y-10.0182 F100.00
G01 X8.1742 Y-10.0316 F100.00
G01 X7.4696 Y-10.0317 F100.00
G01 X7.4313 Y-10.0295 F100.00
G01 X7.3742 Y-10.0182 F100.00
G01 X7.3338 Y-10.0037 F100.00
G01 X7.2825 Y-9.9763 F100.00
G01 X7.2480 Y-9.9507 F100.00
G01 X7.2069 Y-9.9096 F100.00
G01 X7.1813 Y-9.8751 F100.00
G01 X7.1539 Y-9.8238 F100.00
G01 X7.1394 Y-9.7834 F100.00
G01 X7.1281 Y-9.7263 F100.00
G01 X7.1272 Y-8.7589 F100.00
G01 X7.1421 Y-8.6838 F100.00
G01 X7.1653 Y-8.6282 F100.00
G01 X7.1864 Y-8.5933 F100.00
G00 Z2.0000
G00 X3.0761 Y-9.4595
G01 F60.00
G01 Z-0.0700
G01 F100.00
G01 X3.0896 Y-9.4040 F100.00
G01 X3.1094 Y-9.3497 F100.00
G01 X3.1548 Y-9.2647 F100.00
G01 X3.1918 Y-9.2149 F100.00
G01 X3.2599 Y-9.1468 F100.00
G01 X3.3082 Y-9.1107 F100.00
G01 X3.3947 Y-9.0644 F100.00
G01 X3.4490 Y-9.0446 F100.00
G01 X3.5477 Y-9.0247 F100.00
G01 X3.6050 Y-9.0215 F100.00
G01 X3.6623 Y-9.0247 F100.00
G01 X3.7569 Y-9.0435 F100.00
G01 X3.8153 Y-9.0644 F100.00
G01 X3.9003 Y-9.1098 F100.00
G01 X3.9489 Y-9.1457 F100.00
G01 X3.9889 Y-9.1826 F100.00
G01 X4.0543 Y-9.2632 F100.00
G01 X4.1006 Y-9.3497 F100.00
G01 X4.1215 Y-9.4081 F100.00
G01 X4.1409 Y-9.5071 F100.00
G01 X4.1435 Y-10.6219 F100.00
G01 X4.1634 Y-10.5868 F100.00
G01 X4.1883 Y-10.5571 F100.00
G01 X5.1259 Y-9.6195 F100.00
G01 X5.1276 Y-8.7531 F100.00
G01 X5.1406 Y-8.6885 F100.00
G01 X5.1644 Y-8.6301 F100.00
G01 X5.1864 Y-8.5933 F100.00
G01 X5.2265 Y-8.5449 F100.00
G01 X5.2749 Y-8.5048 F100.00
G01 X5.3338 Y-8.4723 F100.00
G01 X5.3980 Y-8.4519 F100.00
G01 X5.4405 Y-8.4456 F100.00
G01 X6.1742 Y-8.4444 F100.00
G01 X6.2650 Y-8.4578 F100.00
G01 X6.3294 Y-8.4837 F100.00
G01 X6.3912 Y-8.5253 F100.00
G01 X6.4528 Y-8.5933 F100.00
G01 X6.4888 Y-8.6607 F100.00
G01 X6.5057 Y-8.7164 F100.00
G01 X6.5116 Y-8.7531 F100.00
G01 X6.5120 Y-9.7171 F100.00
G01 X6.4971 Y-9.7922 F100.00
G01 X6.4739 Y-9.8478 F100.00
G01 X6.4528 Y-9.8827 F100.00
G01 X6.3912 Y-9.9507 F100.00
G01 X6.3356 Y-9.9889 F100.00
G01 X6.2691 Y-10.0170 F100.00
G01 X6.2045 Y-10.0300 F100.00
G01 X5.4696 Y-10.0317 F100.00
G01 X5.4071 Y-10.0259 F100.00
G01 X5.3573 Y-10.0126 F100.00
G01 X4.5652 Y-10.8047 F100.00
G01 X4.5652 Y-10.9674 F100.00
G01 X4.7944 Y-10.9675 F100.00
G01 X4.8569 Y-10.9733 F100.00
G01 X4.9302 Y-10.9955 F100.00
G01 X5.0092 Y-11.0429 F100.00
G01 X5.0406 Y-11.0715 F100.00
G01 X5.0776 Y-11.1165 F100.00
G01 X5.0996 Y-11.1533 F100.00
G01 X5.1234 Y-11.2117 F100.00
G01 X5.1368 Y-11.2821 F100.00
G01 X5.1381 Y-11.4368 F100.00
G01 X7.0598 Y-11.4368 F100.00
G01 X7.0621 Y-11.2693 F100.00
G01 X7.0746 Y-11.2081 F100.00
G01 X7.0993 Y-11.1478 F100.00
G01 X7.1353 Y-11.0928 F100.00
G01 X7.1820 Y-11.0449 F100.00
G01 X7.2376 Y-11.0067 F100.00
G01 X7.2994 Y-10.9801 F100.00
G01 X7.3411 Y-10.9697 F100.00
G01 X7.4036 Y-10.9639 F100.00
G01 X8.3036 Y-10.9639 F100.00
G01 X8.3419 Y-10.9661 F100.00
G01 X8.4031 Y-10.9786 F100.00
G01 X8.4394 Y-10.9919 F100.00
G01 X8.4907 Y-11.0193 F100.00
G01 X8.5252 Y-11.0449 F100.00
G01 X8.5663 Y-11.0860 F100.00
G01 X8.5919 Y-11.1205 F100.00
G01 X8.6193 Y-11.1718 F100.00
G01 X8.6415 Y-11.2451 F100.00
G01 X8.6473 Y-11.3076 F100.00
G01 X8.6472 Y-12.0122 F100.00
G01 X8.6338 Y-12.1030 F100.00
G01 X8.6079 Y-12.1674 F100.00
G01 X8.5663 Y-12.2292 F100.00
G01 X8.4983 Y-12.2908 F100.00
G01 X8.4309 Y-12.3268 F100.00
G01 X8.3419 Y-12.3491 F100.00
G01 X7.3687 Y-12.3496 F100.00
G01 X7.2994 Y-12.3351 F100.00
G01 X7.2165 Y-12.2959 F100.00
G01 X7.1605 Y-12.2507 F100.00
G01 X7.1153 Y-12.1947 F100.00
G01 X7.0844 Y-12.1349 F100.00
G01 X7.0657 Y-12.0701 F100.00
G01 X7.0600 Y-12.0122 F100.00
G01 X7.0599 Y-11.8784 F100.00
G01 X5.1382 Y-11.8784 F100.00
G01 X5.1359 Y-12.0495 F100.00
G01 X5.1234 Y-12.1107 F100.00
G01 X5.0987 Y-12.1710 F100.00
G01 X5.0627 Y-12.2260 F100.00
G01 X5.0160 Y-12.2739 F100.00
G01 X4.9542 Y-12.3155 F100.00
G01 X4.8939 Y-12.3402 F100.00
G01 X4.8327 Y-12.3527 F100.00
G01 X4.7944 Y-12.3549 F100.00
G01 X3.8944 Y-12.3549 F100.00
G01 X3.8228 Y-12.3473 F100.00
G01 X3.7346 Y-12.3155 F100.00
G01 X3.6796 Y-12.2795 F100.00
G01 X3.6261 Y-12.2260 F100.00
G01 X3.5901 Y-12.1710 F100.00
G01 X3.5642 Y-12.1066 F100.00
G01 X3.5508 Y-12.0158 F100.00
G01 X3.5507 Y-11.6290 F100.00
G01 X3.1859 Y-11.2598 F100.00
G01 X3.1548 Y-11.2171 F100.00
G01 X3.1094 Y-11.1321 F100.00
G01 X3.0779 Y-11.0313 F100.00
G01 X3.0665 Y-10.9218 F100.00
G01 X3.0665 Y-9.5600 F100.00
G01 X3.0761 Y-9.4595 F100.00
G00 Z2.0000
G00 X1.4581 Y-11.3625
G01 F60.00
G01 Z-0.0700
G01 F100.00
G01 X1.4581 Y-11.3782 F100.00
G01 X2.5797 Y-11.3784 F100.00
G01 X2.6236 Y-11.3919 F100.00
G01 X2.6544 Y-11.4223 F100.00
G01 X2.6658 Y-11.4493 F100.00
G01 X2.6686 Y-11.4720 F100.00
G01 X2.6686 Y-13.1602 F100.00
G01 X2.6843 Y-13.1602 F100.00
G01 X2.6843 Y-11.4612 F100.00
G01 X2.6780 Y-11.4293 F100.00
G01 X2.6538 Y-11.3931 F100.00
G01 X2.6176 Y-11.3689 F100.00
G01 X2.5857 Y-11.3625 F100.00
G01 X1.4581 Y-11.3625 F100.00
G00 Z2.0000
G00 X2.6843 Y-13.8477
G01 F60.00
G01 Z-0.0700
G01 F100.00
G01 X2.6686 Y-13.8477 F100.00
G01 X2.6686 Y-15.5360 F100.00
G01 X2.6658 Y-15.5587 F100.00
G01 X2.6544 Y-15.5857 F100.00
G01 X2.6236 Y-15.6161 F100.00
G01 X2.5797 Y-15.6296 F100.00
G01 X1.4581 Y-15.6297 F100.00
G01 X1.4581 Y-15.6454 F100.00
G01 X2.5857 Y-15.6454 F100.00
G01 X2.6176 Y-15.6391 F100.00
G01 X2.6538 Y-15.6149 F100.00
G01 X2.6780 Y-15.5787 F100.00
G01 X2.6843 Y-15.5468 F100.00
G01 X2.6843 Y-13.8477 F100.00
G00 Z2.0000
G00 X-0.3664 Y-15.6275
G01 F60.00
G01 Z-0.0700
G01 F100.00
G01 X-0.3958 Y-15.6155 F100.00
G01 X-0.4211 Y-15.5922 F100.00
G01 X-0.4350 Y-15.5656 F100.00
G01 X-0.4399 Y-15.5360 F100.00
G01 X-0.4397 Y-11.4672 F100.00
G01 X-0.4343 Y-11.4403 F100.00
G01 X-0.4211 Y-11.4157 F100.00
G01 X-0.3958 Y-11.3925 F100.00
G01 X-0.3688 Y-11.3810 F100.00
G01 X-0.0902 Y-11.3782 F100.00
G01 X-0.0888 Y-8.1017 F100.00
G01 X0.3138 Y-5.5707 F100.00
G01 X1.4750 Y-3.2889 F100.00
G01 X1.4969 Y-3.2588 F100.00
G01 X3.2950 Y-1.4606 F100.00
G01 X3.3251 Y-1.4388 F100.00
G01 X5.6094 Y-0.2768 F100.00
G01 X8.1447 Y0.1259 F100.00
G01 X66.0847 Y0.1253 F100.00
G01 X69.2266 Y-0.5022 F100.00
G01 X71.8998 Y-2.2890 F100.00
G01 X73.6857 Y-4.9602 F100.00
G01 X73.6943 Y-4.9866 F100.00
G01 X74.3147 Y-8.1085 F100.00
G01 X74.3152 Y-21.0789 F100.00
G01 X73.6892 Y-24.2259 F100.00
G01 X73.6766 Y-24.2507 F100.00
G01 X71.9146 Y-26.8877 F100.00
G01 X71.8819 Y-26.9204 F100.00
G01 X69.2266 Y-28.6924 F100.00
G01 X66.0803 Y-29.3205 F100.00
G01 X8.1565 Y-29.3211 F100.00
G01 X5.6225 Y-28.9211 F100.00
G01 X5.5909 Y-28.9103 F100.00
G01 X3.3251 Y-27.7558 F100.00
G01 X3.2950 Y-27.7340 F100.00
G01 X1.4840 Y-25.9206 F100.00
G01 X0.3184 Y-23.6355 F100.00
G01 X0.3090 Y-23.6046 F100.00
G01 X-0.0901 Y-21.0791 F100.00
G01 X-0.0902 Y-15.6297 F100.00
G01 X-0.3664 Y-15.6275 F100.00
G00 Z2.0000
G00 X1.7560 Y-17.5707
G01 F60.00
G01 Z-0.0700
G01 F100.00
G01 X1.8213 Y-17.5632 F100.00
G01 X1.8213 Y-17.5474 F100.00
G01 X1.7625 Y-17.5487 F100.00
G01 X1.6750 Y-17.5794 F100.00
G01 X1.6883 Y-17.5927 F100.00
G01 X1.7560 Y-17.5707 F100.00
G00 Z2.0000
G00 X1.4839 Y-18.0128
G01 F60.00
G01 Z-0.0700
G01 F100.00
G01 X1.4682 Y-17.9971 F100.00
G01 X1.4682 Y-18.0380 F100.00
G01 X1.4839 Y-18.0380 F100.00
G01 X1.4839 Y-18.0128 F100.00
G00 Z2.0000
G00 X2.5980 Y-17.5766
G01 F60.00
G01 Z-0.0700
G01 F100.00
G01 X2.6624 Y-17.6025 F100.00
G01 X2.7174 Y-17.6385 F100.00
G01 X2.7653 Y-17.6852 F100.00
G01 X2.8035 Y-17.7408 F100.00
G01 X2.8218 Y-17.7795 F100.00
G01 X2.8393 Y-17.8377 F100.00
G01 X2.8462 Y-17.9022 F100.00
G01 X2.8463 Y-18.0380 F100.00
G01 X2.8620 Y-18.0380 F100.00
G01 X2.8607 Y-17.8418 F100.00
G01 X2.8240 Y-17.7369 F100.00
G01 X2.7596 Y-17.6498 F100.00
G01 X2.6725 Y-17.5854 F100.00
G01 X2.5677 Y-17.5487 F100.00
G01 X2.5089 Y-17.5474 F100.00
G01 X2.5089 Y-17.5632 F100.00
G01 X2.5980 Y-17.5766 F100.00
G00 Z2.0000
G00 X2.8607 Y-18.9219
G01 F60.00
G01 Z-0.0700
G01 F100.00
G01 X2.8620 Y-18.7256 F100.00
G01 X2.8464 Y-18.7256 F100.00
G01 X2.8462 Y-18.8614 F100.00
G01 X2.8393 Y-18.9259 F100.00
G01 X2.8183 Y-18.9926 F100.00
G01 X2.7858 Y-19.0515 F100.00
G01 X2.7242 Y-19.1195 F100.00
G01 X2.6686 Y-19.1577 F100.00
G01 X2.5980 Y-19.1870 F100.00
G01 X2.5089 Y-19.2004 F100.00
G01 X2.5089 Y-19.2162 F100.00
G01 X2.5676 Y-19.2149 F100.00
G01 X2.6725 Y-19.1782 F100.00
G01 X2.7596 Y-19.1138 F100.00
G01 X2.8240 Y-19.0267 F100.00
G01 X2.8607 Y-18.9219 F100.00
G00 Z2.0000
G00 X1.8213 Y-19.2004
G01 F60.00
G01 Z-0.0700
G01 F100.00
G01 X1.7322 Y-19.1870 F100.00
G01 X1.6678 Y-19.1611 F100.00
G01 X1.6060 Y-19.1195 F100.00
G01 X1.5590 Y-19.0712 F100.00
G01 X1.5233 Y-19.0166 F100.00
G01 X1.4974 Y-18.9522 F100.00
G01 X1.4852 Y-18.8859 F100.00
G01 X1.4839 Y-18.7256 F100.00
G01 X1.4682 Y-18.7256 F100.00
G01 X1.4695 Y-18.9219 F100.00
G01 X1.5062 Y-19.0267 F100.00
G01 X1.5706 Y-19.1138 F100.00
G01 X1.6577 Y-19.1782 F100.00
G01 X1.7625 Y-19.2149 F100.00
G01 X1.8213 Y-19.2162 F100.00
G01 X1.8213 Y-19.2004 F100.00
G00 Z2.0000
G00 X3.3943 Y-20.1297
G01 F60.00
G01 Z-0.0700
G01 F100.00
G01 X3.4578 Y-20.0444 F100.00
G01 X3.5297 Y-19.9653 F100.00
G01 X3.6088 Y-19.8934 F100.00
G01 X3.7017 Y-19.8248 F100.00
G01 X3.7954 Y-19.7692 F100.00
G01 X3.8940 Y-19.7231 F100.00
G01 X3.9925 Y-19.6879 F100.00
G01 X4.0936 Y-19.6625 F100.00
G01 X4.0936 Y-19.2006 F100.00
G01 X3.8677 Y-19.1988 F100.00
G01 X3.8031 Y-19.1858 F100.00
G01 X3.7366 Y-19.1577 F100.00
G01 X3.6629 Y-19.1030 F100.00
G01 X3.6143 Y-19.0439 F100.00
G01 X3.5751 Y-18.9610 F100.00
G01 X3.5602 Y-18.8859 F100.00
G01 X3.5589 Y-17.9068 F100.00
G01 X3.5647 Y-17.8443 F100.00
G01 X3.5751 Y-17.8026 F100.00
G01 X3.6017 Y-17.7408 F100.00
G01 X3.6399 Y-17.6852 F100.00
G01 X3.6878 Y-17.6385 F100.00
G01 X3.7428 Y-17.6025 F100.00
G01 X3.8031 Y-17.5778 F100.00
G01 X3.8643 Y-17.5653 F100.00
G01 X4.0193 Y-17.5631 F100.00
G01 X4.0193 Y-14.3550 F100.00
G01 X3.8898 Y-14.3548 F100.00
G01 X3.8253 Y-14.3479 F100.00
G01 X3.7586 Y-14.3269 F100.00
G01 X3.6997 Y-14.2944 F100.00
G01 X3.6317 Y-14.2328 F100.00
G01 X3.5935 Y-14.1772 F100.00
G01 X3.5654 Y-14.1107 F100.00
G01 X3.5520 Y-14.0403 F100.00
G01 X3.5507 Y-13.3112 F100.00
G01 X3.5565 Y-13.2487 F100.00
G01 X3.5787 Y-13.1754 F100.00
G01 X3.6112 Y-13.1165 F100.00
G01 X3.6728 Y-13.0485 F100.00
G01 X3.7284 Y-13.0103 F100.00
G01 X3.7990 Y-12.9810 F100.00
G01 X3.8898 Y-12.9676 F100.00
G01 X4.7259 Y-12.9675 F100.00
G01 X5.2270 Y-12.4673 F100.00
G01 X5.2819 Y-12.4329 F100.00
G01 X5.3444 Y-12.4158 F100.00
G01 X8.4135 Y-12.4142 F100.00
G01 X9.6599 Y-11.1678 F100.00
G01 X9.6675 Y-11.1253 F100.00
G01 X9.6779 Y-11.0963 F100.00
G01 X9.6990 Y-11.0586 F100.00
G01 X9.7239 Y-11.0289 F100.00
G01 X10.2114 Y-10.5423 F100.00
G01 X10.2663 Y-10.5079 F100.00
G01 X10.3332 Y-10.4903 F100.00
G01 X14.8562 Y-10.4908 F100.00
G01 X14.9187 Y-10.5079 F100.00
G01 X14.9564 Y-10.5290 F100.00
G01 X14.9828 Y-10.5507 F100.00
G01 X16.0547 Y-11.6224 F100.00
G01 X17.0044 Y-11.6224 F100.00
G01 X17.0446 Y-11.6055 F100.00
G01 X17.0892 Y-11.5995 F100.00
G01 X18.4188 Y-11.5996 F100.00
G01 X18.4629 Y-11.6066 F100.00
G01 X18.5041 Y-11.6254 F100.00
G01 X18.5367 Y-11.6522 F100.00
G01 X18.5623 Y-11.6873 F100.00
G01 X18.5769 Y-11.7236 F100.00
G01 X18.5828 Y-11.7636 F100.00
G01 X18.5828 Y-11.9228 F100.00
G01 X18.5758 Y-11.9669 F100.00
G01 X18.5561 Y-12.0096 F100.00
G01 X18.5228 Y-12.0474 F100.00
G01 X18.4810 Y-12.0732 F100.00
G01 X18.4353 Y-12.0856 F100.00
G01 X17.0892 Y-12.0869 F100.00
G01 X17.0446 Y-12.0809 F100.00
G01 X17.0044 Y-12.0640 F100.00
G01 X15.9414 Y-12.0629 F100.00
G01 X15.8745 Y-12.0453 F100.00
G01 X15.8444 Y-12.0293 F100.00
G01 X15.8104 Y-12.0025 F100.00
G01 X14.7385 Y-10.9308 F100.00
G01 X10.4465 Y-10.9308 F100.00
G01 X10.1001 Y-11.2772 F100.00
G01 X10.0925 Y-11.3197 F100.00
G01 X10.0821 Y-11.3487 F100.00
G01 X10.0610 Y-11.3864 F100.00
G01 X10.0361 Y-11.4161 F100.00
G01 X8.6611 Y-12.7911 F100.00
G01 X8.6238 Y-12.8211 F100.00
G01 X8.5852 Y-12.8407 F100.00
G01 X8.5482 Y-12.8516 F100.00
G01 X8.5050 Y-12.8558 F100.00
G01 X5.4621 Y-12.8558 F100.00
G01 X5.1190 Y-13.1989 F100.00
G01 X5.1323 Y-13.2487 F100.00
G01 X5.1381 Y-13.3112 F100.00
G01 X5.1380 Y-14.0158 F100.00
G01 X5.1323 Y-14.0737 F100.00
G01 X5.1234 Y-14.1107 F100.00
G01 X5.1101 Y-14.1470 F100.00
G01 X5.0827 Y-14.1983 F100.00
G01 X5.0571 Y-14.2328 F100.00
G01 X5.0088 Y-14.2798 F100.00
G01 X4.9542 Y-14.3155 F100.00
G01 X4.8898 Y-14.3414 F100.00
G01 X4.7990 Y-14.3548 F100.00
G01 X4.4609 Y-14.3549 F100.00
G01 X4.4609 Y-17.5630 F100.00
G01 X4.5822 Y-17.5632 F100.00
G01 X4.6467 Y-17.5701 F100.00
G01 X4.7134 Y-17.5911 F100.00
G01 X4.7924 Y-17.6385 F100.00
G01 X4.8459 Y-17.6920 F100.00
G01 X4.8828 Y-17.7489 F100.00
G01 X4.9137 Y-17.8352 F100.00
G01 X4.9213 Y-17.9068 F100.00
G01 X4.9213 Y-18.8568 F100.00
G01 X4.9143 Y-18.9259 F100.00
G01 X4.8968 Y-18.9841 F100.00
G01 X4.8659 Y-19.0439 F100.00
G01 X4.8207 Y-19.0999 F100.00
G01 X4.7723 Y-19.1400 F100.00
G01 X4.7134 Y-19.1725 F100.00
G01 X4.6730 Y-19.1870 F100.00
G01 X4.6125 Y-19.1988 F100.00
G01 X4.5352 Y-19.2005 F100.00
G01 X4.5352 Y-19.6625 F100.00
G01 X4.6363 Y-19.6879 F100.00
G01 X4.7348 Y-19.7231 F100.00
G01 X4.8415 Y-19.7736 F100.00
G01 X4.9347 Y-19.8299 F100.00
G01 X5.0200 Y-19.8934 F100.00
G01 X5.0991 Y-19.9653 F100.00
G01 X5.1692 Y-20.0425 F100.00
G01 X5.2396 Y-20.1373 F100.00
G01 X5.2952 Y-20.2310 F100.00
G01 X5.3413 Y-20.3296 F100.00
G01 X5.3764 Y-20.4281 F100.00
G01 X5.4018 Y-20.5290 F100.00
G01 X5.4191 Y-20.6458 F100.00
G01 X5.4241 Y-20.7500 F100.00
G01 X5.4240 Y-21.2626 F100.00
G01 X5.4187 Y-21.3679 F100.00
G01 X5.4036 Y-21.4700 F100.00
G01 X5.3776 Y-21.5757 F100.00
G01 X5.3378 Y-21.6869 F100.00
G01 X5.2908 Y-21.7851 F100.00
G01 X5.2396 Y-21.8707 F100.00
G01 X5.1692 Y-21.9655 F100.00
G01 X5.0991 Y-22.0427 F100.00
G01 X5.0200 Y-22.1146 F100.00
G01 X4.9347 Y-22.1781 F100.00
G01 X4.8415 Y-22.2344 F100.00
G01 X4.7433 Y-22.2814 F100.00
G01 X4.6363 Y-22.3200 F100.00
G01 X4.5310 Y-22.3464 F100.00
G01 X4.4243 Y-22.3623 F100.00
G01 X4.3144 Y-22.3677 F100.00
G01 X4.2045 Y-22.3623 F100.00
G01 X4.0978 Y-22.3464 F100.00
G01 X3.9925 Y-22.3200 F100.00
G01 X3.8940 Y-22.2849 F100.00
G01 X3.7954 Y-22.2388 F100.00
G01 X3.7017 Y-22.1832 F100.00
G01 X3.6088 Y-22.1146 F100.00
G01 X3.5297 Y-22.0427 F100.00
G01 X3.4578 Y-21.9636 F100.00
G01 X3.3943 Y-21.8783 F100.00
G01 X3.3380 Y-21.7851 F100.00
G01 X3.2875 Y-21.6784 F100.00
G01 X3.2524 Y-21.5799 F100.00
G01 X3.2260 Y-21.4746 F100.00
G01 X3.2101 Y-21.3679 F100.00
G01 X3.2048 Y-21.2626 F100.00
G01 X3.2048 Y-20.7454 F100.00
G01 X3.2101 Y-20.6401 F100.00
G01 X3.2252 Y-20.5380 F100.00
G01 X3.2524 Y-20.4281 F100.00
G01 X3.2910 Y-20.3211 F100.00
G01 X3.3380 Y-20.2229 F100.00
G01 X3.3943 Y-20.1297 F100.00
G00 Z2.0000
G00 X3.8432 Y-22.3956
G01 F60.00
G01 Z-0.0700
G01 F100.00
G01 X4.0269 Y-22.4553 F100.00
G01 X4.2178 Y-22.4855 F100.00
G01 X4.4110 Y-22.4855 F100.00
G01 X4.6019 Y-22.4553 F100.00
G01 X4.7856 Y-22.3956 F100.00
G01 X4.9578 Y-22.3079 F100.00
G01 X5.1141 Y-22.1943 F100.00
G01 X5.2507 Y-22.0577 F100.00
G01 X5.3643 Y-21.9014 F100.00
G01 X5.4520 Y-21.7292 F100.00
G01 X5.4710 Y-21.6711 F100.00
G01 X5.4873 Y-21.6436 F100.00
G01 X5.5234 Y-21.6018 F100.00
G01 X5.5516 Y-21.5824 F100.00
G01 X5.5772 Y-21.5752 F100.00
G01 X5.6346 Y-21.5706 F100.00
G01 X5.6623 Y-21.5739 F100.00
G01 X5.6856 Y-21.5839 F100.00
G01 X5.7449 Y-21.6344 F100.00
G01 X5.8518 Y-21.8479 F100.00
G01 X5.9560 Y-21.9912 F100.00
G01 X6.0812 Y-22.1164 F100.00
G01 X6.2245 Y-22.2206 F100.00
G01 X6.3824 Y-22.3010 F100.00
G01 X6.4706 Y-22.3297 F100.00
G01 X6.4706 Y-22.3123 F100.00
G01 X6.3855 Y-22.2814 F100.00
G01 X6.2873 Y-22.2344 F100.00
G01 X6.1941 Y-22.1781 F100.00
G01 X6.1088 Y-22.1146 F100.00
G01 X6.0297 Y-22.0427 F100.00
G01 X5.9578 Y-21.9636 F100.00
G01 X5.8892 Y-21.8707 F100.00
G01 X5.8336 Y-21.7770 F100.00
G01 X5.7875 Y-21.6784 F100.00
G01 X5.7524 Y-21.5799 F100.00
G01 X5.7260 Y-21.4746 F100.00
G01 X5.7101 Y-21.3679 F100.00
G01 X5.7047 Y-21.2580 F100.00
G01 X5.7047 Y-20.7500 F100.00
G01 X5.7106 Y-20.6367 F100.00
G01 X5.7260 Y-20.5334 F100.00
G01 X5.7524 Y-20.4281 F100.00
G01 X5.7875 Y-20.3296 F100.00
G01 X5.8336 Y-20.2310 F100.00
G01 X5.8943 Y-20.1297 F100.00
G01 X5.9578 Y-20.0444 F100.00
G01 X6.0265 Y-19.9686 F100.00
G01 X6.1140 Y-19.8893 F100.00
G01 X6.2017 Y-19.8248 F100.00
G01 X6.2873 Y-19.7736 F100.00
G01 X6.3855 Y-19.7266 F100.00
G01 X6.4706 Y-19.6956 F100.00
G01 X6.4707 Y-19.6783 F100.00
G01 X6.3824 Y-19.7070 F100.00
G01 X6.2245 Y-19.7874 F100.00
G01 X6.0812 Y-19.8916 F100.00
G01 X5.9560 Y-20.0168 F100.00
G01 X5.8518 Y-20.1601 F100.00
G01 X5.7570 Y-20.3532 F100.00
G01 X5.7177 Y-20.4008 F100.00
G01 X5.6991 Y-20.4175 F100.00
G01 X5.6753 Y-20.4291 F100.00
G01 X5.5894 Y-20.4370 F100.00
G01 X5.5491 Y-20.4232 F100.00
G01 X5.4848 Y-20.3653 F100.00
G01 X5.4520 Y-20.2788 F100.00
G01 X5.3643 Y-20.1066 F100.00
G01 X5.2507 Y-19.9503 F100.00
G01 X5.1141 Y-19.8137 F100.00
G01 X4.9578 Y-19.7001 F100.00
G01 X4.7290 Y-19.5865 F100.00
G01 X4.6755 Y-19.5361 F100.00
G01 X4.6637 Y-19.5111 F100.00
G01 X4.6533 Y-19.4635 F100.00
G01 X4.6570 Y-19.4024 F100.00
G01 X4.6793 Y-19.3473 F100.00
G01 X4.6929 Y-19.3254 F100.00
G01 X4.7407 Y-19.2895 F100.00
G01 X4.8059 Y-19.2629 F100.00
G01 X4.9070 Y-19.1862 F100.00
G01 X4.9837 Y-19.0851 F100.00
G01 X5.0305 Y-18.9663 F100.00
G01 X5.0392 Y-18.8947 F100.00
G01 X5.0392 Y-17.8689 F100.00
G01 X5.0305 Y-17.7973 F100.00
G01 X4.9837 Y-17.6785 F100.00
G01 X4.9070 Y-17.5774 F100.00
G01 X4.8059 Y-17.5007 F100.00
G01 X4.6776 Y-17.4501 F100.00
G01 X4.6510 Y-17.4341 F100.00
G01 X4.5956 Y-17.3752 F100.00
G01 X4.5791 Y-17.3141 F100.00
G01 X4.5791 Y-14.6198 F100.00
G01 X4.5858 Y-14.5931 F100.00
G01 X4.6095 Y-14.5380 F100.00
G01 X4.6210 Y-14.5221 F100.00
G01 X4.6439 Y-14.5036 F100.00
G01 X4.7254 Y-14.4732 F100.00
G01 X4.8323 Y-14.4728 F100.00
G01 X4.9039 Y-14.4641 F100.00
G01 X5.0227 Y-14.4173 F100.00
G01 X5.1238 Y-14.3406 F100.00
G01 X5.2005 Y-14.2395 F100.00
G01 X5.2473 Y-14.1207 F100.00
G01 X5.2560 Y-14.0491 F100.00
G01 X5.2578 Y-13.2749 F100.00
G01 X5.2941 Y-13.1913 F100.00
G01 X5.4831 Y-13.0052 F100.00
G01 X5.5475 Y-12.9779 F100.00
G01 X5.5756 Y-12.9736 F100.00
G01 X6.8096 Y-12.9736 F100.00
G01 X6.8455 Y-12.9807 F100.00
G01 X6.9089 Y-13.0097 F100.00
G01 X6.9297 Y-13.0305 F100.00
G01 X6.9395 Y-13.0475 F100.00
G01 X6.9618 Y-13.1024 F100.00
G01 X6.9659 Y-13.1291 F100.00
G01 X6.9593 Y-13.1731 F100.00
G01 X6.9507 Y-13.1981 F100.00
G01 X6.9421 Y-13.2697 F100.00
G01 X6.9421 Y-14.0455 F100.00
G01 X6.9507 Y-14.1171 F100.00
G01 X6.9975 Y-14.2359 F100.00
G01 X7.0742 Y-14.3370 F100.00
G01 X7.1753 Y-14.4137 F100.00
G01 X7.2941 Y-14.4605 F100.00
G01 X7.3657 Y-14.4692 F100.00
G01 X8.1216 Y-14.4692 F100.00
G01 X8.1489 Y-14.4732 F100.00
G01 X8.2039 Y-14.4955 F100.00
G01 X8.2321 Y-14.5149 F100.00
G01 X8.9040 Y-15.1868 F100.00
G01 X8.9234 Y-15.2150 F100.00
G01 X8.9478 Y-15.2784 F100.00
G01 X8.9493 Y-17.3025 F100.00
G01 X8.9234 Y-17.3756 F100.00
G01 X8.8969 Y-17.4102 F100.00
G01 X8.8545 Y-17.4371 F100.00
G01 X8.7225 Y-17.4893 F100.00
G01 X8.6214 Y-17.5660 F100.00
G01 X8.5447 Y-17.6671 F100.00
G01 X8.4979 Y-17.7859 F100.00
G01 X8.4893 Y-17.8575 F100.00
G01 X8.4893 Y-18.8833 F100.00
G01 X8.4979 Y-18.9549 F100.00
G01 X8.5447 Y-19.0737 F100.00
G01 X8.6214 Y-19.1748 F100.00
G01 X8.7225 Y-19.2515 F100.00
G01 X8.8645 Y-19.3051 F100.00
G01 X8.9287 Y-19.3425 F100.00
G01 X8.9507 Y-19.3690 F100.00
G01 X8.9707 Y-19.4225 F100.00
G01 X8.9758 Y-19.4531 F100.00
G01 X8.9718 Y-19.4830 F100.00
G01 X8.9467 Y-19.5437 F100.00
G01 X8.9233 Y-19.5724 F100.00
G01 X8.8792 Y-19.5998 F100.00
G01 X8.8432 Y-19.6124 F100.00
G01 X8.6710 Y-19.7001 F100.00
G01 X8.5147 Y-19.8137 F100.00
G01 X8.3781 Y-19.9503 F100.00
G01 X8.2645 Y-20.1066 F100.00
G01 X8.1768 Y-20.2788 F100.00
G01 X8.1593 Y-20.3325 F100.00
G01 X8.1452 Y-20.3598 F100.00
G01 X8.0918 Y-20.4175 F100.00
G01 X8.0680 Y-20.4291 F100.00
G01 X8.0465 Y-20.4334 F100.00
G01 X7.9914 Y-20.4374 F100.00
G01 X7.9571 Y-20.4309 F100.00
G01 X7.9352 Y-20.4187 F100.00
G01 X7.8880 Y-20.3782 F100.00
G01 X7.8731 Y-20.3582 F100.00
G01 X7.8574 Y-20.3180 F100.00
G01 X7.7770 Y-20.1601 F100.00
G01 X7.6728 Y-20.0168 F100.00
G01 X7.5476 Y-19.8916 F100.00
G01 X7.4043 Y-19.7874 F100.00
G01 X7.2464 Y-19.7070 F100.00
G01 X7.1582 Y-19.6783 F100.00
G01 X7.1581 Y-19.6956 F100.00
G01 X7.2433 Y-19.7266 F100.00
G01 X7.3415 Y-19.7736 F100.00
G01 X7.4347 Y-19.8299 F100.00
G01 X7.5148 Y-19.8893 F100.00
G01 X7.6023 Y-19.9686 F100.00
G01 X7.6710 Y-20.0444 F100.00
G01 X7.7345 Y-20.1297 F100.00
G01 X7.7952 Y-20.2310 F100.00
G01 X7.8413 Y-20.3296 F100.00
G01 X7.8764 Y-20.4281 F100.00
G01 X7.9028 Y-20.5334 F100.00
G01 X7.9182 Y-20.6367 F100.00
G01 X7.9241 Y-20.7500 F100.00
G01 X7.9241 Y-21.2580 F100.00
G01 X7.9187 Y-21.3679 F100.00
G01 X7.9028 Y-21.4746 F100.00
G01 X7.8764 Y-21.5799 F100.00
G01 X7.8413 Y-21.6784 F100.00
G01 X7.7952 Y-21.7770 F100.00
G01 X7.7396 Y-21.8707 F100.00
G01 X7.6710 Y-21.9636 F100.00
G01 X7.5991 Y-22.0427 F100.00
G01 X7.5200 Y-22.1146 F100.00
G01 X7.4347 Y-22.1781 F100.00
G01 X7.3415 Y-22.2344 F100.00
G01 X7.2433 Y-22.2814 F100.00
G01 X7.1582 Y-22.3123 F100.00
G01 X7.1582 Y-22.3297 F100.00
G01 X7.2464 Y-22.3010 F100.00
G01 X7.4043 Y-22.2206 F100.00
G01 X7.5476 Y-22.1164 F100.00
G01 X7.6728 Y-21.9912 F100.00
G01 X7.7770 Y-21.8479 F100.00
G01 X7.8773 Y-21.6469 F100.00
G01 X7.9210 Y-21.5972 F100.00
G01 X7.9439 Y-21.5826 F100.00
G01 X7.9640 Y-21.5761 F100.00
G01 X8.0272 Y-21.5706 F100.00
G01 X8.0570 Y-21.5745 F100.00
G01 X8.0845 Y-21.5880 F100.00
G01 X8.1327 Y-21.6291 F100.00
G01 X8.1512 Y-21.6555 F100.00
G01 X8.1768 Y-21.7292 F100.00
G01 X8.2645 Y-21.9014 F100.00
G01 X8.3781 Y-22.0577 F100.00
G01 X8.5147 Y-22.1943 F100.00
G01 X8.6710 Y-22.3079 F100.00
G01 X8.8432 Y-22.3956 F100.00
G01 X9.0269 Y-22.4553 F100.00
G01 X9.2178 Y-22.4855 F100.00
G01 X9.4110 Y-22.4855 F100.00
G01 X9.6019 Y-22.4553 F100.00
G01 X9.7856 Y-22.3956 F100.00
G01 X9.9578 Y-22.3079 F100.00
G01 X10.1141 Y-22.1943 F100.00
G01 X10.2507 Y-22.0577 F100.00
G01 X10.3643 Y-21.9014 F100.00
G01 X10.4520 Y-21.7292 F100.00
G01 X10.5117 Y-21.5454 F100.00
G01 X10.5419 Y-21.3546 F100.00
G01 X10.5419 Y-20.6534 F100.00
G01 X10.5117 Y-20.4625 F100.00
G01 X10.4520 Y-20.2788 F100.00
G01 X10.3643 Y-20.1066 F100.00
G01 X10.2507 Y-19.9503 F100.00
G01 X10.1141 Y-19.8137 F100.00
G01 X9.9578 Y-19.7001 F100.00
G01 X9.7323 Y-19.5892 F100.00
G01 X9.6755 Y-19.5361 F100.00
G01 X9.6634 Y-19.5100 F100.00
G01 X9.6542 Y-19.4712 F100.00
G01 X9.6558 Y-19.4142 F100.00
G01 X9.6900 Y-19.3367 F100.00
G01 X9.7088 Y-19.3180 F100.00
G01 X9.7443 Y-19.2952 F100.00
G01 X9.8541 Y-19.2515 F100.00
G01 X9.9552 Y-19.1748 F100.00
G01 X10.0319 Y-19.0737 F100.00
G01 X10.0787 Y-18.9549 F100.00
G01 X10.0873 Y-18.8833 F100.00
G01 X10.0873 Y-17.8575 F100.00
G01 X10.0787 Y-17.7859 F100.00
G01 X10.0319 Y-17.6671 F100.00
G01 X9.9552 Y-17.5660 F100.00
G01 X9.8541 Y-17.4893 F100.00
G01 X9.7039 Y-17.4265 F100.00
G01 X9.6465 Y-17.3683 F100.00
G01 X9.6360 Y-17.3452 F100.00
G01 X9.6280 Y-17.3080 F100.00
G01 X9.6268 Y-15.0477 F100.00
G01 X9.6038 Y-14.9616 F100.00
G01 X9.5592 Y-14.8844 F100.00
G01 X8.7968 Y-14.1181 F100.00
G01 X8.7705 Y-14.0570 F100.00
G01 X8.7653 Y-14.0304 F100.00
G01 X8.7653 Y-13.6645 F100.00
G01 X8.7700 Y-13.6396 F100.00
G01 X8.7906 Y-13.5892 F100.00
G01 X8.8109 Y-13.5588 F100.00
G01 X10.6777 Y-11.6920 F100.00
G01 X10.7036 Y-11.6737 F100.00
G01 X10.7778 Y-11.6468 F100.00
G01 X10.8196 Y-11.6516 F100.00
G01 X10.8728 Y-11.6737 F100.00
G01 X10.8934 Y-11.6871 F100.00
G01 X10.9170 Y-11.7179 F100.00
G01 X10.9439 Y-11.7921 F100.00
G01 X10.9445 Y-13.1602 F100.00
G01 X10.9602 Y-13.1602 F100.00
G01 X10.9602 Y-11.4720 F100.00
G01 X10.9691 Y-11.4321 F100.00
G01 X10.9978 Y-11.3969 F100.00
G01 X11.0243 Y-11.3831 F100.00
G01 X11.0539 Y-11.3782 F100.00
G01 X13.9749 Y-11.3782 F100.00
G01 X14.0066 Y-11.3838 F100.00
G01 X14.0310 Y-11.3969 F100.00
G01 X14.0500 Y-11.4159 F100.00
G01 X14.0631 Y-11.4403 F100.00
G01 X14.0685 Y-11.4672 F100.00
G01 X14.0687 Y-13.1602 F100.00
G01 X14.0844 Y-13.1602 F100.00
G01 X14.0849 Y-11.8350 F100.00
G01 X14.1118 Y-11.7608 F100.00
G01 X14.1354 Y-11.7300 F100.00
G01 X14.1560 Y-11.7166 F100.00
G01 X14.2093 Y-11.6945 F100.00
G01 X14.2510 Y-11.6897 F100.00
G01 X14.3207 Y-11.7145 F100.00
G01 X14.3475 Y-11.7314 F100.00
G01 X15.2303 Y-12.6141 F100.00
G01 X15.3075 Y-12.6587 F100.00
G01 X15.3936 Y-12.6817 F100.00
G01 X16.6512 Y-12.6819 F100.00
G01 X16.6760 Y-12.6866 F100.00
G01 X16.7265 Y-12.7072 F100.00
G01 X16.7535 Y-12.7243 F100.00
G01 X16.7744 Y-12.7519 F100.00
G01 X16.8008 Y-12.8196 F100.00
G01 X16.8027 Y-12.9475 F100.00
G01 X16.8103 Y-13.0002 F100.00
G01 X16.8298 Y-13.0466 F100.00
G01 X16.8347 Y-13.1115 F100.00
G01 X16.8299 Y-13.1431 F100.00
G01 X16.8103 Y-13.1862 F100.00
G01 X16.8027 Y-13.2389 F100.00
G01 X16.8027 Y-13.4475 F100.00
G01 X16.8103 Y-13.5002 F100.00
G01 X16.8298 Y-13.5466 F100.00
G01 X16.8347 Y-13.6135 F100.00
G01 X16.8299 Y-13.6431 F100.00
G01 X16.8103 Y-13.6862 F100.00
G01 X16.8027 Y-13.7389 F100.00
G01 X16.8027 Y-13.9475 F100.00
G01 X16.8103 Y-14.0002 F100.00
G01 X16.8528 Y-14.0870 F100.00
G01 X16.8839 Y-14.1224 F100.00
G01 X17.0044 Y-14.1224 F100.00
G01 X17.0446 Y-14.1055 F100.00
G01 X17.0892 Y-14.0995 F100.00
G01 X18.4142 Y-14.0995 F100.00
G01 X18.4588 Y-14.1055 F100.00
G01 X18.4990 Y-14.1224 F100.00
G01 X18.6195 Y-14.1224 F100.00
G01 X18.6506 Y-14.0870 F100.00
G01 X18.6931 Y-14.0002 F100.00
G01 X18.7007 Y-13.9475 F100.00
G01 X18.7007 Y-13.7389 F100.00
G01 X18.6931 Y-13.6862 F100.00
G01 X18.6736 Y-13.6400 F100.00
G01 X18.6687 Y-13.5729 F100.00
G01 X18.6735 Y-13.5433 F100.00
G01 X18.6931 Y-13.5002 F100.00
G01 X18.7007 Y-13.4475 F100.00
G01 X18.7007 Y-13.2389 F100.00
G01 X18.6931 Y-13.1862 F100.00
G01 X18.6736 Y-13.1400 F100.00
G01 X18.6687 Y-13.0729 F100.00
G01 X18.6735 Y-13.0433 F100.00
G01 X18.6931 Y-13.0002 F100.00
G01 X18.7007 Y-12.9475 F100.00
G01 X18.7007 Y-12.7389 F100.00
G01 X18.6931 Y-12.6862 F100.00
G01 X18.6736 Y-12.6400 F100.00
G01 X18.6687 Y-12.5729 F100.00
G01 X18.6735 Y-12.5433 F100.00
G01 X18.6931 Y-12.5002 F100.00
G01 X18.7007 Y-12.4475 F100.00
G01 X18.7007 Y-12.2389 F100.00
G01 X18.6931 Y-12.1862 F100.00
G01 X18.6736 Y-12.1400 F100.00
G01 X18.6687 Y-12.0729 F100.00
G01 X18.6735 Y-12.0433 F100.00
G01 X18.6931 Y-12.0002 F100.00
G01 X18.7007 Y-11.9475 F100.00
G01 X18.7007 Y-11.7389 F100.00
G01 X18.6931 Y-11.6862 F100.00
G01 X18.6736 Y-11.6400 F100.00
G01 X18.6687 Y-11.5729 F100.00
G01 X18.6735 Y-11.5433 F100.00
G01 X18.6931 Y-11.5002 F100.00
G01 X18.7007 Y-11.4475 F100.00
G01 X18.7007 Y-11.2389 F100.00
G01 X18.6931 Y-11.1862 F100.00
G01 X18.6736 Y-11.1400 F100.00
G01 X18.6689 Y-11.0657 F100.00
G01 X18.6742 Y-11.0411 F100.00
G01 X18.6931 Y-11.0002 F100.00
G01 X18.7007 Y-10.9475 F100.00
G01 X18.7007 Y-10.7389 F100.00
G01 X18.6931 Y-10.6862 F100.00
G01 X18.6506 Y-10.5994 F100.00
G01 X18.5830 Y-10.5318 F100.00
G01 X18.4962 Y-10.4893 F100.00
G01 X18.4435 Y-10.4817 F100.00
G01 X17.0509 Y-10.4818 F100.00
G01 X16.9810 Y-10.4656 F100.00
G01 X16.9576 Y-10.4548 F100.00
G01 X14.4643 Y-7.9655 F100.00
G01 X14.4460 Y-7.9396 F100.00
G01 X14.4204 Y-7.8734 F100.00
G01 X14.4187 Y-7.2197 F100.00
G01 X14.4234 Y-7.1948 F100.00
G01 X14.4460 Y-7.1399 F100.00
G01 X14.4677 Y-7.1108 F100.00
G01 X14.4887 Y-7.0964 F100.00
G01 X14.5434 Y-7.0736 F100.00
G01 X14.5882 Y-7.0692 F100.00
G01 X14.6443 Y-7.0855 F100.00
G01 X14.6942 Y-7.1164 F100.00
G01 X14.8136 Y-7.1658 F100.00
G01 X14.9404 Y-7.1910 F100.00
G01 X15.0804 Y-7.1920 F100.00
G01 X15.1516 Y-7.2185 F100.00
G01 X15.1775 Y-7.2368 F100.00
G01 X15.4757 Y-7.5350 F100.00
G01 X15.4932 Y-7.5593 F100.00
G01 X15.5161 Y-7.6141 F100.00
G01 X15.5213 Y-7.6407 F100.00
G01 X15.5215 Y-7.9649 F100.00
G01 X15.5301 Y-8.0365 F100.00
G01 X15.5769 Y-8.1553 F100.00
G01 X15.6536 Y-8.2564 F100.00
G01 X15.7547 Y-8.3331 F100.00
G01 X15.8735 Y-8.3799 F100.00
G01 X15.9451 Y-8.3885 F100.00
G01 X16.7080 Y-8.3881 F100.00
G01 X16.7968 Y-8.4128 F100.00
G01 X16.8231 Y-8.4334 F100.00
G01 X18.0913 Y-9.7016 F100.00
G01 X18.1685 Y-9.7462 F100.00
G01 X18.2546 Y-9.7692 F100.00
G01 X18.6568 Y-9.7698 F100.00
G01 X18.7265 Y-9.7947 F100.00
G01 X18.7535 Y-9.8118 F100.00
G01 X18.7752 Y-9.8409 F100.00
G01 X18.8017 Y-9.9121 F100.00
G01 X18.8027 Y-10.1225 F100.00
G01 X18.8103 Y-10.1752 F100.00
G01 X18.8528 Y-10.2620 F100.00
G01 X18.9204 Y-10.3296 F100.00
G01 X19.0072 Y-10.3721 F100.00
G01 X19.0599 Y-10.3797 F100.00
G01 X19.2685 Y-10.3797 F100.00
G01 X19.3212 Y-10.3721 F100.00
G01 X19.4080 Y-10.3296 F100.00
G01 X19.4527 Y-10.2885 F100.00
G01 X19.4445 Y-10.2471 F100.00
G01 X19.4434 Y-10.1780 F100.00
G01 X19.4265 Y-10.1378 F100.00
G01 X19.4205 Y-10.0932 F100.00
G01 X19.4205 Y-8.7682 F100.00
G01 X19.4265 Y-8.7236 F100.00
G01 X19.4434 Y-8.6834 F100.00
G01 X19.4434 Y-8.5629 F100.00
G01 X19.4080 Y-8.5318 F100.00
G01 X19.3212 Y-8.4893 F100.00
G01 X19.2685 Y-8.4817 F100.00
G01 X19.0482 Y-8.4807 F100.00
G01 X18.9755 Y-8.4534 F100.00
G01 X18.9434 Y-8.4270 F100.00
G01 X18.9419 Y-8.4657 F100.00
G01 X18.9165 Y-8.5288 F100.00
G01 X18.9024 Y-8.5496 F100.00
G01 X18.8528 Y-8.5994 F100.00
G01 X18.8103 Y-8.6862 F100.00
G01 X18.8027 Y-8.7389 F100.00
G01 X18.8021 Y-8.9463 F100.00
G01 X18.7959 Y-8.9707 F100.00
G01 X18.7658 Y-9.0360 F100.00
G01 X18.7325 Y-9.0639 F100.00
G01 X18.6648 Y-9.0903 F100.00
G01 X18.5042 Y-9.0922 F100.00
G01 X18.4745 Y-9.0873 F100.00
G01 X18.4196 Y-9.0647 F100.00
G01 X18.3973 Y-9.0498 F100.00
G01 X17.8864 Y-8.5351 F100.00
G01 X17.8595 Y-8.4723 F100.00
G01 X17.8547 Y-8.4427 F100.00
G01 X17.8595 Y-8.4131 F100.00
G01 X17.8864 Y-8.3503 F100.00
G01 X17.9039 Y-8.3290 F100.00
G01 X17.9264 Y-8.3139 F100.00
G01 X17.9926 Y-8.2883 F100.00
G01 X18.0517 Y-8.2864 F100.00
G01 X18.0517 Y-8.2706 F100.00
G01 X17.9626 Y-8.2572 F100.00
G01 X17.8982 Y-8.2313 F100.00
G01 X17.8364 Y-8.1897 F100.00
G01 X17.7748 Y-8.1217 F100.00
G01 X17.7423 Y-8.0628 F100.00
G01 X17.7213 Y-7.9961 F100.00
G01 X17.7144 Y-7.9316 F100.00
G01 X17.7143 Y-7.7958 F100.00
G01 X17.6986 Y-7.7958 F100.00
G01 X17.6980 Y-7.9844 F100.00
G01 X17.6703 Y-8.0602 F100.00
G01 X17.6528 Y-8.0845 F100.00
G01 X17.6284 Y-8.1021 F100.00
G01 X17.5719 Y-8.1255 F100.00
G01 X17.5423 Y-8.1303 F100.00
G01 X17.5075 Y-8.1236 F100.00
G01 X17.4577 Y-8.1028 F100.00
G01 X17.4371 Y-8.0894 F100.00
G01 X17.1653 Y-7.8180 F100.00
G01 X17.1450 Y-7.7876 F100.00
G01 X17.1244 Y-7.7372 F100.00
G01 X17.1197 Y-7.7123 F100.00
G01 X17.1195 Y-6.9391 F100.00
G01 X17.1109 Y-6.8675 F100.00
G01 X17.0641 Y-6.7487 F100.00
G01 X16.9874 Y-6.6476 F100.00
G01 X16.8916 Y-6.5714 F100.00
G01 X16.8566 Y-6.5132 F100.00
G01 X16.8470 Y-6.4789 F100.00
G01 X16.8488 Y-6.4513 F100.00
G01 X16.8619 Y-6.4013 F100.00
G01 X16.8768 Y-6.3698 F100.00
G01 X16.9046 Y-6.3410 F100.00
G01 X17.0066 Y-6.2634 F100.00
G01 X17.0833 Y-6.1623 F100.00
G01 X17.1301 Y-6.0435 F100.00
G01 X17.1387 Y-5.9719 F100.00
G01 X17.1387 Y-4.9461 F100.00
G01 X17.1301 Y-4.8745 F100.00
G01 X17.0833 Y-4.7557 F100.00
G01 X17.0066 Y-4.6546 F100.00
G01 X16.9055 Y-4.5779 F100.00
G01 X16.7867 Y-4.5311 F100.00
G01 X16.7151 Y-4.5225 F100.00
G01 X15.9643 Y-4.5225 F100.00
G01 X15.8926 Y-4.5311 F100.00
G01 X15.7739 Y-4.5779 F100.00
G01 X15.6728 Y-4.6546 F100.00
G01 X15.5961 Y-4.7557 F100.00
G01 X15.5493 Y-4.8745 F100.00
G01 X15.5407 Y-4.9461 F100.00
G01 X15.5401 Y-5.2759 F100.00
G01 X15.5090 Y-5.3580 F100.00
G01 X15.0376 Y-5.8333 F100.00
G01 X15.0165 Y-5.8491 F100.00
G01 X14.9662 Y-5.8728 F100.00
G01 X14.8136 Y-5.9042 F100.00
G01 X14.6942 Y-5.9536 F100.00
G01 X14.6443 Y-5.9845 F100.00
G01 X14.5760 Y-5.9996 F100.00
G01 X14.5442 Y-5.9987 F100.00
G01 X14.5144 Y-5.9872 F100.00
G01 X14.4600 Y-5.9498 F100.00
G01 X14.4346 Y-5.9119 F100.00
G01 X14.4185 Y-5.8455 F100.00
G01 X14.4185 Y-4.4400 F100.00
G01 X14.4239 Y-4.4086 F100.00
G01 X14.4554 Y-4.3398 F100.00
G01 X15.1015 Y-3.6923 F100.00
G01 X15.1274 Y-3.6740 F100.00
G01 X15.1823 Y-3.6514 F100.00
G01 X15.2072 Y-3.6467 F100.00
G01 X16.1112 Y-3.6458 F100.00
G01 X16.1866 Y-3.6126 F100.00
G01 X16.2426 Y-3.5566 F100.00
G01 X16.2758 Y-3.4812 F100.00
G01 X16.2765 Y-1.6948 F100.00
G01 X16.2426 Y-1.6134 F100.00
G01 X16.1866 Y-1.5574 F100.00
G01 X16.1052 Y-1.5235 F100.00
G01 X14.3248 Y-1.5235 F100.00
G01 X14.2434 Y-1.5575 F100.00
G01 X14.1875 Y-1.6134 F100.00
G01 X14.1542 Y-1.6888 F100.00
G01 X14.1535 Y-3.4752 F100.00
G01 X14.1790 Y-3.5442 F100.00
G01 X14.1807 Y-3.6204 F100.00
G01 X14.1716 Y-3.6502 F100.00
G01 X14.1432 Y-3.6928 F100.00
G01 X13.8091 Y-4.0271 F100.00
G01 X13.7645 Y-4.1043 F100.00
G01 X13.7415 Y-4.1904 F100.00
G01 X13.7415 Y-8.1046 F100.00
G01 X13.7645 Y-8.1907 F100.00
G01 X13.8091 Y-8.2678 F100.00
G01 X14.1880 Y-8.6508 F100.00
G01 X14.2149 Y-8.7136 F100.00
G01 X14.2191 Y-8.7536 F100.00
G01 X14.1915 Y-8.8293 F100.00
G01 X14.1636 Y-8.8626 F100.00
G01 X14.0948 Y-8.8941 F100.00
G01 X14.0634 Y-8.8995 F100.00
G01 X8.7874 Y-8.8995 F100.00
G01 X8.7526 Y-8.8927 F100.00
G01 X8.7028 Y-8.8720 F100.00
G01 X8.6822 Y-8.8586 F100.00
G01 X8.6628 Y-8.8356 F100.00
G01 X8.6361 Y-8.7760 F100.00
G01 X8.6225 Y-8.6785 F100.00
G01 X8.5757 Y-8.5597 F100.00
G01 X8.4990 Y-8.4586 F100.00
G01 X8.3979 Y-8.3819 F100.00
G01 X8.2533 Y-8.3219 F100.00
G01 X8.1994 Y-8.2700 F100.00
G01 X8.1819 Y-8.2327 F100.00
G01 X8.1811 Y-8.1438 F100.00
G01 X8.1887 Y-8.1226 F100.00
G01 X8.2106 Y-8.0883 F100.00
G01 X8.4714 Y-7.8258 F100.00
G01 X8.4958 Y-7.8082 F100.00
G01 X8.5503 Y-7.7855 F100.00
G01 X8.5782 Y-7.7801 F100.00
G01 X8.6022 Y-7.7822 F100.00
G01 X8.6574 Y-7.8004 F100.00
G01 X8.8432 Y-7.8956 F100.00
G01 X9.0269 Y-7.9553 F100.00
G01 X9.2178 Y-7.9855 F100.00
G01 X9.4110 Y-7.9855 F100.00
G01 X9.6019 Y-7.9553 F100.00
G01 X9.7856 Y-7.8956 F100.00
G01 X9.9578 Y-7.8079 F100.00
G01 X10.1141 Y-7.6943 F100.00
G01 X10.2507 Y-7.5577 F100.00
G01 X10.3643 Y-7.4014 F100.00
G01 X10.4520 Y-7.2292 F100.00
G01 X10.5117 Y-7.0455 F100.00
G01 X10.5419 Y-6.8546 F100.00
G01 X10.5419 Y-6.1534 F100.00
G01 X10.5117 Y-5.9625 F100.00
G01 X10.4520 Y-5.7788 F100.00
G01 X10.3643 Y-5.6066 F100.00
G01 X10.2507 Y-5.4503 F100.00
G01 X10.1141 Y-5.3137 F100.00
G01 X9.9578 Y-5.2001 F100.00
G01 X9.7856 Y-5.1124 F100.00
G01 X9.6018 Y-5.0527 F100.00
G01 X9.4110 Y-5.0225 F100.00
G01 X9.2178 Y-5.0225 F100.00
G01 X9.0270 Y-5.0527 F100.00
G01 X8.8432 Y-5.1124 F100.00
G01 X8.6710 Y-5.2001 F100.00
G01 X8.5147 Y-5.3137 F100.00
G01 X8.3781 Y-5.4503 F100.00
G01 X8.2645 Y-5.6066 F100.00
G01 X8.1768 Y-5.7788 F100.00
G01 X8.1171 Y-5.9625 F100.00
G01 X8.0869 Y-6.1534 F100.00
G01 X8.0869 Y-6.8546 F100.00
G01 X8.1171 Y-7.0454 F100.00
G01 X8.1349 Y-7.1067 F100.00
G01 X8.1310 Y-7.1762 F100.00
G01 X8.1247 Y-7.2004 F100.00
G01 X8.0928 Y-7.2468 F100.00
G01 X7.5487 Y-7.7909 F100.00
G01 X7.5041 Y-7.8681 F100.00
G01 X7.4811 Y-7.9540 F100.00
G01 X7.4805 Y-8.1924 F100.00
G01 X7.4496 Y-8.2740 F100.00
G01 X7.4268 Y-8.3000 F100.00
G01 X7.3822 Y-8.3264 F100.00
G01 X7.2413 Y-8.3819 F100.00
G01 X7.1402 Y-8.4586 F100.00
G01 X7.0635 Y-8.5597 F100.00
G01 X7.0167 Y-8.6785 F100.00
G01 X7.0081 Y-8.7501 F100.00
G01 X7.0081 Y-9.7259 F100.00
G01 X7.0167 Y-9.7975 F100.00
G01 X7.0635 Y-9.9163 F100.00
G01 X7.1402 Y-10.0174 F100.00
G01 X7.2413 Y-10.0941 F100.00
G01 X7.3601 Y-10.1409 F100.00
G01 X7.4317 Y-10.1495 F100.00
G01 X8.2075 Y-10.1495 F100.00
G01 X8.2791 Y-10.1409 F100.00
G01 X8.3979 Y-10.0941 F100.00
G01 X8.4990 Y-10.0174 F100.00
G01 X8.5757 Y-9.9163 F100.00
G01 X8.6225 Y-9.7975 F100.00
G01 X8.6355 Y-9.7018 F100.00
G01 X8.6680 Y-9.6327 F100.00
G01 X8.7013 Y-9.6048 F100.00
G01 X8.7770 Y-9.5771 F100.00
G01 X13.8828 Y-9.5767 F100.00
G01 X13.9139 Y-9.5837 F100.00
G01 X13.9642 Y-9.6048 F100.00
G01 X13.9849 Y-9.6189 F100.00
G01 X14.4799 Y-10.1151 F100.00
G01 X14.5119 Y-10.1856 F100.00
G01 X14.5161 Y-10.2256 F100.00
G01 X14.4850 Y-10.3076 F100.00
G01 X14.4529 Y-10.3398 F100.00
G01 X14.3901 Y-10.3666 F100.00
G01 X14.3604 Y-10.3714 F100.00
G01 X10.3104 Y-10.3714 F100.00
G01 X10.2243 Y-10.3945 F100.00
G01 X10.1471 Y-10.4391 F100.00
G01 X9.6091 Y-10.9771 F100.00
G01 X9.5645 Y-11.0543 F100.00
G01 X9.5525 Y-11.0907 F100.00
G01 X9.5220 Y-11.1391 F100.00
G01 X9.0319 Y-11.6293 F100.00
G01 X9.0075 Y-11.6469 F100.00
G01 X8.9528 Y-11.6697 F100.00
G01 X8.9110 Y-11.6745 F100.00
G01 X8.8413 Y-11.6497 F100.00
G01 X8.8143 Y-11.6326 F100.00
G01 X8.7934 Y-11.6050 F100.00
G01 X8.7700 Y-11.5485 F100.00
G01 X8.7651 Y-11.5188 F100.00
G01 X8.7651 Y-11.2697 F100.00
G01 X8.7565 Y-11.1981 F100.00
G01 X8.7097 Y-11.0793 F100.00
G01 X8.6330 Y-10.9782 F100.00
G01 X8.5319 Y-10.9015 F100.00
G01 X8.4131 Y-10.8547 F100.00
G01 X8.3415 Y-10.8461 F100.00
G01 X7.3657 Y-10.8461 F100.00
G01 X7.2940 Y-10.8547 F100.00
G01 X7.1753 Y-10.9015 F100.00
G01 X7.0742 Y-10.9782 F100.00
G01 X6.9975 Y-11.0793 F100.00
G01 X6.9421 Y-11.2200 F100.00
G01 X6.9048 Y-11.2725 F100.00
G01 X6.8872 Y-11.2905 F100.00
G01 X6.8671 Y-11.3024 F100.00
G01 X6.8102 Y-11.3182 F100.00
G01 X5.3995 Y-11.3191 F100.00
G01 X5.3698 Y-11.3142 F100.00
G01 X5.3154 Y-11.2918 F100.00
G01 X5.2815 Y-11.2648 F100.00
G01 X5.2550 Y-11.2207 F100.00
G01 X5.2005 Y-11.0829 F100.00
G01 X5.1238 Y-10.9818 F100.00
G01 X5.0227 Y-10.9051 F100.00
G01 X4.9435 Y-10.8709 F100.00
G01 X4.8886 Y-10.8176 F100.00
G01 X4.8711 Y-10.7766 F100.00
G01 X4.8694 Y-10.7050 F100.00
G01 X4.8773 Y-10.6750 F100.00
G01 X4.9008 Y-10.6373 F100.00
G01 X5.3411 Y-10.1953 F100.00
G01 X5.3654 Y-10.1778 F100.00
G01 X5.4202 Y-10.1549 F100.00
G01 X5.4468 Y-10.1497 F100.00
G01 X6.2075 Y-10.1495 F100.00
G01 X6.2791 Y-10.1409 F100.00
G01 X6.3979 Y-10.0941 F100.00
G01 X6.4990 Y-10.0174 F100.00
G01 X6.5757 Y-9.9163 F100.00
G01 X6.6225 Y-9.7975 F100.00
G01 X6.6311 Y-9.7259 F100.00
G01 X6.6311 Y-8.7501 F100.00
G01 X6.6225 Y-8.6785 F100.00
G01 X6.5757 Y-8.5597 F100.00
G01 X6.4990 Y-8.4586 F100.00
G01 X6.3979 Y-8.3819 F100.00
G01 X6.2791 Y-8.3351 F100.00
G01 X6.2075 Y-8.3265 F100.00
G01 X5.4317 Y-8.3265 F100.00
G01 X5.3600 Y-8.3351 F100.00
G01 X5.2413 Y-8.3819 F100.00
G01 X5.1402 Y-8.4586 F100.00
G01 X5.0635 Y-8.5597 F100.00
G01 X5.0167 Y-8.6785 F100.00
G01 X5.0081 Y-8.7501 F100.00
G01 X5.0079 Y-9.5108 F100.00
G01 X5.0032 Y-9.5357 F100.00
G01 X4.9826 Y-9.5861 F100.00
G01 X4.9623 Y-9.6165 F100.00
G01 X4.5242 Y-10.0545 F100.00
G01 X4.5019 Y-10.0693 F100.00
G01 X4.4403 Y-10.0939 F100.00
G01 X4.3943 Y-10.0939 F100.00
G01 X4.3172 Y-10.0600 F100.00
G01 X4.2927 Y-10.0330 F100.00
G01 X4.2659 Y-9.9702 F100.00
G01 X4.2610 Y-9.9405 F100.00
G01 X4.2610 Y-9.4954 F100.00
G01 X4.2358 Y-9.3686 F100.00
G01 X4.1864 Y-9.2492 F100.00
G01 X4.1146 Y-9.1418 F100.00
G01 X4.0232 Y-9.0504 F100.00
G01 X3.9158 Y-8.9786 F100.00
G01 X3.7964 Y-8.9292 F100.00
G01 X3.6696 Y-8.9040 F100.00
G01 X3.5404 Y-8.9040 F100.00
G01 X3.4136 Y-8.9292 F100.00
G01 X3.2942 Y-8.9786 F100.00
G01 X3.1868 Y-9.0504 F100.00
G01 X3.0954 Y-9.1418 F100.00
G01 X3.0236 Y-9.2492 F100.00
G01 X2.9742 Y-9.3686 F100.00
G01 X2.9490 Y-9.4954 F100.00
G01 X2.9490 Y-10.9864 F100.00
G01 X2.9742 Y-11.1132 F100.00
G01 X3.0236 Y-11.2325 F100.00
G01 X3.0954 Y-11.3400 F100.00
G01 X3.3871 Y-11.6317 F100.00
G01 X3.4074 Y-11.6621 F100.00
G01 X3.4280 Y-11.7125 F100.00
G01 X3.4327 Y-11.7374 F100.00
G01 X3.4329 Y-12.0491 F100.00
G01 X3.4415 Y-12.1207 F100.00
G01 X3.4883 Y-12.2395 F100.00
G01 X3.5650 Y-12.3406 F100.00
G01 X3.6661 Y-12.4173 F100.00
G01 X3.7849 Y-12.4641 F100.00
G01 X3.8565 Y-12.4727 F100.00
G01 X4.6902 Y-12.4737 F100.00
G01 X4.7614 Y-12.5002 F100.00
G01 X4.7906 Y-12.5219 F100.00
G01 X4.8077 Y-12.5489 F100.00
G01 X4.8283 Y-12.5994 F100.00
G01 X4.8330 Y-12.6242 F100.00
G01 X4.8264 Y-12.6638 F100.00
G01 X4.8049 Y-12.7151 F100.00
G01 X4.7908 Y-12.7359 F100.00
G01 X4.7126 Y-12.8128 F100.00
G01 X4.6354 Y-12.8468 F100.00
G01 X3.8565 Y-12.8497 F100.00
G01 X3.7848 Y-12.8583 F100.00
G01 X3.6661 Y-12.9051 F100.00
G01 X3.5650 Y-12.9818 F100.00
G01 X3.4883 Y-13.0829 F100.00
G01 X3.4415 Y-13.2017 F100.00
G01 X3.4329 Y-13.2733 F100.00
G01 X3.4329 Y-14.0491 F100.00
G01 X3.4415 Y-14.1207 F100.00
G01 X3.4883 Y-14.2395 F100.00
G01 X3.5650 Y-14.3406 F100.00
G01 X3.6661 Y-14.4173 F100.00
G01 X3.8039 Y-14.4718 F100.00
G01 X3.8585 Y-14.5117 F100.00
G01 X3.8847 Y-14.5462 F100.00
G01 X3.9016 Y-14.6161 F100.00
G01 X3.9010 Y-17.3151 F100.00
G01 X3.8733 Y-17.3908 F100.00
G01 X3.8457 Y-17.4239 F100.00
G01 X3.8069 Y-17.4483 F100.00
G01 X3.6743 Y-17.5007 F100.00
G01 X3.5732 Y-17.5774 F100.00
G01 X3.4965 Y-17.6785 F100.00
G01 X3.4497 Y-17.7973 F100.00
G01 X3.4411 Y-17.8689 F100.00
G01 X3.4411 Y-18.8947 F100.00
G01 X3.4497 Y-18.9663 F100.00
G01 X3.4965 Y-19.0851 F100.00
G01 X3.5732 Y-19.1862 F100.00
G01 X3.6743 Y-19.2629 F100.00
G01 X3.7931 Y-19.3097 F100.00
G01 X3.8280 Y-19.3168 F100.00
G01 X3.8932 Y-19.3534 F100.00
G01 X3.9217 Y-19.3897 F100.00
G01 X3.9404 Y-19.4530 F100.00
G01 X3.9425 Y-19.4805 F100.00
G01 X3.9328 Y-19.5158 F100.00
G01 X3.9035 Y-19.5675 F100.00
G01 X3.8865 Y-19.5867 F100.00
G01 X3.6710 Y-19.7001 F100.00
G01 X3.5147 Y-19.8137 F100.00
G01 X3.3781 Y-19.9503 F100.00
G01 X3.2645 Y-20.1066 F100.00
G01 X3.1768 Y-20.2788 F100.00
G01 X3.1171 Y-20.4625 F100.00
G01 X3.0869 Y-20.6534 F100.00
G01 X3.0869 Y-21.3546 F100.00
G01 X3.1171 Y-21.5454 F100.00
G01 X3.1768 Y-21.7292 F100.00
G01 X3.2645 Y-21.9014 F100.00
G01 X3.3781 Y-22.0577 F100.00
G01 X3.5147 Y-22.1943 F100.00
G01 X3.6710 Y-22.3079 F100.00
G01 X3.8432 Y-22.3956 F100.00
G00 Z2.0000
G00 X6.4687 Y-24.3613
G01 F60.00
G01 Z-0.0700
G01 F100.00
G01 X6.5173 Y-24.3083 F100.00
G01 X6.5638 Y-24.2662 F100.00
G01 X6.6187 Y-24.2251 F100.00
G01 X6.6788 Y-24.1886 F100.00
G01 X6.7441 Y-24.1572 F100.00
G01 X6.8100 Y-24.1334 F100.00
G01 X6.8851 Y-24.1147 F100.00
G01 X6.9500 Y-24.1052 F100.00
G01 X7.0157 Y-24.1019 F100.00
G01 X7.0906 Y-24.1052 F100.00
G01 X7.1620 Y-24.1159 F100.00
G01 X7.2237 Y-24.1314 F100.00
G01 X7.2965 Y-24.1572 F100.00
G01 X7.3618 Y-24.1886 F100.00
G01 X7.4709 Y-24.2615 F100.00
G01 X7.5298 Y-24.3148 F100.00
G01 X7.5719 Y-24.3613 F100.00
G01 X7.6130 Y-24.4162 F100.00
G01 X7.6539 Y-24.4844 F100.00
G01 X7.7010 Y-24.5970 F100.00
G01 X9.0507 Y-24.5970 F100.00
G01 X9.3563 Y-24.2915 F100.00
G01 X9.3563 Y-23.6850 F100.00
G01 X9.3616 Y-23.6273 F100.00
G01 X9.3789 Y-23.5673 F100.00
G01 X9.4084 Y-23.5103 F100.00
G01 X9.4496 Y-23.4596 F100.00
G01 X9.4941 Y-23.4226 F100.00
G01 X9.5270 Y-23.4027 F100.00
G01 X9.5781 Y-23.3814 F100.00
G01 X9.6483 Y-23.3674 F100.00
G01 X10.1250 Y-23.3663 F100.00
G01 X10.1873 Y-23.3724 F100.00
G01 X10.2219 Y-23.3814 F100.00
G01 X10.2730 Y-23.4027 F100.00
G01 X10.3059 Y-23.4226 F100.00
G01 X10.3504 Y-23.4596 F100.00
G01 X10.3874 Y-23.5041 F100.00
G01 X10.4073 Y-23.5370 F100.00
G01 X10.4286 Y-23.5881 F100.00
G01 X10.4376 Y-23.6227 F100.00
G01 X10.4437 Y-23.6850 F100.00
G01 X10.4417 Y-24.4708 F100.00
G01 X10.4211 Y-24.5527 F100.00
G01 X10.3916 Y-24.6097 F100.00
G01 X10.3471 Y-24.6636 F100.00
G01 X10.2793 Y-24.7138 F100.00
G01 X10.2131 Y-24.7413 F100.00
G01 X10.1250 Y-24.7537 F100.00
G01 X9.6704 Y-24.7536 F100.00
G01 X9.6127 Y-24.7476 F100.00
G01 X9.5460 Y-24.7263 F100.00
G01 X9.2838 Y-24.9872 F100.00
G01 X9.2309 Y-25.0199 F100.00
G01 X9.1684 Y-25.0370 F100.00
G01 X7.7010 Y-25.0386 F100.00
G01 X7.6539 Y-25.1512 F100.00
G01 X7.6130 Y-25.2194 F100.00
G01 X7.5708 Y-25.2755 F100.00
G01 X7.5266 Y-25.3241 F100.00
G01 X7.4780 Y-25.3683 F100.00
G01 X7.4219 Y-25.4105 F100.00
G01 X7.3537 Y-25.4514 F100.00
G01 X7.2965 Y-25.4784 F100.00
G01 X7.2325 Y-25.5016 F100.00
G01 X7.1620 Y-25.5197 F100.00
G01 X7.0859 Y-25.5307 F100.00
G01 X7.0203 Y-25.5338 F100.00
G01 X6.9500 Y-25.5304 F100.00
G01 X6.8786 Y-25.5197 F100.00
G01 X6.8169 Y-25.5042 F100.00
G01 X6.7421 Y-25.4775 F100.00
G01 X6.6264 Y-25.4156 F100.00
G01 X6.5626 Y-25.3683 F100.00
G01 X6.5140 Y-25.3241 F100.00
G01 X6.4687 Y-25.2743 F100.00
G01 X6.4276 Y-25.2194 F100.00
G01 X6.3911 Y-25.1593 F100.00
G01 X6.3571 Y-25.0875 F100.00
G01 X6.3359 Y-25.0281 F100.00
G01 X6.3184 Y-24.9595 F100.00
G01 X6.3074 Y-24.8834 F100.00
G01 X6.3043 Y-24.8178 F100.00
G01 X6.3077 Y-24.7475 F100.00
G01 X6.3184 Y-24.6761 F100.00
G01 X6.3339 Y-24.6144 F100.00
G01 X6.3597 Y-24.5416 F100.00
G01 X6.3867 Y-24.4844 F100.00
G01 X6.4225 Y-24.4239 F100.00
G01 X6.4687 Y-24.3613 F100.00
G00 Z2.0000
G00 X6.3420 Y-25.3106
G01 F60.00
G01 Z-0.0700
G01 F100.00
G01 X6.4593 Y-25.4409 F100.00
G01 X6.6011 Y-25.5439 F100.00
G01 X6.8089 Y-25.6338 F100.00
G01 X6.8851 Y-25.6147 F100.00
G01 X6.9500 Y-25.6052 F100.00
G01 X7.0203 Y-25.6018 F100.00
G01 X7.0906 Y-25.6052 F100.00
G01 X7.1555 Y-25.6147 F100.00
G01 X7.2317 Y-25.6338 F100.00
G01 X7.4395 Y-25.5439 F100.00
G01 X7.5813 Y-25.4409 F100.00
G01 X7.6986 Y-25.3106 F100.00
G01 X7.7561 Y-25.2165 F100.00
G01 X7.8085 Y-25.1751 F100.00
G01 X7.8358 Y-25.1621 F100.00
G01 X7.8779 Y-25.1563 F100.00
G01 X9.1868 Y-25.1563 F100.00
G01 X9.2729 Y-25.1333 F100.00
G01 X9.3501 Y-25.0887 F100.00
G01 X9.5267 Y-24.9124 F100.00
G01 X9.5474 Y-24.8990 F100.00
G01 X9.6090 Y-24.8744 F100.00
G01 X10.1609 Y-24.8715 F100.00
G01 X10.2286 Y-24.8634 F100.00
G01 X10.3410 Y-24.8191 F100.00
G01 X10.4366 Y-24.7466 F100.00
G01 X10.5091 Y-24.6510 F100.00
G01 X10.5534 Y-24.5386 F100.00
G01 X10.5615 Y-24.4709 F100.00
G01 X10.5615 Y-23.6491 F100.00
G01 X10.5534 Y-23.5814 F100.00
G01 X10.5091 Y-23.4690 F100.00
G01 X10.4366 Y-23.3734 F100.00
G01 X10.3410 Y-23.3009 F100.00
G01 X10.2286 Y-23.2566 F100.00
G01 X10.1609 Y-23.2485 F100.00
G01 X9.6391 Y-23.2485 F100.00
G01 X9.5714 Y-23.2566 F100.00
G01 X9.4590 Y-23.3009 F100.00
G01 X9.3634 Y-23.3734 F100.00
G01 X9.2909 Y-23.4690 F100.00
G01 X9.2466 Y-23.5814 F100.00
G01 X9.2385 Y-23.6491 F100.00
G01 X9.2383 Y-24.1828 F100.00
G01 X9.2336 Y-24.2077 F100.00
G01 X9.2130 Y-24.2581 F100.00
G01 X9.1961 Y-24.2849 F100.00
G01 X9.0425 Y-24.4384 F100.00
G01 X9.0173 Y-24.4538 F100.00
G01 X8.9506 Y-24.4783 F100.00
G01 X7.8595 Y-24.4774 F100.00
G01 X7.7932 Y-24.4518 F100.00
G01 X7.7692 Y-24.4353 F100.00
G01 X7.7458 Y-24.4063 F100.00
G01 X7.6986 Y-24.3250 F100.00
G01 X7.5813 Y-24.1947 F100.00
G01 X7.4395 Y-24.0917 F100.00
G01 X7.2794 Y-24.0204 F100.00
G01 X7.1079 Y-23.9839 F100.00
G01 X6.9327 Y-23.9839 F100.00
G01 X6.7612 Y-24.0204 F100.00
G01 X6.6011 Y-24.0917 F100.00
G01 X6.4593 Y-24.1947 F100.00
G01 X6.3420 Y-24.3250 F100.00
G01 X6.2543 Y-24.4768 F100.00
G01 X6.2002 Y-24.6435 F100.00
G01 X6.1819 Y-24.8178 F100.00
G01 X6.2002 Y-24.9921 F100.00
G01 X6.2543 Y-25.1588 F100.00
G01 X6.3420 Y-25.3106 F100.00
G00 Z2.0000
G00 X6.3074 Y-26.3834
G01 F60.00
G01 Z-0.0700
G01 F100.00
G01 X6.3043 Y-26.3178 F100.00
G01 X6.3077 Y-26.2475 F100.00
G01 X6.3184 Y-26.1761 F100.00
G01 X6.3332 Y-26.1169 F100.00
G01 X6.3204 Y-26.1040 F100.00
G01 X6.3006 Y-26.1648 F100.00
G01 X6.2845 Y-26.3178 F100.00
G01 X6.3006 Y-26.4708 F100.00
G01 X6.3204 Y-26.5316 F100.00
G01 X6.3332 Y-26.5187 F100.00
G01 X6.3184 Y-26.4595 F100.00
G01 X6.3074 Y-26.3834 F100.00
G00 Z2.0000
G00 X7.1555 Y-27.0209
G01 F60.00
G01 Z-0.0700
G01 F100.00
G01 X7.0906 Y-27.0304 F100.00
G01 X7.0157 Y-27.0337 F100.00
G01 X6.9455 Y-27.0298 F100.00
G01 X6.8786 Y-27.0197 F100.00
G01 X6.8194 Y-27.0049 F100.00
G01 X6.8043 Y-27.0200 F100.00
G01 X6.9434 Y-27.0496 F100.00
G01 X7.0972 Y-27.0496 F100.00
G01 X7.2363 Y-27.0200 F100.00
G01 X7.2212 Y-27.0049 F100.00
G01 X7.1555 Y-27.0209 F100.00
G00 Z2.0000
G00 X11.7042 Y-28.2235
G01 F60.00
G01 Z-0.0700
G01 F100.00
G01 X11.6289 Y-28.2165 F100.00
G01 X11.5622 Y-28.1955 F100.00
G01 X11.4832 Y-28.1481 F100.00
G01 X11.4297 Y-28.0946 F100.00
G01 X11.3937 Y-28.0396 F100.00
G01 X11.3690 Y-27.9793 F100.00
G01 X11.3556 Y-27.9089 F100.00
G01 X11.3543 Y-27.7736 F100.00
G01 X11.3386 Y-27.7736 F100.00
G01 X11.3399 Y-27.9449 F100.00
G01 X11.3766 Y-28.0497 F100.00
G01 X11.4410 Y-28.1368 F100.00
G01 X11.5281 Y-28.2012 F100.00
G01 X11.6329 Y-28.2379 F100.00
G01 X11.7042 Y-28.2392 F100.00
G01 X11.7042 Y-28.2235 F100.00
G00 Z2.0000
G00 X12.7418 Y-27.7736
G01 F60.00
G01 Z-0.0700
G01 F100.00
G01 X12.7416 Y-27.8844 F100.00
G01 X12.7347 Y-27.9489 F100.00
G01 X12.7137 Y-28.0156 F100.00
G01 X12.6663 Y-28.0946 F100.00
G01 X12.6128 Y-28.1481 F100.00
G01 X12.5578 Y-28.1841 F100.00
G01 X12.4696 Y-28.2159 F100.00
G01 X12.3918 Y-28.2235 F100.00
G01 X12.3918 Y-28.2392 F100.00
G01 X12.4630 Y-28.2379 F100.00
G01 X12.5679 Y-28.2012 F100.00
G01 X12.6550 Y-28.1368 F100.00
G01 X12.7194 Y-28.0497 F100.00
G01 X12.7561 Y-27.9449 F100.00
G01 X12.7574 Y-27.7736 F100.00
G01 X12.7418 Y-27.7736 F100.00
G00 Z2.0000
G00 X12.7341 Y-26.9082
G01 F60.00
G01 Z-0.0700
G01 F100.00
G01 X12.7416 Y-26.9752 F100.00
G01 X12.7417 Y-27.0860 F100.00
G01 X12.7574 Y-27.0860 F100.00
G01 X12.7561 Y-26.9148 F100.00
G01 X12.7220 Y-26.8173 F100.00
G01 X12.7078 Y-26.8315 F100.00
G01 X12.7341 Y-26.9082 F100.00
G00 Z2.0000
G00 X13.3788 Y-26.8525
G01 F60.00
G01 Z-0.0700
G01 F100.00
G01 X13.4148 Y-26.7851 F100.00
G01 X13.4764 Y-26.7171 F100.00
G01 X13.5401 Y-26.6746 F100.00
G01 X13.5938 Y-26.6523 F100.00
G01 X13.6289 Y-26.6431 F100.00
G01 X13.6980 Y-26.6361 F100.00
G01 X14.3980 Y-26.6361 F100.00
G01 X14.4605 Y-26.6419 F100.00
G01 X14.5338 Y-26.6641 F100.00
G01 X14.5927 Y-26.6966 F100.00
G01 X14.6607 Y-26.7582 F100.00
G01 X14.7023 Y-26.8200 F100.00
G01 X14.7270 Y-26.8803 F100.00
G01 X14.7400 Y-26.9449 F100.00
G01 X14.7417 Y-27.2090 F100.00
G01 X15.5561 Y-27.2090 F100.00
G01 X15.6106 Y-27.1121 F100.00
G01 X15.6517 Y-27.0572 F100.00
G01 X15.6970 Y-27.0074 F100.00
G01 X15.7468 Y-26.9621 F100.00
G01 X15.8017 Y-26.9210 F100.00
G01 X15.8699 Y-26.8801 F100.00
G01 X15.9271 Y-26.8531 F100.00
G01 X15.9930 Y-26.8293 F100.00
G01 X16.0616 Y-26.8118 F100.00
G01 X16.1285 Y-26.8017 F100.00
G01 X16.2079 Y-26.7978 F100.00
G01 X16.2736 Y-26.8011 F100.00
G01 X16.3450 Y-26.8118 F100.00
G01 X16.4136 Y-26.8293 F100.00
G01 X16.4795 Y-26.8531 F100.00
G01 X16.5448 Y-26.8845 F100.00
G01 X16.6049 Y-26.9210 F100.00
G01 X16.6598 Y-26.9621 F100.00
G01 X16.7096 Y-27.0074 F100.00
G01 X16.7549 Y-27.0572 F100.00
G01 X16.8011 Y-27.1198 F100.00
G01 X16.8369 Y-27.1803 F100.00
G01 X16.8639 Y-27.2375 F100.00
G01 X16.8877 Y-27.3034 F100.00
G01 X16.9052 Y-27.3720 F100.00
G01 X16.9159 Y-27.4434 F100.00
G01 X16.9193 Y-27.5137 F100.00
G01 X16.9159 Y-27.5840 F100.00
G01 X16.9052 Y-27.6554 F100.00
G01 X16.8877 Y-27.7240 F100.00
G01 X16.8665 Y-27.7834 F100.00
G01 X16.8325 Y-27.8552 F100.00
G01 X16.7596 Y-27.9643 F100.00
G01 X16.7096 Y-28.0200 F100.00
G01 X16.6598 Y-28.0653 F100.00
G01 X16.6049 Y-28.1064 F100.00
G01 X16.5367 Y-28.1473 F100.00
G01 X16.4795 Y-28.1743 F100.00
G01 X16.4155 Y-28.1975 F100.00
G01 X16.3385 Y-28.2168 F100.00
G01 X16.2736 Y-28.2263 F100.00
G01 X16.2033 Y-28.2297 F100.00
G01 X16.1330 Y-28.2263 F100.00
G01 X16.0616 Y-28.2156 F100.00
G01 X15.9930 Y-28.1981 F100.00
G01 X15.9271 Y-28.1743 F100.00
G01 X15.8618 Y-28.1429 F100.00
G01 X15.8017 Y-28.1064 F100.00
G01 X15.7468 Y-28.0653 F100.00
G01 X15.6970 Y-28.0200 F100.00
G01 X15.6517 Y-27.9702 F100.00
G01 X15.6055 Y-27.9076 F100.00
G01 X15.5697 Y-27.8471 F100.00
G01 X15.5427 Y-27.7899 F100.00
G01 X15.5189 Y-27.7240 F100.00
G01 X15.5005 Y-27.6506 F100.00
G01 X14.7418 Y-27.6506 F100.00
G01 X14.7404 Y-27.9089 F100.00
G01 X14.7341 Y-27.9514 F100.00
G01 X14.7137 Y-28.0156 F100.00
G01 X14.6666 Y-28.0942 F100.00
G01 X14.6196 Y-28.1425 F100.00
G01 X14.5578 Y-28.1841 F100.00
G01 X14.4975 Y-28.2088 F100.00
G01 X14.4363 Y-28.2213 F100.00
G01 X14.3980 Y-28.2235 F100.00
G01 X13.6980 Y-28.2235 F100.00
G01 X13.6289 Y-28.2165 F100.00
G01 X13.5938 Y-28.2073 F100.00
G01 X13.5382 Y-28.1841 F100.00
G01 X13.5033 Y-28.1630 F100.00
G01 X13.4549 Y-28.1229 F100.00
G01 X13.4148 Y-28.0745 F100.00
G01 X13.3937 Y-28.0396 F100.00
G01 X13.3705 Y-27.9840 F100.00
G01 X13.3601 Y-27.9423 F100.00
G01 X13.3543 Y-27.8798 F100.00
G01 X13.3543 Y-26.9798 F100.00
G01 X13.3613 Y-26.9107 F100.00
G01 X13.3788 Y-26.8525 F100.00
G00 Z2.0000
G00 X12.6634 Y-24.7466
G01 F60.00
G01 Z-0.0700
G01 F100.00
G01 X12.7590 Y-24.8191 F100.00
G01 X12.8714 Y-24.8634 F100.00
G01 X12.9391 Y-24.8715 F100.00
G01 X13.4609 Y-24.8715 F100.00
G01 X13.5286 Y-24.8634 F100.00
G01 X13.6410 Y-24.8191 F100.00
G01 X13.7366 Y-24.7466 F100.00
G01 X13.8091 Y-24.6510 F100.00
G01 X13.8534 Y-24.5386 F100.00
G01 X13.8622 Y-24.5002 F100.00
G01 X13.9032 Y-24.4322 F100.00
G01 X13.9231 Y-24.4162 F100.00
G01 X13.9589 Y-24.3983 F100.00
G01 X14.0417 Y-24.3755 F100.00
G01 X14.1189 Y-24.3309 F100.00
G01 X15.3661 Y-23.0851 F100.00
G01 X15.4314 Y-23.0550 F100.00
G01 X15.4615 Y-23.0484 F100.00
G01 X15.9952 Y-23.0482 F100.00
G01 X16.0629 Y-23.0401 F100.00
G01 X16.1753 Y-22.9958 F100.00
G01 X16.2709 Y-22.9233 F100.00
G01 X16.3434 Y-22.8277 F100.00
G01 X16.3877 Y-22.7153 F100.00
G01 X16.3993 Y-22.6451 F100.00
G01 X16.4343 Y-22.5808 F100.00
G01 X16.8019 Y-22.2156 F100.00
G01 X16.8667 Y-22.1869 F100.00
G01 X16.8981 Y-22.1815 F100.00
G01 X16.9277 Y-22.1863 F100.00
G01 X16.9905 Y-22.2132 F100.00
G01 X17.0118 Y-22.2307 F100.00
G01 X17.0269 Y-22.2532 F100.00
G01 X17.0525 Y-22.3194 F100.00
G01 X17.0544 Y-22.3785 F100.00
G01 X17.0702 Y-22.3785 F100.00
G01 X17.0836 Y-22.2894 F100.00
G01 X17.1095 Y-22.2250 F100.00
G01 X17.1511 Y-22.1632 F100.00
G01 X17.2191 Y-22.1016 F100.00
G01 X17.2780 Y-22.0691 F100.00
G01 X17.3447 Y-22.0481 F100.00
G01 X17.4092 Y-22.0412 F100.00
G01 X17.5450 Y-22.0411 F100.00
G01 X17.5450 Y-22.0254 F100.00
G01 X17.3564 Y-22.0248 F100.00
G01 X17.2806 Y-21.9971 F100.00
G01 X17.2563 Y-21.9796 F100.00
G01 X17.2387 Y-21.9552 F100.00
G01 X17.2153 Y-21.8987 F100.00
G01 X17.2105 Y-21.8691 F100.00
G01 X17.2172 Y-21.8343 F100.00
G01 X17.2380 Y-21.7845 F100.00
G01 X17.2514 Y-21.7639 F100.00
G01 X17.5228 Y-21.4921 F100.00
G01 X17.5532 Y-21.4718 F100.00
G01 X17.6036 Y-21.4512 F100.00
G01 X17.6285 Y-21.4465 F100.00
G01 X18.4017 Y-21.4463 F100.00
G01 X18.4733 Y-21.4377 F100.00
G01 X18.5921 Y-21.3909 F100.00
G01 X18.6932 Y-21.3142 F100.00
G01 X18.7699 Y-21.2131 F100.00
G01 X18.7977 Y-21.1578 F100.00
G01 X18.8520 Y-21.1055 F100.00
G01 X18.8947 Y-21.0917 F100.00
G01 X18.9616 Y-21.0915 F100.00
G01 X19.0054 Y-21.1094 F100.00
G01 X19.0580 Y-21.1607 F100.00
G01 X19.0781 Y-21.2017 F100.00
G01 X19.1548 Y-21.3028 F100.00
G01 X19.2559 Y-21.3795 F100.00
G01 X19.3747 Y-21.4263 F100.00
G01 X19.4463 Y-21.4349 F100.00
G01 X20.4721 Y-21.4349 F100.00
G01 X20.5437 Y-21.4263 F100.00
G01 X20.6625 Y-21.3795 F100.00
G01 X20.7636 Y-21.3028 F100.00
G01 X20.8403 Y-21.2017 F100.00
G01 X20.8871 Y-21.0829 F100.00
G01 X20.8957 Y-21.0113 F100.00
G01 X20.8957 Y-20.2605 F100.00
G01 X20.8871 Y-20.1889 F100.00
G01 X20.8403 Y-20.0701 F100.00
G01 X20.7450 Y-19.9484 F100.00
G01 X20.7090 Y-19.8818 F100.00
G01 X20.7073 Y-19.8350 F100.00
G01 X20.7214 Y-19.7813 F100.00
G01 X20.7360 Y-19.7525 F100.00
G01 X20.8314 Y-19.6576 F100.00
G01 X20.8962 Y-19.6289 F100.00
G01 X20.9228 Y-19.6237 F100.00
G01 X21.5244 Y-19.6241 F100.00
G01 X21.5488 Y-19.6303 F100.00
G01 X21.6141 Y-19.6604 F100.00
G01 X21.6362 Y-19.6836 F100.00
G01 X21.6509 Y-19.7144 F100.00
G01 X21.6738 Y-19.6612 F100.00
G01 X21.6909 Y-19.6394 F100.00
G01 X21.8379 Y-19.5559 F100.00
G01 X22.4351 Y-18.9587 F100.00
G01 X22.4434 Y-18.9443 F100.00
G01 X22.4434 Y-18.5030 F100.00
G01 X22.4265 Y-18.4628 F100.00
G01 X22.4205 Y-18.4182 F100.00
G01 X22.4205 Y-17.0932 F100.00
G01 X22.4265 Y-17.0486 F100.00
G01 X22.4434 Y-17.0084 F100.00
G01 X22.4434 Y-16.8879 F100.00
G01 X22.4080 Y-16.8568 F100.00
G01 X22.3212 Y-16.8143 F100.00
G01 X22.2685 Y-16.8067 F100.00
G01 X22.0599 Y-16.8067 F100.00
G01 X22.0072 Y-16.8143 F100.00
G01 X21.9608 Y-16.8338 F100.00
G01 X21.8939 Y-16.8387 F100.00
G01 X21.8643 Y-16.8339 F100.00
G01 X21.8212 Y-16.8143 F100.00
G01 X21.7685 Y-16.8067 F100.00
G01 X21.5599 Y-16.8067 F100.00
G01 X21.5072 Y-16.8143 F100.00
G01 X21.4608 Y-16.8338 F100.00
G01 X21.3939 Y-16.8387 F100.00
G01 X21.3643 Y-16.8339 F100.00
G01 X21.3212 Y-16.8143 F100.00
G01 X21.2685 Y-16.8067 F100.00
G01 X21.0599 Y-16.8067 F100.00
G01 X21.0072 Y-16.8143 F100.00
G01 X20.9608 Y-16.8338 F100.00
G01 X20.8939 Y-16.8387 F100.00
G01 X20.8643 Y-16.8339 F100.00
G01 X20.8212 Y-16.8143 F100.00
G01 X20.7685 Y-16.8067 F100.00
G01 X20.5599 Y-16.8067 F100.00
G01 X20.5072 Y-16.8143 F100.00
G01 X20.4608 Y-16.8338 F100.00
G01 X20.3939 Y-16.8387 F100.00
G01 X20.3643 Y-16.8339 F100.00
G01 X20.3212 Y-16.8143 F100.00
G01 X20.2685 Y-16.8067 F100.00
G01 X20.0599 Y-16.8067 F100.00
G01 X20.0072 Y-16.8143 F100.00
G01 X19.9608 Y-16.8338 F100.00
G01 X19.8939 Y-16.8387 F100.00
G01 X19.8643 Y-16.8339 F100.00
G01 X19.8212 Y-16.8143 F100.00
G01 X19.7685 Y-16.8067 F100.00
G01 X19.5599 Y-16.8067 F100.00
G01 X19.5072 Y-16.8143 F100.00
G01 X19.4608 Y-16.8338 F100.00
G01 X19.3939 Y-16.8387 F100.00
G01 X19.3643 Y-16.8339 F100.00
G01 X19.3212 Y-16.8143 F100.00
G01 X19.2685 Y-16.8067 F100.00
G01 X19.0599 Y-16.8067 F100.00
G01 X19.0072 Y-16.8143 F100.00
G01 X18.9204 Y-16.8568 F100.00
G01 X18.8528 Y-16.9244 F100.00
G01 X18.8103 Y-17.0112 F100.00
G01 X18.8027 Y-17.0639 F100.00
G01 X18.8027 Y-18.4438 F100.00
G01 X18.7978 Y-18.4735 F100.00
G01 X18.7752 Y-18.5284 F100.00
G01 X18.7569 Y-18.5543 F100.00
G01 X17.6179 Y-19.6933 F100.00
G01 X17.5710 Y-19.7743 F100.00
G01 X17.5527 Y-19.7950 F100.00
G01 X17.5064 Y-19.8304 F100.00
G01 X17.4803 Y-19.8425 F100.00
G01 X17.3042 Y-19.8569 F100.00
G01 X17.1855 Y-19.9037 F100.00
G01 X17.0844 Y-19.9804 F100.00
G01 X17.0077 Y-20.0815 F100.00
G01 X16.9609 Y-20.2003 F100.00
G01 X16.9523 Y-20.2719 F100.00
G01 X16.9527 Y-21.0349 F100.00
G01 X16.9352 Y-21.1071 F100.00
G01 X16.9191 Y-21.1368 F100.00
G01 X16.3190 Y-21.7381 F100.00
G01 X16.2983 Y-21.7522 F100.00
G01 X16.2441 Y-21.7748 F100.00
G01 X16.2122 Y-21.7804 F100.00
G01 X16.1717 Y-21.7744 F100.00
G01 X16.0629 Y-21.7333 F100.00
G01 X15.9952 Y-21.7252 F100.00
G01 X15.1734 Y-21.7252 F100.00
G01 X15.1057 Y-21.7333 F100.00
G01 X14.9933 Y-21.7776 F100.00
G01 X14.8977 Y-21.8501 F100.00
G01 X14.8252 Y-21.9457 F100.00
G01 X14.7809 Y-22.0581 F100.00
G01 X14.7728 Y-22.1258 F100.00
G01 X14.7726 Y-22.6595 F100.00
G01 X14.7674 Y-22.6861 F100.00
G01 X14.7445 Y-22.7409 F100.00
G01 X14.7270 Y-22.7652 F100.00
G01 X14.0281 Y-23.4641 F100.00
G01 X14.0038 Y-23.4816 F100.00
G01 X13.9473 Y-23.5050 F100.00
G01 X13.9177 Y-23.5098 F100.00
G01 X13.8880 Y-23.5050 F100.00
G01 X13.8376 Y-23.4844 F100.00
G01 X13.8028 Y-23.4594 F100.00
G01 X13.7366 Y-23.3734 F100.00
G01 X13.6410 Y-23.3009 F100.00
G01 X13.5286 Y-23.2566 F100.00
G01 X13.4609 Y-23.2485 F100.00
G01 X12.9391 Y-23.2485 F100.00
G01 X12.8714 Y-23.2566 F100.00
G01 X12.7590 Y-23.3009 F100.00
G01 X12.6634 Y-23.3734 F100.00
G01 X12.5909 Y-23.4690 F100.00
G01 X12.5466 Y-23.5814 F100.00
G01 X12.5385 Y-23.6491 F100.00
G01 X12.5385 Y-24.4709 F100.00
G01 X12.5466 Y-24.5386 F100.00
G01 X12.5909 Y-24.6510 F100.00
G01 X12.6634 Y-24.7466 F100.00
G00 Z2.0000
G00 X12.6927 Y-23.5370
G01 F60.00
G01 Z-0.0700
G01 F100.00
G01 X12.7316 Y-23.4793 F100.00
G01 X12.7760 Y-23.4361 F100.00
G01 X12.8488 Y-23.3924 F100.00
G01 X12.9127 Y-23.3724 F100.00
G01 X12.9750 Y-23.3663 F100.00
G01 X13.4250 Y-23.3663 F100.00
G01 X13.5131 Y-23.3787 F100.00
G01 X13.5512 Y-23.3924 F100.00
G01 X13.6059 Y-23.4226 F100.00
G01 X13.6504 Y-23.4596 F100.00
G01 X13.6916 Y-23.5103 F100.00
G01 X13.7211 Y-23.5673 F100.00
G01 X13.7384 Y-23.6273 F100.00
G01 X13.7436 Y-23.6804 F100.00
G01 X13.7437 Y-23.8392 F100.00
G01 X13.8195 Y-23.8392 F100.00
G01 X14.9180 Y-22.7407 F100.00
G01 X14.8967 Y-22.6740 F100.00
G01 X14.8907 Y-22.6163 F100.00
G01 X14.8922 Y-22.1293 F100.00
G01 X14.9030 Y-22.0736 F100.00
G01 X14.9270 Y-22.0137 F100.00
G01 X14.9659 Y-21.9560 F100.00
G01 X15.0103 Y-21.9128 F100.00
G01 X15.0550 Y-21.8829 F100.00
G01 X15.0916 Y-21.8656 F100.00
G01 X15.1426 Y-21.8501 F100.00
G01 X15.1826 Y-21.8441 F100.00
G01 X15.9860 Y-21.8441 F100.00
G01 X16.0562 Y-21.8581 F100.00
G01 X16.1340 Y-21.8951 F100.00
G01 X16.1847 Y-21.9363 F100.00
G01 X16.2300 Y-21.9938 F100.00
G01 X17.0997 Y-21.1241 F100.00
G01 X17.0771 Y-21.0539 F100.00
G01 X17.0702 Y-20.9894 F100.00
G01 X17.0702 Y-20.3052 F100.00
G01 X17.0771 Y-20.2407 F100.00
G01 X17.0946 Y-20.1825 F100.00
G01 X17.1129 Y-20.1438 F100.00
G01 X17.1455 Y-20.0950 F100.00
G01 X17.1922 Y-20.0471 F100.00
G01 X17.2267 Y-20.0215 F100.00
G01 X17.2865 Y-19.9906 F100.00
G01 X17.3422 Y-19.9737 F100.00
G01 X17.4138 Y-19.9661 F100.00
G01 X17.6680 Y-19.9661 F100.00
G01 X17.6687 Y-19.8841 F100.00
G01 X17.6763 Y-19.8415 F100.00
G01 X17.6963 Y-19.7931 F100.00
G01 X17.7211 Y-19.7576 F100.00
G01 X18.9434 Y-18.5343 F100.00
G01 X18.9434 Y-18.5030 F100.00
G01 X18.9265 Y-18.4628 F100.00
G01 X18.9205 Y-18.4182 F100.00
G01 X18.9205 Y-17.0932 F100.00
G01 X18.9265 Y-17.0486 F100.00
G01 X18.9426 Y-17.0096 F100.00
G01 X18.9732 Y-16.9707 F100.00
G01 X19.0138 Y-16.9423 F100.00
G01 X19.0608 Y-16.9269 F100.00
G01 X19.2676 Y-16.9269 F100.00
G01 X19.3201 Y-16.9451 F100.00
G01 X19.3585 Y-16.9739 F100.00
G01 X19.3942 Y-17.0264 F100.00
G01 X19.4047 Y-17.0602 F100.00
G01 X19.4079 Y-17.0932 F100.00
G01 X19.4079 Y-18.4182 F100.00
G01 X19.4019 Y-18.4628 F100.00
G01 X19.3850 Y-18.5030 F100.00
G01 X19.3839 Y-18.6476 F100.00
G01 X19.3699 Y-18.7060 F100.00
G01 X19.3503 Y-18.7446 F100.00
G01 X19.3203 Y-18.7819 F100.00
G01 X18.1362 Y-19.9660 F100.00
G01 X18.3929 Y-19.9674 F100.00
G01 X18.4329 Y-19.9731 F100.00
G01 X18.4911 Y-19.9906 F100.00
G01 X18.5509 Y-20.0215 F100.00
G01 X18.6069 Y-20.0667 F100.00
G01 X18.6521 Y-20.1227 F100.00
G01 X18.6830 Y-20.1825 F100.00
G01 X18.7005 Y-20.2407 F100.00
G01 X18.7074 Y-20.3052 F100.00
G01 X18.7062 Y-21.0139 F100.00
G01 X18.6999 Y-21.0564 F100.00
G01 X18.6795 Y-21.1206 F100.00
G01 X18.6470 Y-21.1795 F100.00
G01 X18.6069 Y-21.2279 F100.00
G01 X18.5585 Y-21.2680 F100.00
G01 X18.5217 Y-21.2900 F100.00
G01 X18.4633 Y-21.3138 F100.00
G01 X18.3987 Y-21.3268 F100.00
G01 X17.5198 Y-21.3285 F100.00
G01 X16.2780 Y-22.5660 F100.00
G01 X16.2760 Y-22.6475 F100.00
G01 X16.2554 Y-22.7294 F100.00
G01 X16.2217 Y-22.7926 F100.00
G01 X16.1650 Y-22.8551 F100.00
G01 X16.1340 Y-22.8783 F100.00
G01 X16.0855 Y-22.9043 F100.00
G01 X16.0474 Y-22.9180 F100.00
G01 X15.9917 Y-22.9288 F100.00
G01 X15.3528 Y-22.9304 F100.00
G01 X14.0526 Y-24.2294 F100.00
G01 X13.9997 Y-24.2621 F100.00
G01 X13.9495 Y-24.2774 F100.00
G01 X13.7438 Y-24.2808 F100.00
G01 X13.7421 Y-24.4674 F100.00
G01 X13.7313 Y-24.5231 F100.00
G01 X13.7176 Y-24.5612 F100.00
G01 X13.6916 Y-24.6097 F100.00
G01 X13.6504 Y-24.6604 F100.00
G01 X13.5997 Y-24.7016 F100.00
G01 X13.5427 Y-24.7311 F100.00
G01 X13.4873 Y-24.7476 F100.00
G01 X13.4296 Y-24.7536 F100.00
G01 X12.9392 Y-24.7517 F100.00
G01 X12.8781 Y-24.7386 F100.00
G01 X12.8207 Y-24.7138 F100.00
G01 X12.7529 Y-24.6636 F100.00
G01 X12.7126 Y-24.6159 F100.00
G01 X12.6927 Y-24.5830 F100.00
G01 X12.6714 Y-24.5319 F100.00
G01 X12.6616 Y-24.4927 F100.00
G01 X12.6563 Y-24.4350 F100.00
G01 X12.6564 Y-23.6804 F100.00
G01 X12.6687 Y-23.5969 F100.00
G01 X12.6927 Y-23.5370 F100.00
G00 Z2.0000
G00 X16.3786 Y-25.5817
G01 F60.00
G01 Z-0.0700
G01 F100.00
G01 X16.4267 Y-25.5336 F100.00
G01 X16.4613 Y-25.5076 F100.00
G01 X16.4985 Y-25.4857 F100.00
G01 X16.5613 Y-25.4596 F100.00
G01 X16.6460 Y-25.4428 F100.00
G01 X16.7140 Y-25.4428 F100.00
G01 X16.7543 Y-25.4484 F100.00
G01 X17.0108 Y-25.1932 F100.00
G01 X17.0637 Y-25.1605 F100.00
G01 X17.1262 Y-25.1434 F100.00
G01 X19.3722 Y-25.1418 F100.00
G01 X19.3724 Y-25.0080 F100.00
G01 X19.3781 Y-24.9501 F100.00
G01 X19.3968 Y-24.8853 F100.00
G01 X19.4277 Y-24.8255 F100.00
G01 X19.4729 Y-24.7695 F100.00
G01 X19.5289 Y-24.7243 F100.00
G01 X19.5887 Y-24.6934 F100.00
G01 X19.6777 Y-24.6711 F100.00
G01 X20.6160 Y-24.6689 F100.00
G01 X20.6876 Y-24.6765 F100.00
G01 X20.7518 Y-24.6969 F100.00
G01 X20.8107 Y-24.7294 F100.00
G01 X20.8591 Y-24.7695 F100.00
G01 X20.9043 Y-24.8255 F100.00
G01 X20.9352 Y-24.8853 F100.00
G01 X20.9527 Y-24.9435 F100.00
G01 X20.9596 Y-25.0080 F100.00
G01 X20.9597 Y-25.1188 F100.00
G01 X21.4822 Y-25.1188 F100.00
G01 X21.4845 Y-24.9513 F100.00
G01 X21.4970 Y-24.8901 F100.00
G01 X21.5208 Y-24.8317 F100.00
G01 X21.5577 Y-24.7748 F100.00
G01 X21.6044 Y-24.7269 F100.00
G01 X21.6389 Y-24.7013 F100.00
G01 X21.6987 Y-24.6704 F100.00
G01 X21.7569 Y-24.6529 F100.00
G01 X21.8260 Y-24.6459 F100.00
G01 X22.7306 Y-24.6460 F100.00
G01 X22.7951 Y-24.6529 F100.00
G01 X22.8533 Y-24.6704 F100.00
G01 X22.9131 Y-24.7013 F100.00
G01 X22.9476 Y-24.7269 F100.00
G01 X22.9943 Y-24.7748 F100.00
G01 X23.0303 Y-24.8298 F100.00
G01 X23.0550 Y-24.8901 F100.00
G01 X23.0675 Y-24.9513 F100.00
G01 X23.0675 Y-25.7279 F100.00
G01 X23.0535 Y-25.7938 F100.00
G01 X23.0143 Y-25.8767 F100.00
G01 X22.9691 Y-25.9327 F100.00
G01 X22.9207 Y-25.9728 F100.00
G01 X22.8839 Y-25.9948 F100.00
G01 X22.8255 Y-26.0186 F100.00
G01 X22.7885 Y-26.0275 F100.00
G01 X22.7306 Y-26.0332 F100.00
G01 X21.8260 Y-26.0333 F100.00
G01 X21.7569 Y-26.0263 F100.00
G01 X21.6902 Y-26.0053 F100.00
G01 X21.6313 Y-25.9728 F100.00
G01 X21.5633 Y-25.9112 F100.00
G01 X21.5251 Y-25.8556 F100.00
G01 X21.4970 Y-25.7891 F100.00
G01 X21.4845 Y-25.7279 F100.00
G01 X21.4823 Y-25.5604 F100.00
G01 X20.9598 Y-25.5604 F100.00
G01 X20.9580 Y-25.7475 F100.00
G01 X20.9450 Y-25.8121 F100.00
G01 X20.9212 Y-25.8705 F100.00
G01 X20.8843 Y-25.9274 F100.00
G01 X20.8376 Y-25.9753 F100.00
G01 X20.7820 Y-26.0135 F100.00
G01 X20.7314 Y-26.0361 F100.00
G01 X26.8345 Y-26.0361 F100.00
G01 X26.8824 Y-26.0194 F100.00
G01 X26.9300 Y-26.0142 F100.00
G01 X33.1385 Y-26.0142 F100.00
G01 X35.3239 Y-23.8289 F100.00
G01 X35.3719 Y-23.7925 F100.00
G01 X35.4203 Y-23.7725 F100.00
G01 X35.4800 Y-23.7642 F100.00
G01 X38.7135 Y-23.7642 F100.00
G01 X39.2364 Y-23.2423 F100.00
G01 X39.2612 Y-23.2239 F100.00
G01 X39.2998 Y-23.2043 F100.00
G01 X39.3629 Y-23.1899 F100.00
G01 X47.1110 Y-23.1892 F100.00
G01 X47.7197 Y-22.5805 F100.00
G01 X47.6895 Y-22.5540 F100.00
G01 X47.6608 Y-22.5180 F100.00
G01 X47.6381 Y-22.4740 F100.00
G01 X47.6251 Y-22.4280 F100.00
G01 X47.6213 Y-22.3850 F100.00
G01 X47.6213 Y-22.0850 F100.00
G01 X47.6251 Y-22.0420 F100.00
G01 X47.6332 Y-22.0099 F100.00
G01 X47.6508 Y-21.9688 F100.00
G01 X47.6960 Y-21.9095 F100.00
G01 X47.7320 Y-21.8808 F100.00
G01 X47.7695 Y-21.8607 F100.00
G01 X47.8130 Y-21.8469 F100.00
G01 X47.8457 Y-21.8421 F100.00
G01 X48.8946 Y-21.8414 F100.00
G01 X48.9605 Y-21.8517 F100.00
G01 X49.0230 Y-21.8808 F100.00
G01 X49.0624 Y-21.9126 F100.00
G01 X49.0942 Y-21.9520 F100.00
G01 X49.1169 Y-21.9960 F100.00
G01 X49.1320 Y-22.0565 F100.00
G01 X49.1329 Y-22.4043 F100.00
G01 X49.1233 Y-22.4555 F100.00
G01 X49.1042 Y-22.5012 F100.00
G01 X49.0771 Y-22.5412 F100.00
G01 X49.0462 Y-22.5721 F100.00
G01 X49.0062 Y-22.5992 F100.00
G01 X48.9563 Y-22.6195 F100.00
G01 X48.8946 Y-22.6286 F100.00
G01 X48.5983 Y-22.6287 F100.00
G01 X48.5983 Y-22.6383 F100.00
G01 X49.2047 Y-23.2447 F100.00
G01 X49.2749 Y-23.2221 F100.00
G01 X49.3394 Y-23.2152 F100.00
G01 X50.0190 Y-23.2151 F100.00
G01 X50.0906 Y-23.2227 F100.00
G01 X50.1548 Y-23.2431 F100.00
G01 X50.2061 Y-23.2705 F100.00
G01 X50.2406 Y-23.2961 F100.00
G01 X50.2817 Y-23.3372 F100.00
G01 X50.3073 Y-23.3717 F100.00
G01 X50.3382 Y-23.4315 F100.00
G01 X50.3551 Y-23.4872 F100.00
G01 X50.3614 Y-23.5297 F100.00
G01 X50.3627 Y-24.5088 F100.00
G01 X50.3605 Y-24.5471 F100.00
G01 X50.3492 Y-24.6042 F100.00
G01 X50.3347 Y-24.6446 F100.00
G01 X50.3073 Y-24.6959 F100.00
G01 X50.2817 Y-24.7304 F100.00
G01 X50.2338 Y-24.7771 F100.00
G01 X50.1850 Y-24.8097 F100.00
G01 X50.1463 Y-24.8280 F100.00
G01 X50.0881 Y-24.8455 F100.00
G01 X50.0236 Y-24.8524 F100.00
G01 X49.3091 Y-24.8508 F100.00
G01 X49.2445 Y-24.8378 F100.00
G01 X49.1842 Y-24.8131 F100.00
G01 X49.1292 Y-24.7771 F100.00
G01 X49.0813 Y-24.7304 F100.00
G01 X49.0557 Y-24.6959 F100.00
G01 X49.0248 Y-24.6361 F100.00
G01 X49.0073 Y-24.5779 F100.00
G01 X49.0016 Y-24.5379 F100.00
G01 X49.0003 Y-23.6648 F100.00
G01 X48.2182 Y-22.8826 F100.00
G01 X48.1807 Y-22.8298 F100.00
G01 X48.1597 Y-22.7651 F100.00
G01 X47.3553 Y-23.5693 F100.00
G01 X47.3213 Y-23.5961 F100.00
G01 X47.2912 Y-23.6121 F100.00
G01 X47.2243 Y-23.6297 F100.00
G01 X39.4715 Y-23.6308 F100.00
G01 X38.9486 Y-24.1527 F100.00
G01 X38.8937 Y-24.1871 F100.00
G01 X38.8312 Y-24.2042 F100.00
G01 X35.5715 Y-24.2058 F100.00
G01 X33.3861 Y-26.3911 F100.00
G01 X33.3564 Y-26.4160 F100.00
G01 X33.3187 Y-26.4371 F100.00
G01 X33.2897 Y-26.4475 F100.00
G01 X33.2471 Y-26.4551 F100.00
G01 X27.0036 Y-26.4558 F100.00
G01 X26.9557 Y-26.4725 F100.00
G01 X26.9081 Y-26.4777 F100.00
G01 X17.0848 Y-26.4770 F100.00
G01 X17.0217 Y-26.4626 F100.00
G01 X16.9654 Y-26.4304 F100.00
G01 X16.7543 Y-26.2216 F100.00
G01 X16.6846 Y-26.2286 F100.00
G01 X16.6413 Y-26.2268 F100.00
G01 X16.5987 Y-26.2202 F100.00
G01 X16.5336 Y-26.2004 F100.00
G01 X16.4575 Y-26.1597 F100.00
G01 X16.4049 Y-26.1166 F100.00
G01 X16.3731 Y-26.0816 F100.00
G01 X16.3350 Y-26.0246 F100.00
G01 X16.3046 Y-25.9537 F100.00
G01 X16.2930 Y-25.9073 F100.00
G01 X16.2863 Y-25.8350 F100.00
G01 X16.2942 Y-25.7561 F100.00
G01 X16.3146 Y-25.6886 F100.00
G01 X16.3350 Y-25.6454 F100.00
G01 X16.3786 Y-25.5817 F100.00
G00 Z2.0000
G00 X17.1517 Y-27.0572
G01 F60.00
G01 Z-0.0700
G01 F100.00
G01 X17.2003 Y-27.0042 F100.00
G01 X17.2468 Y-26.9621 F100.00
G01 X17.3017 Y-26.9210 F100.00
G01 X17.3618 Y-26.8845 F100.00
G01 X17.4271 Y-26.8531 F100.00
G01 X17.4930 Y-26.8293 F100.00
G01 X17.5681 Y-26.8106 F100.00
G01 X17.6330 Y-26.8011 F100.00
G01 X17.6987 Y-26.7978 F100.00
G01 X17.7736 Y-26.8011 F100.00
G01 X17.8450 Y-26.8118 F100.00
G01 X17.9067 Y-26.8273 F100.00
G01 X17.9795 Y-26.8531 F100.00
G01 X18.0448 Y-26.8845 F100.00
G01 X18.1539 Y-26.9574 F100.00
G01 X18.2128 Y-27.0107 F100.00
G01 X18.2549 Y-27.0572 F100.00
G01 X18.2960 Y-27.1121 F100.00
G01 X18.3369 Y-27.1803 F100.00
G01 X18.3840 Y-27.2929 F100.00
G01 X19.3722 Y-27.2929 F100.00
G01 X19.3724 Y-27.0080 F100.00
G01 X19.3781 Y-26.9501 F100.00
G01 X19.3885 Y-26.9084 F100.00
G01 X19.4151 Y-26.8466 F100.00
G01 X19.4533 Y-26.7910 F100.00
G01 X19.5016 Y-26.7440 F100.00
G01 X19.5802 Y-26.6969 F100.00
G01 X19.6469 Y-26.6759 F100.00
G01 X19.7160 Y-26.6689 F100.00
G01 X20.6160 Y-26.6689 F100.00
G01 X20.6876 Y-26.6765 F100.00
G01 X20.7758 Y-26.7083 F100.00
G01 X20.8376 Y-26.7499 F100.00
G01 X20.8787 Y-26.7910 F100.00
G01 X20.9043 Y-26.8255 F100.00
G01 X20.9435 Y-26.9084 F100.00
G01 X20.9539 Y-26.9501 F100.00
G01 X20.9597 Y-27.0126 F100.00
G01 X20.9597 Y-27.7126 F100.00
G01 X20.9539 Y-27.7751 F100.00
G01 X20.9406 Y-27.8249 F100.00
G01 X21.1518 Y-28.0361 F100.00
G01 X37.9308 Y-28.0361 F100.00
G01 X38.3070 Y-27.6599 F100.00
G01 X38.2937 Y-27.6101 F100.00
G01 X38.2879 Y-27.5476 F100.00
G01 X38.2892 Y-26.8185 F100.00
G01 X38.2955 Y-26.7760 F100.00
G01 X38.3159 Y-26.7118 F100.00
G01 X38.3484 Y-26.6529 F100.00
G01 X38.3885 Y-26.6045 F100.00
G01 X38.4369 Y-26.5644 F100.00
G01 X38.4737 Y-26.5424 F100.00
G01 X38.5321 Y-26.5186 F100.00
G01 X38.5967 Y-26.5056 F100.00
G01 X39.5316 Y-26.5039 F100.00
G01 X39.5699 Y-26.5061 F100.00
G01 X39.6311 Y-26.5186 F100.00
G01 X39.6674 Y-26.5319 F100.00
G01 X39.7187 Y-26.5593 F100.00
G01 X39.7532 Y-26.5849 F100.00
G01 X39.7943 Y-26.6260 F100.00
G01 X39.8199 Y-26.6605 F100.00
G01 X39.8473 Y-26.7118 F100.00
G01 X39.8683 Y-26.7785 F100.00
G01 X39.8752 Y-26.8430 F100.00
G01 X39.8753 Y-27.3129 F100.00
G01 X40.4476 Y-27.3129 F100.00
G01 X40.4677 Y-27.2575 F100.00
G01 X40.4991 Y-27.1922 F100.00
G01 X40.5720 Y-27.0831 F100.00
G01 X40.6220 Y-27.0274 F100.00
G01 X40.6706 Y-26.9832 F100.00
G01 X40.7344 Y-26.9359 F100.00
G01 X40.7949 Y-26.9001 F100.00
G01 X40.8521 Y-26.8731 F100.00
G01 X40.9180 Y-26.8493 F100.00
G01 X40.9841 Y-26.8324 F100.00
G01 X41.0627 Y-26.8208 F100.00
G01 X41.1283 Y-26.8177 F100.00
G01 X41.1986 Y-26.8211 F100.00
G01 X41.2700 Y-26.8318 F100.00
G01 X41.3386 Y-26.8493 F100.00
G01 X41.4045 Y-26.8731 F100.00
G01 X41.4617 Y-26.9001 F100.00
G01 X41.5222 Y-26.9359 F100.00
G01 X41.5848 Y-26.9821 F100.00
G01 X41.6346 Y-27.0274 F100.00
G01 X41.6788 Y-27.0760 F100.00
G01 X41.7210 Y-27.1321 F100.00
G01 X41.7575 Y-27.1922 F100.00
G01 X41.7915 Y-27.2640 F100.00
G01 X41.8127 Y-27.3234 F100.00
G01 X41.8302 Y-27.3920 F100.00
G01 X41.8409 Y-27.4634 F100.00
G01 X41.8443 Y-27.5337 F100.00
G01 X41.8409 Y-27.6040 F100.00
G01 X41.8302 Y-27.6754 F100.00
G01 X41.8127 Y-27.7440 F100.00
G01 X41.7915 Y-27.8034 F100.00
G01 X41.7575 Y-27.8752 F100.00
G01 X41.7210 Y-27.9353 F100.00
G01 X41.6799 Y-27.9902 F100.00
G01 X41.6346 Y-28.0400 F100.00
G01 X41.5860 Y-28.0842 F100.00
G01 X41.5222 Y-28.1315 F100.00
G01 X41.4617 Y-28.1673 F100.00
G01 X41.4045 Y-28.1943 F100.00
G01 X41.3386 Y-28.2181 F100.00
G01 X41.2725 Y-28.2350 F100.00
G01 X41.1986 Y-28.2463 F100.00
G01 X41.1283 Y-28.2497 F100.00
G01 X41.0580 Y-28.2463 F100.00
G01 X40.9931 Y-28.2368 F100.00
G01 X40.9180 Y-28.2181 F100.00
G01 X40.8586 Y-28.1969 F100.00
G01 X40.7868 Y-28.1629 F100.00
G01 X40.7267 Y-28.1264 F100.00
G01 X40.6718 Y-28.0853 F100.00
G01 X40.6220 Y-28.0400 F100.00
G01 X40.5767 Y-27.9902 F100.00
G01 X40.5356 Y-27.9353 F100.00
G01 X40.4991 Y-27.8752 F100.00
G01 X40.4677 Y-27.8099 F100.00
G01 X40.4476 Y-27.7545 F100.00
G01 X39.8057 Y-27.7545 F100.00
G01 X39.7532 Y-27.8103 F100.00
G01 X39.6976 Y-27.8485 F100.00
G01 X39.6311 Y-27.8766 F100.00
G01 X39.5665 Y-27.8896 F100.00
G01 X38.7001 Y-27.8913 F100.00
G01 X38.1639 Y-28.4263 F100.00
G01 X38.1025 Y-28.4626 F100.00
G01 X38.0655 Y-28.4735 F100.00
G01 X38.0269 Y-28.4776 F100.00
G01 X21.0603 Y-28.4777 F100.00
G01 X21.0171 Y-28.4735 F100.00
G01 X20.9801 Y-28.4626 F100.00
G01 X20.9187 Y-28.4263 F100.00
G01 X20.5475 Y-28.0563 F100.00
G01 X19.7114 Y-28.0562 F100.00
G01 X19.6469 Y-28.0493 F100.00
G01 X19.5802 Y-28.0283 F100.00
G01 X19.5012 Y-27.9809 F100.00
G01 X19.4698 Y-27.9523 F100.00
G01 X19.4328 Y-27.9073 F100.00
G01 X19.4117 Y-27.8724 F100.00
G01 X19.3885 Y-27.8168 F100.00
G01 X19.3732 Y-27.7345 F100.00
G01 X18.3840 Y-27.7345 F100.00
G01 X18.3369 Y-27.8471 F100.00
G01 X18.3011 Y-27.9076 F100.00
G01 X18.2549 Y-27.9702 F100.00
G01 X18.2128 Y-28.0167 F100.00
G01 X18.1598 Y-28.0653 F100.00
G01 X18.1049 Y-28.1064 F100.00
G01 X18.0448 Y-28.1429 F100.00
G01 X17.9815 Y-28.1734 F100.00
G01 X17.9136 Y-28.1981 F100.00
G01 X17.8450 Y-28.2156 F100.00
G01 X17.7736 Y-28.2263 F100.00
G01 X17.7033 Y-28.2297 F100.00
G01 X17.6330 Y-28.2263 F100.00
G01 X17.5616 Y-28.2156 F100.00
G01 X17.4930 Y-28.1981 F100.00
G01 X17.4336 Y-28.1769 F100.00
G01 X17.3618 Y-28.1429 F100.00
G01 X17.3017 Y-28.1064 F100.00
G01 X17.2456 Y-28.0642 F100.00
G01 X17.1970 Y-28.0200 F100.00
G01 X17.1528 Y-27.9714 F100.00
G01 X17.1106 Y-27.9153 F100.00
G01 X17.0697 Y-27.8471 F100.00
G01 X17.0427 Y-27.7899 F100.00
G01 X17.0169 Y-27.7171 F100.00
G01 X17.0002 Y-27.6489 F100.00
G01 X16.9907 Y-27.5840 F100.00
G01 X16.9874 Y-27.5183 F100.00
G01 X16.9907 Y-27.4434 F100.00
G01 X17.0014 Y-27.3720 F100.00
G01 X17.0195 Y-27.3015 F100.00
G01 X17.0427 Y-27.2375 F100.00
G01 X17.0697 Y-27.1803 F100.00
G01 X17.1055 Y-27.1198 F100.00
G01 X17.1517 Y-27.0572 F100.00
G00 Z2.0000
G00 X19.5289 Y-26.0009
G01 F60.00
G01 Z-0.0700
G01 F100.00
G01 X19.4944 Y-25.9753 F100.00
G01 X19.4477 Y-25.9274 F100.00
G01 X19.4151 Y-25.8786 F100.00
G01 X19.3968 Y-25.8399 F100.00
G01 X19.3799 Y-25.7842 F100.00
G01 X19.3740 Y-25.7475 F100.00
G01 X19.3723 Y-25.5834 F100.00
G01 X17.2439 Y-25.5834 F100.00
G01 X17.0666 Y-25.7607 F100.00
G01 X17.0737 Y-25.8350 F100.00
G01 X17.0666 Y-25.9093 F100.00
G01 X17.1934 Y-26.0361 F100.00
G01 X19.6006 Y-26.0361 F100.00
G01 X19.5289 Y-26.0009 F100.00
G00 Z2.0000
G00 X21.5428 Y-26.7949
G01 F60.00
G01 Z-0.0700
G01 F100.00
G01 X21.6044 Y-26.7269 F100.00
G01 X21.6600 Y-26.6887 F100.00
G01 X21.7265 Y-26.6606 F100.00
G01 X21.7911 Y-26.6476 F100.00
G01 X22.7260 Y-26.6459 F100.00
G01 X22.7951 Y-26.6529 F100.00
G01 X22.8618 Y-26.6739 F100.00
G01 X22.9207 Y-26.7064 F100.00
G01 X22.9887 Y-26.7680 F100.00
G01 X23.0269 Y-26.8236 F100.00
G01 X23.0550 Y-26.8901 F100.00
G01 X23.0675 Y-26.9513 F100.00
G01 X23.0697 Y-27.1188 F100.00
G01 X23.4798 Y-27.1188 F100.00
G01 X23.4800 Y-26.9848 F100.00
G01 X23.4869 Y-26.9203 F100.00
G01 X23.5079 Y-26.8536 F100.00
G01 X23.5404 Y-26.7947 F100.00
G01 X23.6020 Y-26.7267 F100.00
G01 X23.6638 Y-26.6851 F100.00
G01 X23.7520 Y-26.6533 F100.00
G01 X23.8236 Y-26.6457 F100.00
G01 X24.7236 Y-26.6457 F100.00
G01 X24.7927 Y-26.6527 F100.00
G01 X24.8509 Y-26.6702 F100.00
G01 X24.9107 Y-26.7011 F100.00
G01 X24.9452 Y-26.7267 F100.00
G01 X24.9919 Y-26.7746 F100.00
G01 X25.0288 Y-26.8315 F100.00
G01 X25.0526 Y-26.8899 F100.00
G01 X25.0651 Y-26.9511 F100.00
G01 X25.0673 Y-27.1186 F100.00
G01 X37.2388 Y-27.1186 F100.00
G01 X38.3069 Y-26.0507 F100.00
G01 X38.3409 Y-26.0239 F100.00
G01 X38.3710 Y-26.0079 F100.00
G01 X38.4000 Y-25.9975 F100.00
G01 X38.4427 Y-25.9899 F100.00
G01 X58.6635 Y-25.9892 F100.00
G01 X62.6476 Y-22.0051 F100.00
G01 X62.6476 Y-12.8826 F100.00
G01 X62.0091 Y-12.8821 F100.00
G01 X61.9867 Y-12.8770 F100.00
G01 X61.9622 Y-12.8638 F100.00
G01 X61.9433 Y-12.8449 F100.00
G01 X61.9302 Y-12.8205 F100.00
G01 X61.9246 Y-12.7888 F100.00
G01 X61.9246 Y-11.0888 F100.00
G01 X61.9302 Y-11.0571 F100.00
G01 X61.9493 Y-11.0255 F100.00
G01 X61.9803 Y-11.0031 F100.00
G01 X62.0184 Y-10.9950 F100.00
G01 X63.7184 Y-10.9950 F100.00
G01 X63.7583 Y-11.0040 F100.00
G01 X63.7817 Y-11.0197 F100.00
G01 X63.7979 Y-11.0391 F100.00
G01 X63.8120 Y-11.0840 F100.00
G01 X63.8122 Y-11.7180 F100.00
G01 X64.1925 Y-11.7191 F100.00
G01 X64.2595 Y-11.7367 F100.00
G01 X64.3124 Y-11.7694 F100.00
G01 X66.8907 Y-14.3464 F100.00
G01 X68.6769 Y-14.3466 F100.00
G01 X68.7038 Y-14.3520 F100.00
G01 X68.7284 Y-14.3652 F100.00
G01 X68.7516 Y-14.3905 F100.00
G01 X68.7631 Y-14.4175 F100.00
G01 X68.7659 Y-16.4402 F100.00
G01 X68.7578 Y-16.4783 F100.00
G01 X68.7384 Y-16.5065 F100.00
G01 X68.7102 Y-16.5259 F100.00
G01 X68.6721 Y-16.5339 F100.00
G01 X66.6494 Y-16.5311 F100.00
G01 X66.6225 Y-16.5197 F100.00
G01 X66.5971 Y-16.4964 F100.00
G01 X66.5839 Y-16.4719 F100.00
G01 X66.5785 Y-16.4450 F100.00
G01 X66.5784 Y-14.6587 F100.00
G01 X64.0793 Y-12.1596 F100.00
G01 X63.8122 Y-12.1596 F100.00
G01 X63.8120 Y-12.7936 F100.00
G01 X63.8032 Y-12.8287 F100.00
G01 X63.7745 Y-12.8639 F100.00
G01 X63.7501 Y-12.8770 F100.00
G01 X63.7232 Y-12.8824 F100.00
G01 X63.0892 Y-12.8826 F100.00
G01 X63.0892 Y-22.0966 F100.00
G01 X63.0783 Y-22.1651 F100.00
G01 X63.0545 Y-22.2154 F100.00
G01 X63.0245 Y-22.2527 F100.00
G01 X58.9111 Y-26.3661 F100.00
G01 X58.8631 Y-26.4025 F100.00
G01 X58.8147 Y-26.4225 F100.00
G01 X58.7550 Y-26.4308 F100.00
G01 X38.5512 Y-26.4308 F100.00
G01 X37.4831 Y-27.4987 F100.00
G01 X37.4491 Y-27.5255 F100.00
G01 X37.4190 Y-27.5415 F100.00
G01 X37.3521 Y-27.5591 F100.00
G01 X25.0674 Y-27.5602 F100.00
G01 X25.0672 Y-27.6940 F100.00
G01 X25.0603 Y-27.7585 F100.00
G01 X25.0393 Y-27.8252 F100.00
G01 X25.0068 Y-27.8841 F100.00
G01 X24.9452 Y-27.9521 F100.00
G01 X24.8834 Y-27.9937 F100.00
G01 X24.7952 Y-28.0255 F100.00
G01 X24.7236 Y-28.0331 F100.00
G01 X23.8236 Y-28.0331 F100.00
G01 X23.7545 Y-28.0261 F100.00
G01 X23.6963 Y-28.0086 F100.00
G01 X23.6365 Y-27.9777 F100.00
G01 X23.6020 Y-27.9521 F100.00
G01 X23.5553 Y-27.9042 F100.00
G01 X23.5184 Y-27.8473 F100.00
G01 X23.4946 Y-27.7889 F100.00
G01 X23.4821 Y-27.7277 F100.00
G01 X23.4799 Y-27.5604 F100.00
G01 X23.0698 Y-27.5604 F100.00
G01 X23.0675 Y-27.7279 F100.00
G01 X23.0550 Y-27.7891 F100.00
G01 X23.0303 Y-27.8494 F100.00
G01 X22.9943 Y-27.9044 F100.00
G01 X22.9408 Y-27.9579 F100.00
G01 X22.8858 Y-27.9939 F100.00
G01 X22.8214 Y-28.0198 F100.00
G01 X22.7643 Y-28.0311 F100.00
G01 X22.7260 Y-28.0333 F100.00
G01 X21.8260 Y-28.0333 F100.00
G01 X21.7569 Y-28.0263 F100.00
G01 X21.6987 Y-28.0088 F100.00
G01 X21.6313 Y-27.9728 F100.00
G01 X21.5863 Y-27.9358 F100.00
G01 X21.5577 Y-27.9044 F100.00
G01 X21.5251 Y-27.8556 F100.00
G01 X21.5068 Y-27.8169 F100.00
G01 X21.4899 Y-27.7612 F100.00
G01 X21.4840 Y-27.7245 F100.00
G01 X21.4836 Y-26.9605 F100.00
G01 X21.4985 Y-26.8854 F100.00
G01 X21.5217 Y-26.8298 F100.00
G01 X21.5428 Y-26.7949 F100.00
G00 Z2.0000
G00 X21.6703 Y-23.5874
G01 F60.00
G01 Z-0.0700
G01 F100.00
G01 X21.6703 Y-23.5716 F100.00
G01 X21.6075 Y-23.5647 F100.00
G01 X21.5493 Y-23.5472 F100.00
G01 X21.4895 Y-23.5163 F100.00
G01 X21.4550 Y-23.4907 F100.00
G01 X21.4083 Y-23.4428 F100.00
G01 X21.3757 Y-23.3940 F100.00
G01 X21.3574 Y-23.3553 F100.00
G01 X21.3388 Y-23.2915 F100.00
G01 X21.3184 Y-23.2915 F100.00
G01 X21.3552 Y-23.3979 F100.00
G01 X21.4196 Y-23.4850 F100.00
G01 X21.5067 Y-23.5494 F100.00
G01 X21.6115 Y-23.5861 F100.00
G01 X21.6703 Y-23.5874 F100.00
G00 Z2.0000
G00 X20.6490 Y-23.3167
G01 F60.00
G01 Z-0.0700
G01 F100.00
G01 X20.5940 Y-23.3527 F100.00
G01 X20.5296 Y-23.3786 F100.00
G01 X20.4633 Y-23.3908 F100.00
G01 X20.3030 Y-23.3921 F100.00
G01 X20.3030 Y-23.4078 F100.00
G01 X20.4992 Y-23.4065 F100.00
G01 X20.6041 Y-23.3698 F100.00
G01 X20.6912 Y-23.3054 F100.00
G01 X20.7015 Y-23.2915 F100.00
G01 X20.6773 Y-23.2915 F100.00
G01 X20.6490 Y-23.3167 F100.00
G00 Z2.0000
G00 X19.4842 Y-23.3921
G01 F60.00
G01 Z-0.0700
G01 F100.00
G01 X19.4151 Y-23.3851 F100.00
G01 X19.3569 Y-23.3676 F100.00
G01 X19.2971 Y-23.3367 F100.00
G01 X19.2411 Y-23.2915 F100.00
G01 X19.2169 Y-23.2915 F100.00
G01 X19.2272 Y-23.3054 F100.00
G01 X19.3143 Y-23.3698 F100.00
G01 X19.4191 Y-23.4065 F100.00
G01 X19.6154 Y-23.4078 F100.00
G01 X19.6154 Y-23.3922 F100.00
G01 X19.4842 Y-23.3921 F100.00
G00 Z2.0000
G00 X18.6035 Y-23.3060
G01 F60.00
G01 Z-0.0700
G01 F100.00
G01 X18.5298 Y-23.3607 F100.00
G01 X18.4633 Y-23.3888 F100.00
G01 X18.3929 Y-23.4022 F100.00
G01 X18.2326 Y-23.4035 F100.00
G01 X18.2326 Y-23.4192 F100.00
G01 X18.4288 Y-23.4179 F100.00
G01 X18.5337 Y-23.3812 F100.00
G01 X18.6208 Y-23.3168 F100.00
G01 X18.6396 Y-23.2915 F100.00
G01 X18.6173 Y-23.2915 F100.00
G01 X18.6035 Y-23.3060 F100.00
G00 Z2.0000
G00 X18.5782 Y-22.1162
G01 F60.00
G01 Z-0.0700
G01 F100.00
G01 X18.6265 Y-22.1632 F100.00
G01 X18.6622 Y-22.2145 F100.00
G01 X18.6849 Y-22.2145 F100.00
G01 X18.6208 Y-22.1278 F100.00
G01 X18.5337 Y-22.0634 F100.00
G01 X18.4289 Y-22.0267 F100.00
G01 X18.2326 Y-22.0254 F100.00
G01 X18.2326 Y-22.0410 F100.00
G01 X18.3929 Y-22.0424 F100.00
G01 X18.4592 Y-22.0546 F100.00
G01 X18.5236 Y-22.0805 F100.00
G01 X18.5782 Y-22.1162 F100.00
G00 Z2.0000
G00 X19.2159 Y-22.1586
G01 F60.00
G01 Z-0.0700
G01 F100.00
G01 X19.2445 Y-22.1272 F100.00
G01 X19.2895 Y-22.0902 F100.00
G01 X19.3569 Y-22.0542 F100.00
G01 X19.4126 Y-22.0373 F100.00
G01 X19.4493 Y-22.0314 F100.00
G01 X19.6154 Y-22.0297 F100.00
G01 X19.6154 Y-22.0140 F100.00
G01 X19.4191 Y-22.0153 F100.00
G01 X19.3143 Y-22.0520 F100.00
G01 X19.2272 Y-22.1164 F100.00
G01 X19.1628 Y-22.2035 F100.00
G01 X19.1590 Y-22.2145 F100.00
G01 X19.1794 Y-22.2145 F100.00
G01 X19.2159 Y-22.1586 F100.00
G00 Z2.0000
G00 X20.6486 Y-22.1048
G01 F60.00
G01 Z-0.0700
G01 F100.00
G01 X20.7025 Y-22.1586 F100.00
G01 X20.7390 Y-22.2145 F100.00
G01 X20.7594 Y-22.2145 F100.00
G01 X20.7556 Y-22.2035 F100.00
G01 X20.6912 Y-22.1164 F100.00
G01 X20.6041 Y-22.0520 F100.00
G01 X20.4993 Y-22.0153 F100.00
G01 X20.3030 Y-22.0140 F100.00
G01 X20.3030 Y-22.0296 F100.00
G01 X20.4633 Y-22.0310 F100.00
G01 X20.5296 Y-22.0432 F100.00
G01 X20.5940 Y-22.0691 F100.00
G01 X20.6486 Y-22.1048 F100.00
G00 Z2.0000
G00 X21.3574 Y-22.1507
G01 F60.00
G01 Z-0.0700
G01 F100.00
G01 X21.3757 Y-22.1120 F100.00
G01 X21.4083 Y-22.0632 F100.00
G01 X21.4369 Y-22.0318 F100.00
G01 X21.4838 Y-21.9935 F100.00
G01 X21.4838 Y-21.9735 F100.00
G01 X21.4196 Y-22.0210 F100.00
G01 X21.3552 Y-22.1081 F100.00
G01 X21.3184 Y-22.2145 F100.00
G01 X21.3388 Y-22.2145 F100.00
G01 X21.3574 Y-22.1507 F100.00
G00 Z2.0000
G00 X21.4632 Y-21.4791
G01 F60.00
G01 Z-0.0700
G01 F100.00
G01 X21.4221 Y-21.4380 F100.00
G01 X21.3965 Y-21.4035 F100.00
G01 X21.3573 Y-21.3206 F100.00
G01 X21.3424 Y-21.2455 F100.00
G01 X21.3411 Y-21.0852 F100.00
G01 X21.3254 Y-21.0852 F100.00
G01 X21.3267 Y-21.2815 F100.00
G01 X21.3634 Y-21.3863 F100.00
G01 X21.4278 Y-21.4734 F100.00
G01 X21.4838 Y-21.5148 F100.00
G01 X21.4838 Y-21.4949 F100.00
G01 X21.4632 Y-21.4791 F100.00
G00 Z2.0000
G00 X22.5978 Y-22.0383
G01 F60.00
G01 Z-0.0700
G01 F100.00
G01 X22.6525 Y-22.1120 F100.00
G01 X22.6806 Y-22.1785 F100.00
G01 X22.6940 Y-22.2489 F100.00
G01 X22.6953 Y-22.4092 F100.00
G01 X22.7110 Y-22.4092 F100.00
G01 X22.7097 Y-22.2130 F100.00
G01 X22.6730 Y-22.1081 F100.00
G01 X22.6086 Y-22.0210 F100.00
G01 X22.5608 Y-21.9856 F100.00
G01 X22.5608 Y-22.0055 F100.00
G01 X22.5978 Y-22.0383 F100.00
G00 Z2.0000
G00 X22.7036 Y-21.0852
G01 F60.00
G01 Z-0.0700
G01 F100.00
G01 X22.7022 Y-21.2455 F100.00
G01 X22.6873 Y-21.3206 F100.00
G01 X22.6481 Y-21.4035 F100.00
G01 X22.6029 Y-21.4595 F100.00
G01 X22.5608 Y-21.4949 F100.00
G01 X22.5608 Y-21.5148 F100.00
G01 X22.6168 Y-21.4734 F100.00
G01 X22.6812 Y-21.3863 F100.00
G01 X22.7179 Y-21.2815 F100.00
G01 X22.7192 Y-21.0852 F100.00
G01 X22.7036 Y-21.0852 F100.00
G00 Z2.0000
G00 X22.7192 Y-20.3976
G01 F60.00
G01 Z-0.0700
G01 F100.00
G01 X22.7192 Y-20.3567 F100.00
G01 X22.7035 Y-20.3724 F100.00
G01 X22.7035 Y-20.3976 F100.00
G01 X22.7192 Y-20.3976 F100.00
G00 Z2.0000
G00 X22.4434 Y-19.9333
G01 F60.00
G01 Z-0.0700
G01 F100.00
G01 X22.4434 Y-19.9148 F100.00
G01 X22.4249 Y-19.9083 F100.00
G01 X22.3661 Y-19.9070 F100.00
G01 X22.3661 Y-19.9228 F100.00
G01 X22.4434 Y-19.9333 F100.00
G00 Z2.0000
G00 X21.6330 Y-19.8805
G01 F60.00
G01 Z-0.0700
G01 F100.00
G01 X21.6158 Y-19.8980 F100.00
G01 X21.5799 Y-19.9209 F100.00
G01 X21.5149 Y-19.9450 F100.00
G01 X21.4278 Y-20.0094 F100.00
G01 X21.3634 Y-20.0965 F100.00
G01 X21.3267 Y-20.2013 F100.00
G01 X21.3254 Y-20.3976 F100.00
G01 X21.3410 Y-20.3976 F100.00
G01 X21.3412 Y-20.2618 F100.00
G01 X21.3481 Y-20.1973 F100.00
G01 X21.3656 Y-20.1391 F100.00
G01 X21.3839 Y-20.1004 F100.00
G01 X21.4386 Y-20.0267 F100.00
G01 X21.4977 Y-19.9781 F100.00
G01 X21.5490 Y-19.9507 F100.00
G01 X21.5853 Y-19.9374 F100.00
G01 X21.6223 Y-19.9285 F100.00
G01 X21.6785 Y-19.9228 F100.00
G01 X21.6785 Y-19.8500 F100.00
G01 X21.6625 Y-19.8173 F100.00
G01 X21.6330 Y-19.8805 F100.00
G00 Z2.0000
G00 X22.9316 Y-18.4785
G01 F60.00
G01 Z-0.0700
G01 F100.00
G01 X22.9205 Y-18.4182 F100.00
G01 X22.9205 Y-17.0932 F100.00
G01 X22.9237 Y-17.0602 F100.00
G01 X22.9383 Y-17.0178 F100.00
G01 X22.9600 Y-16.9846 F100.00
G01 X22.9917 Y-16.9555 F100.00
G01 X23.0289 Y-16.9356 F100.00
G01 X23.0846 Y-16.9246 F100.00
G01 X23.2722 Y-16.9277 F100.00
G01 X23.3228 Y-16.9466 F100.00
G01 X23.3684 Y-16.9846 F100.00
G01 X23.3968 Y-17.0329 F100.00
G01 X23.4078 Y-17.0886 F100.00
G01 X23.4079 Y-18.4182 F100.00
G01 X23.4019 Y-18.4628 F100.00
G01 X23.3850 Y-18.5030 F100.00
G01 X23.3850 Y-19.7168 F100.00
G01 X23.6205 Y-19.9523 F100.00
G01 X23.6907 Y-19.9297 F100.00
G01 X23.7598 Y-19.9227 F100.00
G01 X24.4348 Y-19.9227 F100.00
G01 X24.4973 Y-19.9285 F100.00
G01 X24.5390 Y-19.9389 F100.00
G01 X24.5946 Y-19.9621 F100.00
G01 X24.6295 Y-19.9832 F100.00
G01 X24.6975 Y-20.0448 F100.00
G01 X24.7400 Y-20.1085 F100.00
G01 X24.7623 Y-20.1622 F100.00
G01 X24.7726 Y-20.2029 F100.00
G01 X25.3506 Y-20.2029 F100.00
G01 X25.4332 Y-20.1357 F100.00
G01 X25.5217 Y-20.0885 F100.00
G01 X25.6249 Y-20.0569 F100.00
G01 X25.7254 Y-20.0466 F100.00
G01 X25.8305 Y-20.0561 F100.00
G01 X25.8907 Y-20.0712 F100.00
G01 X25.9852 Y-20.1108 F100.00
G01 X26.0739 Y-20.1707 F100.00
G01 X26.1432 Y-20.2399 F100.00
G01 X26.1793 Y-20.2882 F100.00
G01 X26.2256 Y-20.3747 F100.00
G01 X26.2465 Y-20.4331 F100.00
G01 X26.2653 Y-20.5277 F100.00
G01 X26.2684 Y-20.5896 F100.00
G01 X26.2581 Y-20.6901 F100.00
G01 X26.2331 Y-20.7758 F100.00
G01 X28.5813 Y-23.1241 F100.00
G01 X28.6113 Y-23.1614 F100.00
G01 X28.6309 Y-23.2000 F100.00
G01 X28.6426 Y-23.2417 F100.00
G01 X28.6460 Y-23.2887 F100.00
G01 X29.1203 Y-23.2892 F100.00
G01 X29.1607 Y-23.3030 F100.00
G01 X29.1905 Y-23.3328 F100.00
G01 X29.2020 Y-23.3598 F100.00
G01 X29.2048 Y-23.3825 F100.00
G01 X29.2048 Y-24.7541 F100.00
G01 X29.1967 Y-24.7922 F100.00
G01 X29.1773 Y-24.8204 F100.00
G01 X29.1491 Y-24.8398 F100.00
G01 X29.1110 Y-24.8479 F100.00
G01 X27.7394 Y-24.8479 F100.00
G01 X27.7013 Y-24.8398 F100.00
G01 X27.6703 Y-24.8174 F100.00
G01 X27.6512 Y-24.7858 F100.00
G01 X27.6456 Y-24.7541 F100.00
G01 X27.6456 Y-23.3825 F100.00
G01 X27.6505 Y-23.3529 F100.00
G01 X27.6761 Y-23.3134 F100.00
G01 X27.6995 Y-23.2977 F100.00
G01 X27.7260 Y-23.2897 F100.00
G01 X28.1215 Y-23.2887 F100.00
G01 X25.9546 Y-21.1219 F100.00
G01 X25.8765 Y-21.1865 F100.00
G01 X25.8233 Y-21.2184 F100.00
G01 X25.7296 Y-21.2568 F100.00
G01 X25.6309 Y-21.2767 F100.00
G01 X24.7726 Y-21.2799 F100.00
G01 X24.7505 Y-21.3522 F100.00
G01 X24.7180 Y-21.4111 F100.00
G01 X24.6779 Y-21.4595 F100.00
G01 X24.6219 Y-21.5047 F100.00
G01 X24.5621 Y-21.5356 F100.00
G01 X24.4973 Y-21.5543 F100.00
G01 X24.4394 Y-21.5600 F100.00
G01 X24.3181 Y-21.5601 F100.00
G01 X24.3181 Y-21.9342 F100.00
G01 X24.4312 Y-21.9344 F100.00
G01 X24.4957 Y-21.9413 F100.00
G01 X24.5539 Y-21.9588 F100.00
G01 X24.6137 Y-21.9897 F100.00
G01 X24.6697 Y-22.0349 F100.00
G01 X24.7098 Y-22.0833 F100.00
G01 X24.7423 Y-22.1422 F100.00
G01 X24.7633 Y-22.2089 F100.00
G01 X24.7703 Y-22.2780 F100.00
G01 X24.7703 Y-23.2280 F100.00
G01 X24.7633 Y-23.2971 F100.00
G01 X24.7423 Y-23.3638 F100.00
G01 X24.6949 Y-23.4428 F100.00
G01 X24.6663 Y-23.4742 F100.00
G01 X24.6213 Y-23.5112 F100.00
G01 X24.5539 Y-23.5472 F100.00
G01 X24.4982 Y-23.5641 F100.00
G01 X24.4615 Y-23.5700 F100.00
G01 X23.7167 Y-23.5700 F100.00
G01 X23.6521 Y-23.5570 F100.00
G01 X23.5937 Y-23.5332 F100.00
G01 X23.5569 Y-23.5112 F100.00
G01 X23.5085 Y-23.4711 F100.00
G01 X23.4684 Y-23.4227 F100.00
G01 X23.4359 Y-23.3638 F100.00
G01 X23.4155 Y-23.2996 F100.00
G01 X23.4092 Y-23.2571 F100.00
G01 X23.4079 Y-22.2780 F100.00
G01 X23.4149 Y-22.2089 F100.00
G01 X23.4359 Y-22.1422 F100.00
G01 X23.4684 Y-22.0833 F100.00
G01 X23.5300 Y-22.0153 F100.00
G01 X23.5856 Y-21.9771 F100.00
G01 X23.6521 Y-21.9490 F100.00
G01 X23.7133 Y-21.9365 F100.00
G01 X23.8765 Y-21.9343 F100.00
G01 X23.8765 Y-21.5602 F100.00
G01 X23.7249 Y-21.5584 F100.00
G01 X23.6644 Y-21.5466 F100.00
G01 X23.6240 Y-21.5321 F100.00
G01 X23.5651 Y-21.4996 F100.00
G01 X23.5201 Y-21.4626 F100.00
G01 X23.4915 Y-21.4312 F100.00
G01 X23.4555 Y-21.3762 F100.00
G01 X23.4296 Y-21.3118 F100.00
G01 X23.4162 Y-21.2210 F100.00
G01 X23.4161 Y-20.3724 F100.00
G01 X23.0049 Y-19.9611 F100.00
G01 X22.9717 Y-19.9164 F100.00
G01 X22.9543 Y-19.8768 F100.00
G01 X22.9434 Y-19.8083 F100.00
G01 X22.9434 Y-18.5030 F100.00
G01 X22.9316 Y-18.4785 F100.00
G00 Z2.0000
G00 X23.4292 Y-18.4716
G01 F60.00
G01 Z-0.0700
G01 F100.00
G01 X23.4205 Y-18.4182 F100.00
G01 X23.4205 Y-17.0932 F100.00
G01 X23.4237 Y-17.0602 F100.00
G01 X23.4383 Y-17.0178 F100.00
G01 X23.4600 Y-16.9846 F100.00
G01 X23.4917 Y-16.9555 F100.00
G01 X23.5289 Y-16.9356 F100.00
G01 X23.5846 Y-16.9246 F100.00
G01 X23.7722 Y-16.9277 F100.00
G01 X23.8201 Y-16.9451 F100.00
G01 X23.8617 Y-16.9772 F100.00
G01 X23.8942 Y-17.0264 F100.00
G01 X23.9071 Y-17.0765 F100.00
G01 X23.9079 Y-18.4182 F100.00
G01 X23.8988 Y-18.4727 F100.00
G01 X24.7153 Y-19.2892 F100.00
G01 X26.7050 Y-19.2892 F100.00
G01 X26.7647 Y-19.2975 F100.00
G01 X26.8238 Y-19.3239 F100.00
G01 X26.8611 Y-19.3539 F100.00
G01 X29.9994 Y-22.4934 F100.00
G01 X30.0357 Y-22.5548 F100.00
G01 X30.0466 Y-22.5918 F100.00
G01 X30.0508 Y-22.6350 F100.00
G01 X30.0492 Y-24.9612 F100.00
G01 X30.0321 Y-25.0237 F100.00
G01 X29.9994 Y-25.0766 F100.00
G01 X29.5672 Y-25.5088 F100.00
G01 X29.5058 Y-25.5451 F100.00
G01 X29.4688 Y-25.5560 F100.00
G01 X29.4256 Y-25.5602 F100.00
G01 X25.0674 Y-25.5602 F100.00
G01 X25.0651 Y-25.7277 F100.00
G01 X25.0526 Y-25.7889 F100.00
G01 X25.0245 Y-25.8554 F100.00
G01 X24.9863 Y-25.9110 F100.00
G01 X24.9183 Y-25.9726 F100.00
G01 X24.8594 Y-26.0051 F100.00
G01 X24.7927 Y-26.0261 F100.00
G01 X24.7236 Y-26.0331 F100.00
G01 X23.7887 Y-26.0314 F100.00
G01 X23.7241 Y-26.0184 F100.00
G01 X23.6638 Y-25.9937 F100.00
G01 X23.6088 Y-25.9577 F100.00
G01 X23.5609 Y-25.9110 F100.00
G01 X23.5353 Y-25.8765 F100.00
G01 X23.5044 Y-25.8167 F100.00
G01 X23.4869 Y-25.7585 F100.00
G01 X23.4812 Y-25.7185 F100.00
G01 X23.4799 Y-24.9894 F100.00
G01 X23.4857 Y-24.9269 F100.00
G01 X23.4961 Y-24.8852 F100.00
G01 X23.5193 Y-24.8296 F100.00
G01 X23.5553 Y-24.7746 F100.00
G01 X23.5839 Y-24.7432 F100.00
G01 X23.6365 Y-24.7011 F100.00
G01 X23.6878 Y-24.6737 F100.00
G01 X23.7282 Y-24.6592 F100.00
G01 X23.7853 Y-24.6479 F100.00
G01 X24.7236 Y-24.6457 F100.00
G01 X24.7927 Y-24.6527 F100.00
G01 X24.8509 Y-24.6702 F100.00
G01 X24.9107 Y-24.7011 F100.00
G01 X24.9452 Y-24.7267 F100.00
G01 X24.9919 Y-24.7746 F100.00
G01 X25.0288 Y-24.8315 F100.00
G01 X25.0526 Y-24.8899 F100.00
G01 X25.0651 Y-24.9511 F100.00
G01 X25.0673 Y-25.1186 F100.00
G01 X29.3341 Y-25.1186 F100.00
G01 X29.6092 Y-24.8435 F100.00
G01 X29.6092 Y-22.7265 F100.00
G01 X26.6135 Y-19.7308 F100.00
G01 X24.6238 Y-19.7308 F100.00
G01 X24.5807 Y-19.7266 F100.00
G01 X24.5436 Y-19.7157 F100.00
G01 X24.5051 Y-19.6961 F100.00
G01 X24.4677 Y-19.6662 F100.00
G01 X23.4965 Y-18.6939 F100.00
G01 X23.4674 Y-18.6503 F100.00
G01 X23.4517 Y-18.6100 F100.00
G01 X23.4445 Y-18.5721 F100.00
G01 X23.4434 Y-18.5030 F100.00
G01 X23.4292 Y-18.4716 F100.00
G00 Z2.0000
G00 X24.2995 Y-16.9356
G01 F60.00
G01 Z-0.0700
G01 F100.00
G01 X24.3367 Y-16.9555 F100.00
G01 X24.3684 Y-16.9846 F100.00
G01 X24.3901 Y-17.0178 F100.00
G01 X24.4047 Y-17.0602 F100.00
G01 X24.4079 Y-17.0932 F100.00
G01 X24.4079 Y-17.5349 F100.00
G01 X24.4204 Y-17.5349 F100.00
G01 X24.4209 Y-17.0812 F100.00
G01 X24.4276 Y-17.0445 F100.00
G01 X24.4411 Y-17.0123 F100.00
G01 X24.4806 Y-16.9640 F100.00
G01 X24.5083 Y-16.9451 F100.00
G01 X24.5405 Y-16.9316 F100.00
G01 X24.5846 Y-16.9246 F100.00
G01 X24.7438 Y-16.9246 F100.00
G01 X24.7995 Y-16.9356 F100.00
G01 X24.8426 Y-16.9599 F100.00
G01 X24.8811 Y-17.0018 F100.00
G01 X24.9019 Y-17.0486 F100.00
G01 X24.9079 Y-17.0932 F100.00
G01 X24.9079 Y-17.5349 F100.00
G01 X26.1172 Y-17.5350 F100.00
G01 X26.1558 Y-17.5391 F100.00
G01 X26.1928 Y-17.5500 F100.00
