(G-code generated by FlatCAM Evo vUnstable - Version Date: 2023/6/31)

(Name: solderingStationPCB-PTH.drl_edit_cnc)
(Type: G-code from Excellon)
(Units: MM)

(Created on Thursday, 02 May 2024 at 01:11)

(This preprocessor is used with a motion controller loaded with GRBL firmware.)
(It is configured to be compatible with almost any version of GRBL firmware. No M6 command.)


(TOOLS DIAMETER: )
(Tool: 1 -> Dia: 0.2997)

(FEEDRATE Z: )
(Tool: 1 -> Feedrate: 80.0)

(FEEDRATE RAPIDS: )
(Tool: 1 -> Feedrate Rapids: 1500)

(Z_CUT: )
(Tool: 1 -> Z_Cut: -1.7)

(Tools Offset: )
(Tool: 1 -> Offset Z: 0.0)

(Z_MOVE: )
(Tool: 1 -> Z_Move: 2)

(Z Start: None mm)
(Z End: 15 mm)
(X,Y End: None mm)
(Steps per circle: 16)
(Steps per circle: 16)
(Preprocessor Excellon: GRBL_11_no_M6)

(X range:  -72.7304 ...    0.1549  mm)
(Y range:  -28.0111 ...   -0.8357  mm)

(Spindle Speed: 10000 RPM)
G21
G90
G17
G94


G01 F80.00
G00 Z2.0000

M03 S10000
G00 X-1.3487 Y-8.3795
G01 Z-1.7000
G01 Z0
G00 Z2.0000
G00 X-4.3155 Y-6.5049
G01 Z-1.7000
G01 Z0
G00 Z2.0000
G00 X-9.3142 Y-6.5049
G01 Z-1.7000
G01 Z0
G00 Z2.0000
G00 X-15.0038 Y-6.5354
G01 Z-1.7000
G01 Z0
G00 Z2.0000
G00 X-16.8046 Y-9.2608
G01 Z-1.7000
G01 Z0
G00 Z2.0000
G00 X-17.4193 Y-6.4389
G01 Z-1.7000
G01 Z0
G00 Z2.0000
G00 X-15.2146 Y-2.5857
G01 Z-1.7000
G01 Z0
G00 Z2.0000
G00 X-17.7546 Y-2.5857
G01 Z-1.7000
G01 Z0
G00 Z2.0000
G00 X-20.2946 Y-2.5857
G01 Z-1.7000
G01 Z0
G00 Z2.0000
G00 X-22.8346 Y-2.5857
G01 Z-1.7000
G01 Z0
G00 Z2.0000
G00 X-22.2301 Y-4.4094
G01 Z-1.7000
G01 Z0
G00 Z2.0000
G00 X-26.3804 Y-8.8113
G01 Z-1.7000
G01 Z0
G00 Z2.0000
G00 X-29.2710 Y-8.6309
G01 Z-1.7000
G01 Z0
G00 Z2.0000
G00 X-31.3995 Y-13.6347
G01 Z-1.7000
G01 Z0
G00 Z2.0000
G00 X-35.9994 Y-6.5989
G01 Z-1.7000
G01 Z0
G00 Z2.0000
G00 X-31.6255 Y-2.7864
G01 Z-1.7000
G01 Z0
G00 Z2.0000
G00 X-34.1655 Y-2.7864
G01 Z-1.7000
G01 Z0
G00 Z2.0000
G00 X-36.7055 Y-2.7864
G01 Z-1.7000
G01 Z0
G00 Z2.0000
G00 X-39.2455 Y-2.7864
G01 Z-1.7000
G01 Z0
G00 Z2.0000
G00 X-41.7855 Y-2.7864
G01 Z-1.7000
G01 Z0
G00 Z2.0000
G00 X-44.3255 Y-2.7864
G01 Z-1.7000
G01 Z0
G00 Z2.0000
G00 X-44.5008 Y-4.8997
G01 Z-1.7000
G01 Z0
G00 Z2.0000
G00 X-41.0007 Y-5.3010
G01 Z-1.7000
G01 Z0
G00 Z2.0000
G00 X-39.9999 Y-8.3261
G01 Z-1.7000
G01 Z0
G00 Z2.0000
G00 X-39.8932 Y-16.2611
G01 Z-1.7000
G01 Z0
G00 Z2.0000
G00 X-46.6547 Y-16.3855
G01 Z-1.7000
G01 Z0
G00 Z2.0000
G00 X-52.4561 Y-17.8587
G01 Z-1.7000
G01 Z0
G00 Z2.0000
G00 X-56.9798 Y-18.4353
G01 Z-1.7000
G01 Z0
G00 Z2.0000
G00 X-59.2303 Y-18.4099
G01 Z-1.7000
G01 Z0
G00 Z2.0000
G00 X-60.5663 Y-16.1290
G01 Z-1.7000
G01 Z0
G00 Z2.0000
G00 X-60.5663 Y-14.6304
G01 Z-1.7000
G01 Z0
G00 Z2.0000
G00 X-64.9808 Y-19.2862
G01 Z-1.7000
G01 Z0
G00 Z2.0000
G00 X-65.9562 Y-21.0109
G01 Z-1.7000
G01 Z0
G00 Z2.0000
G00 X-66.7487 Y-18.2804
G01 Z-1.7000
G01 Z0
G00 Z2.0000
G00 X-67.6732 Y-15.4407
G01 Z-1.7000
G01 Z0
G00 Z2.0000
G00 X-62.8244 Y-5.8598
G01 Z-1.7000
G01 Z0
G00 Z2.0000
G00 X-55.3872 Y-3.0963
G01 Z-1.7000
G01 Z0
G00 Z2.0000
G00 X-54.7548 Y-0.9855
G01 Z-1.7000
G01 Z0
G00 Z2.0000
G00 X-60.3098 Y-2.7915
G01 Z-1.7000
G01 Z0
G00 Z2.0000
G00 X-62.8091 Y-2.7915
G01 Z-1.7000
G01 Z0
G00 Z2.0000
G00 X-67.7596 Y-3.1140
G01 Z-1.7000
G01 Z0
G00 Z2.0000
G00 X-67.4268 Y-6.9977
G01 Z-1.7000
G01 Z0
G00 Z2.0000
G00 X-71.1733 Y-7.0053
G01 Z-1.7000
G01 Z0
G00 Z2.0000
G00 X-72.5805 Y-12.3596
G01 Z-1.7000
G01 Z0
G00 Z2.0000
G00 X-70.6577 Y-15.4407
G01 Z-1.7000
G01 Z0
G00 Z2.0000
G00 X-71.5797 Y-18.2804
G01 Z-1.7000
G01 Z0
G00 Z2.0000
G00 X-69.1642 Y-20.0355
G01 Z-1.7000
G01 Z0
G00 Z2.0000
G00 X-71.9811 Y-21.6103
G01 Z-1.7000
G01 Z0
G00 Z2.0000
G00 X-68.7045 Y-23.0861
G01 Z-1.7000
G01 Z0
G00 Z2.0000
G00 X-65.9054 Y-22.9108
G01 Z-1.7000
G01 Z0
G00 Z2.0000
G00 X-62.7050 Y-27.1755
G01 Z-1.7000
G01 Z0
G00 Z2.0000
G00 X-60.8990 Y-26.4998
G01 Z-1.7000
G01 Z0
G00 Z2.0000
G00 X-60.1040 Y-23.2359
G01 Z-1.7000
G01 Z0
G00 Z2.0000
G00 X-55.8292 Y-24.5339
G01 Z-1.7000
G01 Z0
G00 Z2.0000
G00 X-53.8302 Y-24.5593
G01 Z-1.7000
G01 Z0
G00 Z2.0000
G00 X-47.4294 Y-24.8844
G01 Z-1.7000
G01 Z0
G00 Z2.0000
G00 X-42.6288 Y-27.5336
G01 Z-1.7000
G01 Z0
G00 Z2.0000
G00 X-41.1277 Y-27.5336
G01 Z-1.7000
G01 Z0
G00 Z2.0000
G00 X-32.4256 Y-24.0690
G01 Z-1.7000
G01 Z0
G00 Z2.0000
G00 X-28.4251 Y-24.0690
G01 Z-1.7000
G01 Z0
G00 Z2.0000
G00 X-27.6047 Y-17.6352
G01 Z-1.7000
G01 Z0
G00 Z2.0000
G00 X-25.7302 Y-20.5842
G01 Z-1.7000
G01 Z0
G00 Z2.0000
G00 X-25.8242 Y-24.2240
G01 Z-1.7000
G01 Z0
G00 Z2.0000
G00 X-21.1557 Y-24.0360
G01 Z-1.7000
G01 Z0
G00 Z2.0000
G00 X-16.6802 Y-25.8343
G01 Z-1.7000
G01 Z0
G00 Z2.0000
G00 X-17.7038 Y-27.5133
G01 Z-1.7000
G01 Z0
G00 Z2.0000
G00 X-16.2027 Y-27.5133
G01 Z-1.7000
G01 Z0
G00 Z2.0000
G00 X-9.9060 Y-27.8613
G01 Z-1.7000
G01 Z0
G00 Z2.0000
G00 X-7.0206 Y-26.3169
G01 Z-1.7000
G01 Z0
G00 Z2.0000
G00 X-7.0206 Y-24.8183
G01 Z-1.7000
G01 Z0
G00 Z2.0000
G00 X-5.0800 Y-26.9342
G01 Z-1.7000
G01 Z0
G00 Z2.0000
G00 X-4.6558 Y-24.1859
G01 Z-1.7000
G01 Z0
G00 Z2.0000
G00 X-1.7551 Y-20.3860
G01 Z-1.7000
G01 Z0
G00 Z2.0000
G00 X-4.3155 Y-21.0033
G01 Z-1.7000
G01 Z0
G00 Z2.0000
G00 X-6.8148 Y-21.0033
G01 Z-1.7000
G01 Z0
G00 Z2.0000
G00 X-9.3142 Y-21.0033
G01 Z-1.7000
G01 Z0
G00 Z2.0000
G00 X-16.8808 Y-18.4099
G01 Z-1.7000
G01 Z0
G00 Z2.0000
G00 X-18.0543 Y-17.6098
G01 Z-1.7000
G01 Z0
G00 Z2.0000
G00 X-16.2738 Y-13.5509
G01 Z-1.7000
G01 Z0
G00 Z2.0000
G00 X-12.5146 Y-13.5052
G01 Z-1.7000
G01 Z0
G00 Z2.0000
G00 X-9.9543 Y-13.8100
G01 Z-1.7000
G01 Z0
G00 Z2.0000
G00 X-2.4994 Y-16.3906
G01 Z-1.7000
G01 Z0
G00 Z2.0000
G00 X-1.1151 Y-13.5052
G01 Z-1.7000
G01 Z0
G00 Z2.0000
G00 X-3.6043 Y-9.5606
G01 Z-1.7000
G01 Z0
G00 Z2.0000
M05
G00 Z15.00


