(G-code generated by FlatCAM Evo vUnstable - Version Date: 2023/6/31)

(Name: solderingStationPCB-F_Paste.gbr_edit_iso_combined_cnc)
(Type: G-code from Geometry)
(Units: MM)

(Created on Saturday, 11 May 2024 at 03:27)

(This preprocessor is used with a motion controller loaded with GRBL firmware.)
(It is configured to be compatible with almost any version of GRBL firmware. No M6 command.)

(TOOL DIAMETER: 0.1804 mm)
(Feedrate_XY: 50.0 mm/min)
(Feedrate_Z: 60.0 mm/min)
(Feedrate rapids 1500.0 mm/min)

(Z_Cut: -0.15 mm)
(Z_Move: 2.0 mm)
(Z Start: None mm)
(Z End: 15.0 mm)
(X,Y End: None mm)
(Steps per circle: 16)
(Steps per circle: 16)
(Preprocessor Geometry: GRBL_11_no_M6)

(X range:    1.6874 ...   60.6924  mm)
(Y range:  -28.0200 ...   -0.5716  mm)

(Spindle Speed: 10000.0 RPM)
G21
G90
G17
G94


G01 F50.00
G00 Z2.0000

M03 S10000.0
G01 F50.00
G00 X6.2930 Y-9.7540
G01 F60.00
G01 Z-0.1500
G01 F50.00
G01 X6.2686 Y-9.7870 F50.00
G01 X6.2394 Y-9.8093 F50.00
G01 X6.2060 Y-9.8231 F50.00
G01 X6.1669 Y-9.8282 F50.00
G01 X5.4603 Y-9.8276 F50.00
G01 X5.4290 Y-9.8219 F50.00
G01 X5.4036 Y-9.8114 F50.00
G01 X5.3614 Y-9.7768 F50.00
G01 X5.3371 Y-9.7328 F50.00
G01 X5.3294 Y-9.6853 F50.00
G01 X5.3294 Y-8.7907 F50.00
G01 X5.3323 Y-8.7607 F50.00
G01 X5.3421 Y-8.7304 F50.00
G01 X5.3587 Y-8.7027 F50.00
G01 X5.3808 Y-8.6798 F50.00
G01 X5.4248 Y-8.6555 F50.00
G01 X5.4701 Y-8.6479 F50.00
G01 X6.1669 Y-8.6478 F50.00
G01 X6.1969 Y-8.6507 F50.00
G01 X6.2272 Y-8.6605 F50.00
G01 X6.2549 Y-8.6771 F50.00
G01 X6.2778 Y-8.6992 F50.00
G01 X6.3021 Y-8.7432 F50.00
G01 X6.3098 Y-8.7907 F50.00
G01 X6.3098 Y-9.6853 F50.00
G01 X6.3059 Y-9.7196 F50.00
G01 X6.2930 Y-9.7540 F50.00
G00 Z2.0000
G00 X8.2930 Y-9.7540
G01 F60.00
G01 Z-0.1500
G01 F50.00
G01 X8.2686 Y-9.7870 F50.00
G01 X8.2394 Y-9.8093 F50.00
G01 X8.2060 Y-9.8231 F50.00
G01 X8.1669 Y-9.8282 F50.00
G01 X7.4603 Y-9.8276 F50.00
G01 X7.4290 Y-9.8219 F50.00
G01 X7.4036 Y-9.8114 F50.00
G01 X7.3614 Y-9.7768 F50.00
G01 X7.3371 Y-9.7328 F50.00
G01 X7.3294 Y-9.6853 F50.00
G01 X7.3294 Y-8.7907 F50.00
G01 X7.3323 Y-8.7607 F50.00
G01 X7.3421 Y-8.7304 F50.00
G01 X7.3587 Y-8.7027 F50.00
G01 X7.3808 Y-8.6798 F50.00
G01 X7.4248 Y-8.6555 F50.00
G01 X7.4701 Y-8.6479 F50.00
G01 X8.1669 Y-8.6478 F50.00
G01 X8.1969 Y-8.6507 F50.00
G01 X8.2272 Y-8.6605 F50.00
G01 X8.2549 Y-8.6771 F50.00
G01 X8.2778 Y-8.6992 F50.00
G01 X8.3021 Y-8.7432 F50.00
G01 X8.3098 Y-8.7907 F50.00
G01 X8.3098 Y-9.6853 F50.00
G01 X8.3059 Y-9.7196 F50.00
G01 X8.2930 Y-9.7540 F50.00
G00 Z2.0000
G00 X7.3416 Y-12.1330
G01 F60.00
G01 Z-0.1500
G01 F50.00
G01 X7.3115 Y-12.1129 F50.00
G01 X7.2849 Y-12.0816 F50.00
G01 X7.2697 Y-12.0482 F50.00
G01 X7.2634 Y-12.0049 F50.00
G01 X7.2640 Y-11.2983 F50.00
G01 X7.2697 Y-11.2670 F50.00
G01 X7.2802 Y-11.2416 F50.00
G01 X7.3148 Y-11.1994 F50.00
G01 X7.3588 Y-11.1751 F50.00
G01 X7.4063 Y-11.1674 F50.00
G01 X8.3009 Y-11.1674 F50.00
G01 X8.3309 Y-11.1703 F50.00
G01 X8.3612 Y-11.1801 F50.00
G01 X8.3889 Y-11.1967 F50.00
G01 X8.4118 Y-11.2188 F50.00
G01 X8.4361 Y-11.2628 F50.00
G01 X8.4437 Y-11.3081 F50.00
G01 X8.4438 Y-12.0049 F50.00
G01 X8.4409 Y-12.0349 F50.00
G01 X8.4311 Y-12.0652 F50.00
G01 X8.4145 Y-12.0929 F50.00
G01 X8.3924 Y-12.1158 F50.00
G01 X8.3484 Y-12.1401 F50.00
G01 X8.3009 Y-12.1478 F50.00
G01 X7.4063 Y-12.1478 F50.00
G01 X7.3720 Y-12.1439 F50.00
G01 X7.3416 Y-12.1330 F50.00
G00 Z2.0000
G00 X7.3376 Y-14.1310
G01 F60.00
G01 Z-0.1500
G01 F50.00
G01 X7.3046 Y-14.1066 F50.00
G01 X7.2823 Y-14.0774 F50.00
G01 X7.2685 Y-14.0440 F50.00
G01 X7.2634 Y-14.0049 F50.00
G01 X7.2640 Y-13.2983 F50.00
G01 X7.2697 Y-13.2670 F50.00
G01 X7.2802 Y-13.2416 F50.00
G01 X7.3148 Y-13.1994 F50.00
G01 X7.3588 Y-13.1751 F50.00
G01 X7.4063 Y-13.1674 F50.00
G01 X8.3009 Y-13.1674 F50.00
G01 X8.3309 Y-13.1703 F50.00
G01 X8.3612 Y-13.1801 F50.00
G01 X8.3889 Y-13.1967 F50.00
G01 X8.4118 Y-13.2188 F50.00
G01 X8.4361 Y-13.2628 F50.00
G01 X8.4437 Y-13.3081 F50.00
G01 X8.4438 Y-14.0049 F50.00
G01 X8.4409 Y-14.0349 F50.00
G01 X8.4311 Y-14.0652 F50.00
G01 X8.4145 Y-14.0929 F50.00
G01 X8.3924 Y-14.1158 F50.00
G01 X8.3484 Y-14.1401 F50.00
G01 X8.3009 Y-14.1478 F50.00
G01 X7.4063 Y-14.1478 F50.00
G01 X7.3720 Y-14.1439 F50.00
G01 X7.3376 Y-14.1310 F50.00
G00 Z2.0000
G00 X3.8284 Y-14.1346
G01 F60.00
G01 Z-0.1500
G01 F50.00
G01 X3.7954 Y-14.1102 F50.00
G01 X3.7731 Y-14.0810 F50.00
G01 X3.7593 Y-14.0476 F50.00
G01 X3.7542 Y-14.0085 F50.00
G01 X3.7548 Y-13.3019 F50.00
G01 X3.7605 Y-13.2706 F50.00
G01 X3.7710 Y-13.2452 F50.00
G01 X3.8056 Y-13.2030 F50.00
G01 X3.8496 Y-13.1787 F50.00
G01 X3.8971 Y-13.1710 F50.00
G01 X4.7917 Y-13.1710 F50.00
G01 X4.8217 Y-13.1739 F50.00
G01 X4.8520 Y-13.1837 F50.00
G01 X4.8797 Y-13.2003 F50.00
G01 X4.9026 Y-13.2224 F50.00
G01 X4.9269 Y-13.2664 F50.00
G01 X4.9345 Y-13.3117 F50.00
G01 X4.9346 Y-14.0085 F50.00
G01 X4.9317 Y-14.0385 F50.00
G01 X4.9219 Y-14.0688 F50.00
G01 X4.9053 Y-14.0965 F50.00
G01 X4.8832 Y-14.1194 F50.00
G01 X4.8392 Y-14.1437 F50.00
G01 X4.7917 Y-14.1514 F50.00
G01 X3.8971 Y-14.1514 F50.00
G01 X3.8628 Y-14.1475 F50.00
G01 X3.8284 Y-14.1346 F50.00
G00 Z2.0000
G00 X3.8284 Y-12.1346
G01 F60.00
G01 Z-0.1500
G01 F50.00
G01 X3.7954 Y-12.1102 F50.00
G01 X3.7731 Y-12.0810 F50.00
G01 X3.7593 Y-12.0476 F50.00
G01 X3.7542 Y-12.0085 F50.00
G01 X3.7548 Y-11.3019 F50.00
G01 X3.7605 Y-11.2706 F50.00
G01 X3.7710 Y-11.2452 F50.00
G01 X3.8056 Y-11.2030 F50.00
G01 X3.8496 Y-11.1787 F50.00
G01 X3.8971 Y-11.1710 F50.00
G01 X4.7917 Y-11.1710 F50.00
G01 X4.8217 Y-11.1739 F50.00
G01 X4.8520 Y-11.1837 F50.00
G01 X4.8797 Y-11.2003 F50.00
G01 X4.9026 Y-11.2224 F50.00
G01 X4.9269 Y-11.2664 F50.00
G01 X4.9345 Y-11.3117 F50.00
G01 X4.9346 Y-12.0085 F50.00
G01 X4.9317 Y-12.0385 F50.00
G01 X4.9219 Y-12.0688 F50.00
G01 X4.9053 Y-12.0965 F50.00
G01 X4.8832 Y-12.1194 F50.00
G01 X4.8392 Y-12.1437 F50.00
G01 X4.7917 Y-12.1514 F50.00
G01 X3.8971 Y-12.1514 F50.00
G01 X3.8628 Y-12.1475 F50.00
G01 X3.8284 Y-12.1346 F50.00
G00 Z2.0000
G00 X2.5163 Y-17.7675
G01 F60.00
G01 Z-0.1500
G01 F50.00
G01 X2.5646 Y-17.7814 F50.00
G01 X2.6016 Y-17.8078 F50.00
G01 X2.6301 Y-17.8492 F50.00
G01 X2.6419 Y-17.8931 F50.00
G01 X2.6428 Y-18.8541 F50.00
G01 X2.6365 Y-18.8974 F50.00
G01 X2.6190 Y-18.9346 F50.00
G01 X2.5984 Y-18.9588 F50.00
G01 X2.5686 Y-18.9802 F50.00
G01 X2.5390 Y-18.9919 F50.00
G01 X2.5021 Y-18.9969 F50.00
G01 X1.8303 Y-18.9970 F50.00
G01 X1.7870 Y-18.9907 F50.00
G01 X1.7498 Y-18.9732 F50.00
G01 X1.7256 Y-18.9526 F50.00
G01 X1.7042 Y-18.9228 F50.00
G01 X1.6913 Y-18.8884 F50.00
G01 X1.6874 Y-18.8541 F50.00
G01 X1.6874 Y-17.9095 F50.00
G01 X1.6937 Y-17.8662 F50.00
G01 X1.7112 Y-17.8290 F50.00
G01 X1.7286 Y-17.8078 F50.00
G01 X1.7536 Y-17.7881 F50.00
G01 X1.7828 Y-17.7743 F50.00
G01 X1.8139 Y-17.7675 F50.00
G01 X2.5163 Y-17.7675 F50.00
G00 Z2.0000
G00 X4.7010 Y-18.9228
G01 F60.00
G01 Z-0.1500
G01 F50.00
G01 X4.6766 Y-18.9558 F50.00
G01 X4.6474 Y-18.9781 F50.00
G01 X4.6140 Y-18.9919 F50.00
G01 X4.5749 Y-18.9970 F50.00
G01 X3.8933 Y-18.9964 F50.00
G01 X3.8620 Y-18.9907 F50.00
G01 X3.8366 Y-18.9802 F50.00
G01 X3.7944 Y-18.9456 F50.00
G01 X3.7701 Y-18.9016 F50.00
G01 X3.7624 Y-18.8541 F50.00
G01 X3.7624 Y-17.9095 F50.00
G01 X3.7653 Y-17.8795 F50.00
G01 X3.7751 Y-17.8492 F50.00
G01 X3.7917 Y-17.8215 F50.00
G01 X3.8138 Y-17.7986 F50.00
G01 X3.8578 Y-17.7743 F50.00
G01 X3.9031 Y-17.7667 F50.00
G01 X4.5749 Y-17.7666 F50.00
G01 X4.6049 Y-17.7695 F50.00
G01 X4.6352 Y-17.7793 F50.00
G01 X4.6629 Y-17.7959 F50.00
G01 X4.6858 Y-17.8180 F50.00
G01 X4.7101 Y-17.8620 F50.00
G01 X4.7178 Y-17.9095 F50.00
G01 X4.7178 Y-18.8541 F50.00
G01 X4.7139 Y-18.8884 F50.00
G01 X4.7010 Y-18.9228 F50.00
G00 Z2.0000
G00 X8.8215 Y-17.8418
G01 F60.00
G01 Z-0.1500
G01 F50.00
G01 X8.8426 Y-17.8066 F50.00
G01 X8.8730 Y-17.7790 F50.00
G01 X8.9102 Y-17.7615 F50.00
G01 X8.9513 Y-17.7553 F50.00
G01 X9.6351 Y-17.7558 F50.00
G01 X9.6664 Y-17.7615 F50.00
G01 X9.6918 Y-17.7720 F50.00
G01 X9.7340 Y-17.8066 F50.00
G01 X9.7583 Y-17.8506 F50.00
G01 X9.7660 Y-17.8981 F50.00
G01 X9.7660 Y-18.8427 F50.00
G01 X9.7631 Y-18.8727 F50.00
G01 X9.7533 Y-18.9030 F50.00
G01 X9.7367 Y-18.9307 F50.00
G01 X9.7146 Y-18.9536 F50.00
G01 X9.6706 Y-18.9779 F50.00
G01 X9.6253 Y-18.9855 F50.00
G01 X8.9535 Y-18.9856 F50.00
G01 X8.9235 Y-18.9827 F50.00
G01 X8.8932 Y-18.9729 F50.00
G01 X8.8655 Y-18.9563 F50.00
G01 X8.8426 Y-18.9342 F50.00
G01 X8.8183 Y-18.8902 F50.00
G01 X8.8106 Y-18.8427 F50.00
G01 X8.8106 Y-17.9003 F50.00
G01 X8.8135 Y-17.8681 F50.00
G01 X8.8215 Y-17.8418 F50.00
G00 Z2.0000
G00 X10.8949 Y-17.8460
G01 F60.00
G01 Z-0.1500
G01 F50.00
G01 X10.9176 Y-17.8066 F50.00
G01 X10.9480 Y-17.7790 F50.00
G01 X10.9852 Y-17.7615 F50.00
G01 X11.0263 Y-17.7553 F50.00
G01 X11.7101 Y-17.7558 F50.00
G01 X11.7414 Y-17.7615 F50.00
G01 X11.7668 Y-17.7720 F50.00
G01 X11.8090 Y-17.8066 F50.00
G01 X11.8333 Y-17.8506 F50.00
G01 X11.8410 Y-17.8981 F50.00
G01 X11.8410 Y-18.8427 F50.00
G01 X11.8381 Y-18.8727 F50.00
G01 X11.8283 Y-18.9030 F50.00
G01 X11.8117 Y-18.9307 F50.00
G01 X11.7896 Y-18.9536 F50.00
G01 X11.7456 Y-18.9779 F50.00
G01 X11.7003 Y-18.9855 F50.00
G01 X11.0285 Y-18.9856 F50.00
G01 X10.9985 Y-18.9827 F50.00
G01 X10.9682 Y-18.9729 F50.00
G01 X10.9405 Y-18.9563 F50.00
G01 X10.9176 Y-18.9342 F50.00
G01 X10.8933 Y-18.8902 F50.00
G01 X10.8856 Y-18.8427 F50.00
G01 X10.8856 Y-17.9003 F50.00
G01 X10.8949 Y-17.8460 F50.00
G00 Z2.0000
G00 X15.9246 Y-16.8821
G01 F60.00
G01 Z-0.1500
G01 F50.00
G01 X15.9598 Y-16.9032 F50.00
G01 X15.9874 Y-16.9336 F50.00
G01 X16.0049 Y-16.9708 F50.00
G01 X16.0111 Y-17.0119 F50.00
G01 X16.0106 Y-17.6957 F50.00
G01 X16.0049 Y-17.7270 F50.00
G01 X15.9944 Y-17.7524 F50.00
G01 X15.9598 Y-17.7946 F50.00
G01 X15.9158 Y-17.8189 F50.00
G01 X15.8683 Y-17.8266 F50.00
G01 X14.9237 Y-17.8266 F50.00
G01 X14.8937 Y-17.8237 F50.00
G01 X14.8634 Y-17.8139 F50.00
G01 X14.8357 Y-17.7973 F50.00
G01 X14.8128 Y-17.7752 F50.00
G01 X14.7885 Y-17.7312 F50.00
G01 X14.7809 Y-17.6859 F50.00
G01 X14.7808 Y-17.0141 F50.00
G01 X14.7837 Y-16.9841 F50.00
G01 X14.7935 Y-16.9538 F50.00
G01 X14.8101 Y-16.9261 F50.00
G01 X14.8322 Y-16.9032 F50.00
G01 X14.8762 Y-16.8789 F50.00
G01 X14.9237 Y-16.8712 F50.00
G01 X15.8661 Y-16.8712 F50.00
G01 X15.8983 Y-16.8741 F50.00
G01 X15.9246 Y-16.8821 F50.00
G00 Z2.0000
G00 X16.0033 Y-18.7555
G01 F60.00
G01 Z-0.1500
G01 F50.00
G01 X16.0322 Y-18.7728 F50.00
G01 X16.0549 Y-18.7978 F50.00
G01 X16.0693 Y-18.8283 F50.00
G01 X16.0745 Y-18.8644 F50.00
G01 X16.0737 Y-19.3230 F50.00
G01 X16.0573 Y-19.3718 F50.00
G01 X16.0232 Y-19.4073 F50.00
G01 X15.9927 Y-19.4217 F50.00
G01 X15.9566 Y-19.4269 F50.00
G01 X15.2120 Y-19.4269 F50.00
G01 X15.1826 Y-19.4235 F50.00
G01 X15.1551 Y-19.4131 F50.00
G01 X15.1312 Y-19.3960 F50.00
G01 X15.1137 Y-19.3756 F50.00
G01 X15.0993 Y-19.3451 F50.00
G01 X15.0941 Y-19.3090 F50.00
G01 X15.0946 Y-18.8548 F50.00
G01 X15.0993 Y-18.8283 F50.00
G01 X15.1101 Y-18.8037 F50.00
G01 X15.1454 Y-18.7661 F50.00
G01 X15.1759 Y-18.7517 F50.00
G01 X15.2120 Y-18.7465 F50.00
G01 X15.9544 Y-18.7465 F50.00
G01 X16.0033 Y-18.7555 F50.00
G00 Z2.0000
G00 X17.3478 Y-21.1082
G01 F60.00
G01 Z-0.1500
G01 F50.00
G01 X17.3148 Y-21.0838 F50.00
G01 X17.2925 Y-21.0546 F50.00
G01 X17.2787 Y-21.0212 F50.00
G01 X17.2736 Y-20.9821 F50.00
G01 X17.2742 Y-20.3005 F50.00
G01 X17.2799 Y-20.2692 F50.00
G01 X17.2904 Y-20.2438 F50.00
G01 X17.3250 Y-20.2016 F50.00
G01 X17.3690 Y-20.1773 F50.00
G01 X17.4165 Y-20.1696 F50.00
G01 X18.3611 Y-20.1696 F50.00
G01 X18.3911 Y-20.1725 F50.00
G01 X18.4214 Y-20.1823 F50.00
G01 X18.4491 Y-20.1989 F50.00
G01 X18.4720 Y-20.2210 F50.00
G01 X18.4963 Y-20.2650 F50.00
G01 X18.5039 Y-20.3103 F50.00
G01 X18.5040 Y-20.9821 F50.00
G01 X18.5011 Y-21.0121 F50.00
G01 X18.4913 Y-21.0424 F50.00
G01 X18.4747 Y-21.0701 F50.00
G01 X18.4526 Y-21.0930 F50.00
G01 X18.4086 Y-21.1173 F50.00
G01 X18.3611 Y-21.1250 F50.00
G01 X17.4165 Y-21.1250 F50.00
G01 X17.3822 Y-21.1211 F50.00
G01 X17.3478 Y-21.1082 F50.00
G00 Z2.0000
G00 X16.0033 Y-22.0555
G01 F60.00
G01 Z-0.1500
G01 F50.00
G01 X16.0322 Y-22.0728 F50.00
G01 X16.0549 Y-22.0978 F50.00
G01 X16.0693 Y-22.1283 F50.00
G01 X16.0745 Y-22.1644 F50.00
G01 X16.0737 Y-22.6230 F50.00
G01 X16.0573 Y-22.6718 F50.00
G01 X16.0232 Y-22.7073 F50.00
G01 X15.9927 Y-22.7217 F50.00
G01 X15.9566 Y-22.7269 F50.00
G01 X15.2120 Y-22.7269 F50.00
G01 X15.1826 Y-22.7235 F50.00
G01 X15.1551 Y-22.7131 F50.00
G01 X15.1312 Y-22.6960 F50.00
G01 X15.1137 Y-22.6756 F50.00
G01 X15.0993 Y-22.6451 F50.00
G01 X15.0941 Y-22.6090 F50.00
G01 X15.0946 Y-22.1548 F50.00
G01 X15.0993 Y-22.1283 F50.00
G01 X15.1101 Y-22.1037 F50.00
G01 X15.1454 Y-22.0661 F50.00
G01 X15.1759 Y-22.0517 F50.00
G01 X15.2120 Y-22.0465 F50.00
G01 X15.9544 Y-22.0465 F50.00
G01 X16.0033 Y-22.0555 F50.00
G00 Z2.0000
G00 X17.3478 Y-23.1832
G01 F60.00
G01 Z-0.1500
G01 F50.00
G01 X17.3148 Y-23.1588 F50.00
G01 X17.2925 Y-23.1296 F50.00
G01 X17.2787 Y-23.0962 F50.00
G01 X17.2736 Y-23.0571 F50.00
G01 X17.2742 Y-22.3755 F50.00
G01 X17.2799 Y-22.3442 F50.00
G01 X17.2904 Y-22.3188 F50.00
G01 X17.3250 Y-22.2766 F50.00
G01 X17.3690 Y-22.2523 F50.00
G01 X17.4165 Y-22.2446 F50.00
G01 X18.3611 Y-22.2446 F50.00
G01 X18.3911 Y-22.2475 F50.00
G01 X18.4214 Y-22.2573 F50.00
G01 X18.4491 Y-22.2739 F50.00
G01 X18.4720 Y-22.2960 F50.00
G01 X18.4963 Y-22.3400 F50.00
G01 X18.5039 Y-22.3853 F50.00
G01 X18.5040 Y-23.0571 F50.00
G01 X18.5011 Y-23.0871 F50.00
G01 X18.4913 Y-23.1174 F50.00
G01 X18.4747 Y-23.1451 F50.00
G01 X18.4526 Y-23.1680 F50.00
G01 X18.4086 Y-23.1923 F50.00
G01 X18.3611 Y-23.2000 F50.00
G01 X17.4165 Y-23.2000 F50.00
G01 X17.3822 Y-23.1961 F50.00
G01 X17.3478 Y-23.1832 F50.00
G00 Z2.0000
G00 X20.4836 Y-22.2425
G01 F60.00
G01 Z-0.1500
G01 F50.00
G01 X20.5230 Y-22.2652 F50.00
G01 X20.5506 Y-22.2956 F50.00
G01 X20.5681 Y-22.3328 F50.00
G01 X20.5743 Y-22.3739 F50.00
G01 X20.5738 Y-23.0577 F50.00
G01 X20.5681 Y-23.0890 F50.00
G01 X20.5576 Y-23.1144 F50.00
G01 X20.5230 Y-23.1566 F50.00
G01 X20.4790 Y-23.1809 F50.00
G01 X20.4315 Y-23.1886 F50.00
G01 X19.4869 Y-23.1886 F50.00
G01 X19.4569 Y-23.1857 F50.00
G01 X19.4266 Y-23.1759 F50.00
G01 X19.3989 Y-23.1593 F50.00
G01 X19.3760 Y-23.1372 F50.00
G01 X19.3517 Y-23.0932 F50.00
G01 X19.3441 Y-23.0479 F50.00
G01 X19.3440 Y-22.3761 F50.00
G01 X19.3469 Y-22.3461 F50.00
G01 X19.3567 Y-22.3158 F50.00
G01 X19.3733 Y-22.2881 F50.00
G01 X19.3954 Y-22.2652 F50.00
G01 X19.4394 Y-22.2409 F50.00
G01 X19.4869 Y-22.2332 F50.00
G01 X20.4293 Y-22.2332 F50.00
G01 X20.4836 Y-22.2425 F50.00
G00 Z2.0000
G00 X21.5473 Y-22.2244
G01 F60.00
G01 Z-0.1500
G01 F50.00
G01 X21.5684 Y-22.1892 F50.00
G01 X21.5988 Y-22.1616 F50.00
G01 X21.6360 Y-22.1441 F50.00
G01 X21.6771 Y-22.1379 F50.00
G01 X22.3609 Y-22.1384 F50.00
G01 X22.3922 Y-22.1441 F50.00
G01 X22.4176 Y-22.1546 F50.00
G01 X22.4598 Y-22.1892 F50.00
G01 X22.4841 Y-22.2332 F50.00
G01 X22.4918 Y-22.2807 F50.00
G01 X22.4918 Y-23.2253 F50.00
G01 X22.4889 Y-23.2553 F50.00
G01 X22.4791 Y-23.2856 F50.00
G01 X22.4625 Y-23.3133 F50.00
G01 X22.4404 Y-23.3362 F50.00
G01 X22.3964 Y-23.3605 F50.00
G01 X22.3511 Y-23.3681 F50.00
G01 X21.6793 Y-23.3682 F50.00
G01 X21.6493 Y-23.3653 F50.00
G01 X21.6190 Y-23.3555 F50.00
G01 X21.5913 Y-23.3389 F50.00
G01 X21.5684 Y-23.3168 F50.00
G01 X21.5441 Y-23.2728 F50.00
G01 X21.5364 Y-23.2253 F50.00
G01 X21.5364 Y-22.2829 F50.00
G01 X21.5393 Y-22.2507 F50.00
G01 X21.5473 Y-22.2244 F50.00
G00 Z2.0000
G00 X21.5555 Y-20.2128
G01 F60.00
G01 Z-0.1500
G01 F50.00
G01 X21.5766 Y-20.1776 F50.00
G01 X21.6070 Y-20.1500 F50.00
G01 X21.6442 Y-20.1325 F50.00
G01 X21.6853 Y-20.1263 F50.00
G01 X22.3691 Y-20.1268 F50.00
G01 X22.4004 Y-20.1325 F50.00
G01 X22.4258 Y-20.1430 F50.00
G01 X22.4680 Y-20.1776 F50.00
G01 X22.4923 Y-20.2216 F50.00
G01 X22.5000 Y-20.2691 F50.00
G01 X22.5000 Y-21.2137 F50.00
G01 X22.4971 Y-21.2437 F50.00
G01 X22.4873 Y-21.2740 F50.00
G01 X22.4707 Y-21.3017 F50.00
G01 X22.4486 Y-21.3246 F50.00
G01 X22.4046 Y-21.3489 F50.00
G01 X22.3593 Y-21.3565 F50.00
G01 X21.6875 Y-21.3566 F50.00
G01 X21.6575 Y-21.3537 F50.00
G01 X21.6272 Y-21.3439 F50.00
G01 X21.5995 Y-21.3273 F50.00
G01 X21.5766 Y-21.3052 F50.00
G01 X21.5523 Y-21.2612 F50.00
G01 X21.5446 Y-21.2137 F50.00
G01 X21.5446 Y-20.2713 F50.00
G01 X21.5475 Y-20.2391 F50.00
G01 X21.5555 Y-20.2128 F50.00
G00 Z2.0000
G00 X20.4878 Y-20.1691
G01 F60.00
G01 Z-0.1500
G01 F50.00
G01 X20.5230 Y-20.1902 F50.00
G01 X20.5506 Y-20.2206 F50.00
G01 X20.5681 Y-20.2578 F50.00
G01 X20.5743 Y-20.2989 F50.00
G01 X20.5738 Y-20.9827 F50.00
G01 X20.5681 Y-21.0140 F50.00
G01 X20.5576 Y-21.0394 F50.00
G01 X20.5230 Y-21.0816 F50.00
G01 X20.4790 Y-21.1059 F50.00
G01 X20.4315 Y-21.1136 F50.00
G01 X19.4869 Y-21.1136 F50.00
G01 X19.4569 Y-21.1107 F50.00
G01 X19.4266 Y-21.1009 F50.00
G01 X19.3989 Y-21.0843 F50.00
G01 X19.3760 Y-21.0622 F50.00
G01 X19.3517 Y-21.0182 F50.00
G01 X19.3441 Y-20.9729 F50.00
G01 X19.3440 Y-20.3011 F50.00
G01 X19.3469 Y-20.2711 F50.00
G01 X19.3567 Y-20.2408 F50.00
G01 X19.3733 Y-20.2131 F50.00
G01 X19.3954 Y-20.1902 F50.00
G01 X19.4394 Y-20.1659 F50.00
G01 X19.4869 Y-20.1582 F50.00
G01 X20.4293 Y-20.1582 F50.00
G01 X20.4615 Y-20.1611 F50.00
G01 X20.4878 Y-20.1691 F50.00
G00 Z2.0000
G00 X23.6305 Y-20.2128
G01 F60.00
G01 Z-0.1500
G01 F50.00
G01 X23.6516 Y-20.1776 F50.00
G01 X23.6820 Y-20.1500 F50.00
G01 X23.7192 Y-20.1325 F50.00
G01 X23.7603 Y-20.1263 F50.00
G01 X24.4441 Y-20.1268 F50.00
G01 X24.4754 Y-20.1325 F50.00
G01 X24.5008 Y-20.1430 F50.00
G01 X24.5430 Y-20.1776 F50.00
G01 X24.5673 Y-20.2216 F50.00
G01 X24.5750 Y-20.2691 F50.00
G01 X24.5750 Y-21.2137 F50.00
G01 X24.5721 Y-21.2437 F50.00
G01 X24.5623 Y-21.2740 F50.00
G01 X24.5457 Y-21.3017 F50.00
G01 X24.5236 Y-21.3246 F50.00
G01 X24.4796 Y-21.3489 F50.00
G01 X24.4343 Y-21.3565 F50.00
G01 X23.7625 Y-21.3566 F50.00
G01 X23.7325 Y-21.3537 F50.00
G01 X23.7022 Y-21.3439 F50.00
G01 X23.6745 Y-21.3273 F50.00
G01 X23.6516 Y-21.3052 F50.00
G01 X23.6273 Y-21.2612 F50.00
G01 X23.6196 Y-21.2137 F50.00
G01 X23.6196 Y-20.2713 F50.00
G01 X23.6225 Y-20.2391 F50.00
G01 X23.6305 Y-20.2128 F50.00
G00 Z2.0000
G00 X23.6223 Y-22.2244
G01 F60.00
G01 Z-0.1500
G01 F50.00
G01 X23.6434 Y-22.1892 F50.00
G01 X23.6738 Y-22.1616 F50.00
G01 X23.7110 Y-22.1441 F50.00
G01 X23.7521 Y-22.1379 F50.00
G01 X24.4359 Y-22.1384 F50.00
G01 X24.4672 Y-22.1441 F50.00
G01 X24.4926 Y-22.1546 F50.00
G01 X24.5348 Y-22.1892 F50.00
G01 X24.5591 Y-22.2332 F50.00
G01 X24.5668 Y-22.2807 F50.00
G01 X24.5668 Y-23.2253 F50.00
G01 X24.5639 Y-23.2553 F50.00
G01 X24.5541 Y-23.2856 F50.00
G01 X24.5375 Y-23.3133 F50.00
G01 X24.5154 Y-23.3362 F50.00
G01 X24.4714 Y-23.3605 F50.00
G01 X24.4261 Y-23.3681 F50.00
G01 X23.7543 Y-23.3682 F50.00
G01 X23.7243 Y-23.3653 F50.00
G01 X23.6940 Y-23.3555 F50.00
G01 X23.6663 Y-23.3389 F50.00
G01 X23.6434 Y-23.3168 F50.00
G01 X23.6191 Y-23.2728 F50.00
G01 X23.6114 Y-23.2253 F50.00
G01 X23.6114 Y-22.2829 F50.00
G01 X23.6143 Y-22.2507 F50.00
G01 X23.6223 Y-22.2244 F50.00
G00 Z2.0000
G00 X23.7576 Y-25.8128
G01 F60.00
G01 Z-0.1500
G01 F50.00
G01 X23.7246 Y-25.7884 F50.00
G01 X23.7023 Y-25.7592 F50.00
G01 X23.6885 Y-25.7258 F50.00
G01 X23.6834 Y-25.6867 F50.00
G01 X23.6840 Y-24.9801 F50.00
G01 X23.6897 Y-24.9488 F50.00
G01 X23.7002 Y-24.9234 F50.00
G01 X23.7348 Y-24.8812 F50.00
G01 X23.7788 Y-24.8569 F50.00
G01 X23.8263 Y-24.8492 F50.00
G01 X24.7209 Y-24.8492 F50.00
G01 X24.7509 Y-24.8521 F50.00
G01 X24.7812 Y-24.8619 F50.00
G01 X24.8089 Y-24.8785 F50.00
G01 X24.8318 Y-24.9006 F50.00
G01 X24.8561 Y-24.9446 F50.00
G01 X24.8637 Y-24.9899 F50.00
G01 X24.8638 Y-25.6867 F50.00
G01 X24.8609 Y-25.7167 F50.00
G01 X24.8511 Y-25.7470 F50.00
G01 X24.8345 Y-25.7747 F50.00
G01 X24.8124 Y-25.7976 F50.00
G01 X24.7684 Y-25.8219 F50.00
G01 X24.7209 Y-25.8296 F50.00
G01 X23.8263 Y-25.8296 F50.00
G01 X23.7920 Y-25.8257 F50.00
G01 X23.7576 Y-25.8128 F50.00
G00 Z2.0000
G00 X21.7600 Y-25.8130
G01 F60.00
G01 Z-0.1500
G01 F50.00
G01 X21.7270 Y-25.7886 F50.00
G01 X21.7047 Y-25.7594 F50.00
G01 X21.6909 Y-25.7260 F50.00
G01 X21.6858 Y-25.6869 F50.00
G01 X21.6864 Y-24.9803 F50.00
G01 X21.6921 Y-24.9490 F50.00
G01 X21.7026 Y-24.9236 F50.00
G01 X21.7372 Y-24.8814 F50.00
G01 X21.7812 Y-24.8571 F50.00
G01 X21.8287 Y-24.8494 F50.00
G01 X22.7233 Y-24.8494 F50.00
G01 X22.7533 Y-24.8523 F50.00
G01 X22.7836 Y-24.8621 F50.00
G01 X22.8113 Y-24.8787 F50.00
G01 X22.8342 Y-24.9008 F50.00
G01 X22.8585 Y-24.9448 F50.00
G01 X22.8661 Y-24.9901 F50.00
G01 X22.8662 Y-25.6869 F50.00
G01 X22.8633 Y-25.7169 F50.00
G01 X22.8535 Y-25.7472 F50.00
G01 X22.8369 Y-25.7749 F50.00
G01 X22.8148 Y-25.7978 F50.00
G01 X22.7708 Y-25.8221 F50.00
G01 X22.7233 Y-25.8298 F50.00
G01 X21.8287 Y-25.8298 F50.00
G01 X21.7944 Y-25.8259 F50.00
G01 X21.7600 Y-25.8130 F50.00
G00 Z2.0000
G00 X21.7640 Y-27.8150
G01 F60.00
G01 Z-0.1500
G01 F50.00
G01 X21.7302 Y-27.7916 F50.00
G01 X21.7073 Y-27.7636 F50.00
G01 X21.6921 Y-27.7302 F50.00
G01 X21.6858 Y-27.6869 F50.00
G01 X21.6864 Y-26.9803 F50.00
G01 X21.6921 Y-26.9490 F50.00
G01 X21.7026 Y-26.9236 F50.00
G01 X21.7372 Y-26.8814 F50.00
G01 X21.7812 Y-26.8571 F50.00
G01 X21.8287 Y-26.8494 F50.00
G01 X22.7233 Y-26.8494 F50.00
G01 X22.7533 Y-26.8523 F50.00
G01 X22.7836 Y-26.8621 F50.00
G01 X22.8113 Y-26.8787 F50.00
G01 X22.8342 Y-26.9008 F50.00
G01 X22.8585 Y-26.9448 F50.00
G01 X22.8661 Y-26.9901 F50.00
G01 X22.8662 Y-27.6869 F50.00
G01 X22.8633 Y-27.7169 F50.00
G01 X22.8535 Y-27.7472 F50.00
G01 X22.8369 Y-27.7749 F50.00
G01 X22.8148 Y-27.7978 F50.00
G01 X22.7708 Y-27.8221 F50.00
G01 X22.7233 Y-27.8298 F50.00
G01 X21.8287 Y-27.8298 F50.00
G01 X21.7944 Y-27.8259 F50.00
G01 X21.7640 Y-27.8150 F50.00
G00 Z2.0000
G00 X23.7576 Y-27.8128
G01 F60.00
G01 Z-0.1500
G01 F50.00
G01 X23.7246 Y-27.7884 F50.00
G01 X23.7023 Y-27.7592 F50.00
G01 X23.6885 Y-27.7258 F50.00
G01 X23.6834 Y-27.6867 F50.00
G01 X23.6840 Y-26.9801 F50.00
G01 X23.6897 Y-26.9488 F50.00
G01 X23.7002 Y-26.9234 F50.00
G01 X23.7348 Y-26.8812 F50.00
G01 X23.7788 Y-26.8569 F50.00
G01 X23.8263 Y-26.8492 F50.00
G01 X24.7209 Y-26.8492 F50.00
G01 X24.7509 Y-26.8521 F50.00
G01 X24.7812 Y-26.8619 F50.00
G01 X24.8089 Y-26.8785 F50.00
G01 X24.8318 Y-26.9006 F50.00
G01 X24.8561 Y-26.9446 F50.00
G01 X24.8637 Y-26.9899 F50.00
G01 X24.8638 Y-27.6867 F50.00
G01 X24.8609 Y-27.7167 F50.00
G01 X24.8511 Y-27.7470 F50.00
G01 X24.8345 Y-27.7747 F50.00
G01 X24.8124 Y-27.7976 F50.00
G01 X24.7684 Y-27.8219 F50.00
G01 X24.7209 Y-27.8296 F50.00
G01 X23.8263 Y-27.8296 F50.00
G01 X23.7920 Y-27.8257 F50.00
G01 X23.7576 Y-27.8128 F50.00
G00 Z2.0000
G00 X19.6500 Y-27.8360
G01 F60.00
G01 Z-0.1500
G01 F50.00
G01 X19.6170 Y-27.8116 F50.00
G01 X19.5947 Y-27.7824 F50.00
G01 X19.5809 Y-27.7490 F50.00
G01 X19.5758 Y-27.7099 F50.00
G01 X19.5764 Y-27.0033 F50.00
G01 X19.5821 Y-26.9720 F50.00
G01 X19.5926 Y-26.9466 F50.00
G01 X19.6272 Y-26.9044 F50.00
G01 X19.6712 Y-26.8801 F50.00
G01 X19.7187 Y-26.8724 F50.00
G01 X20.6133 Y-26.8724 F50.00
G01 X20.6433 Y-26.8753 F50.00
G01 X20.6736 Y-26.8851 F50.00
G01 X20.7013 Y-26.9017 F50.00
G01 X20.7242 Y-26.9238 F50.00
G01 X20.7485 Y-26.9678 F50.00
G01 X20.7561 Y-27.0131 F50.00
G01 X20.7562 Y-27.7099 F50.00
G01 X20.7533 Y-27.7399 F50.00
G01 X20.7435 Y-27.7702 F50.00
G01 X20.7269 Y-27.7979 F50.00
G01 X20.7048 Y-27.8208 F50.00
G01 X20.6608 Y-27.8451 F50.00
G01 X20.6133 Y-27.8528 F50.00
G01 X19.7187 Y-27.8528 F50.00
G01 X19.6844 Y-27.8489 F50.00
G01 X19.6500 Y-27.8360 F50.00
G00 Z2.0000
G00 X19.6500 Y-25.8360
G01 F60.00
G01 Z-0.1500
G01 F50.00
G01 X19.6170 Y-25.8116 F50.00
G01 X19.5947 Y-25.7824 F50.00
G01 X19.5809 Y-25.7490 F50.00
G01 X19.5758 Y-25.7099 F50.00
G01 X19.5764 Y-25.0033 F50.00
G01 X19.5821 Y-24.9720 F50.00
G01 X19.5926 Y-24.9466 F50.00
G01 X19.6272 Y-24.9044 F50.00
G01 X19.6712 Y-24.8801 F50.00
G01 X19.7187 Y-24.8724 F50.00
G01 X20.6133 Y-24.8724 F50.00
G01 X20.6433 Y-24.8753 F50.00
G01 X20.6736 Y-24.8851 F50.00
G01 X20.7013 Y-24.9017 F50.00
G01 X20.7242 Y-24.9238 F50.00
G01 X20.7485 Y-24.9678 F50.00
G01 X20.7561 Y-25.0131 F50.00
G01 X20.7562 Y-25.7099 F50.00
G01 X20.7533 Y-25.7399 F50.00
G01 X20.7435 Y-25.7702 F50.00
G01 X20.7269 Y-25.7979 F50.00
G01 X20.7048 Y-25.8208 F50.00
G01 X20.6608 Y-25.8451 F50.00
G01 X20.6133 Y-25.8528 F50.00
G01 X19.7187 Y-25.8528 F50.00
G01 X19.6844 Y-25.8489 F50.00
G01 X19.6500 Y-25.8360 F50.00
G00 Z2.0000
G00 X13.5671 Y-26.9304
G01 F60.00
G01 Z-0.1500
G01 F50.00
G01 X13.5898 Y-26.8910 F50.00
G01 X13.6202 Y-26.8634 F50.00
G01 X13.6574 Y-26.8459 F50.00
G01 X13.6985 Y-26.8397 F50.00
G01 X14.4073 Y-26.8402 F50.00
G01 X14.4600 Y-26.8544 F50.00
G01 X14.5033 Y-26.8877 F50.00
G01 X14.5289 Y-26.9304 F50.00
G01 X14.5382 Y-26.9825 F50.00
G01 X14.5382 Y-27.8749 F50.00
G01 X14.5353 Y-27.9071 F50.00
G01 X14.5273 Y-27.9334 F50.00
G01 X14.5118 Y-27.9612 F50.00
G01 X14.4901 Y-27.9851 F50.00
G01 X14.4474 Y-28.0107 F50.00
G01 X14.3975 Y-28.0199 F50.00
G01 X13.7007 Y-28.0200 F50.00
G01 X13.6707 Y-28.0171 F50.00
G01 X13.6404 Y-28.0073 F50.00
G01 X13.6127 Y-27.9907 F50.00
G01 X13.5927 Y-27.9719 F50.00
G01 X13.5671 Y-27.9292 F50.00
G01 X13.5578 Y-27.8771 F50.00
G01 X13.5578 Y-26.9847 F50.00
G01 X13.5671 Y-26.9304 F50.00
G00 Z2.0000
G00 X11.5687 Y-26.9262
G01 F60.00
G01 Z-0.1500
G01 F50.00
G01 X11.5898 Y-26.8910 F50.00
G01 X11.6202 Y-26.8634 F50.00
G01 X11.6574 Y-26.8459 F50.00
G01 X11.6985 Y-26.8397 F50.00
G01 X12.4073 Y-26.8402 F50.00
G01 X12.4600 Y-26.8544 F50.00
G01 X12.5033 Y-26.8877 F50.00
G01 X12.5289 Y-26.9304 F50.00
G01 X12.5382 Y-26.9825 F50.00
G01 X12.5382 Y-27.8749 F50.00
G01 X12.5353 Y-27.9071 F50.00
G01 X12.5273 Y-27.9334 F50.00
G01 X12.5118 Y-27.9612 F50.00
G01 X12.4901 Y-27.9851 F50.00
G01 X12.4474 Y-28.0107 F50.00
G01 X12.3975 Y-28.0199 F50.00
G01 X11.7007 Y-28.0200 F50.00
G01 X11.6707 Y-28.0171 F50.00
G01 X11.6404 Y-28.0073 F50.00
G01 X11.6127 Y-27.9907 F50.00
G01 X11.5927 Y-27.9719 F50.00
G01 X11.5671 Y-27.9292 F50.00
G01 X11.5578 Y-27.8771 F50.00
G01 X11.5578 Y-26.9847 F50.00
G01 X11.5607 Y-26.9525 F50.00
G01 X11.5687 Y-26.9262 F50.00
G00 Z2.0000
G00 X12.8736 Y-23.6308
G01 F60.00
G01 Z-0.1500
G01 F50.00
G01 X12.8937 Y-23.6037 F50.00
G01 X12.9170 Y-23.5858 F50.00
G01 X12.9459 Y-23.5738 F50.00
G01 X12.9777 Y-23.5698 F50.00
G01 X13.4363 Y-23.5706 F50.00
G01 X13.4851 Y-23.5870 F50.00
G01 X13.5206 Y-23.6211 F50.00
G01 X13.5350 Y-23.6516 F50.00
G01 X13.5402 Y-23.6877 F50.00
G01 X13.5402 Y-24.4323 F50.00
G01 X13.5368 Y-24.4617 F50.00
G01 X13.5264 Y-24.4892 F50.00
G01 X13.5093 Y-24.5131 F50.00
G01 X13.4889 Y-24.5306 F50.00
G01 X13.4584 Y-24.5450 F50.00
G01 X13.4223 Y-24.5502 F50.00
G01 X12.9681 Y-24.5497 F50.00
G01 X12.9416 Y-24.5450 F50.00
G01 X12.9170 Y-24.5342 F50.00
G01 X12.8794 Y-24.4989 F50.00
G01 X12.8650 Y-24.4684 F50.00
G01 X12.8598 Y-24.4301 F50.00
G01 X12.8598 Y-23.6877 F50.00
G01 X12.8632 Y-23.6583 F50.00
G01 X12.8736 Y-23.6308 F50.00
G00 Z2.0000
G00 X9.5736 Y-23.6308
G01 F60.00
G01 Z-0.1500
G01 F50.00
G01 X9.5937 Y-23.6037 F50.00
G01 X9.6170 Y-23.5858 F50.00
G01 X9.6459 Y-23.5738 F50.00
G01 X9.6777 Y-23.5698 F50.00
G01 X10.1363 Y-23.5706 F50.00
G01 X10.1851 Y-23.5870 F50.00
G01 X10.2206 Y-23.6211 F50.00
G01 X10.2350 Y-23.6516 F50.00
G01 X10.2402 Y-23.6877 F50.00
G01 X10.2402 Y-24.4323 F50.00
G01 X10.2368 Y-24.4617 F50.00
G01 X10.2264 Y-24.4892 F50.00
G01 X10.2093 Y-24.5131 F50.00
G01 X10.1889 Y-24.5306 F50.00
G01 X10.1584 Y-24.5450 F50.00
G01 X10.1223 Y-24.5502 F50.00
G01 X9.6681 Y-24.5497 F50.00
G01 X9.6416 Y-24.5450 F50.00
G01 X9.6170 Y-24.5342 F50.00
G01 X9.5794 Y-24.4989 F50.00
G01 X9.5650 Y-24.4684 F50.00
G01 X9.5598 Y-24.4301 F50.00
G01 X9.5598 Y-23.6877 F50.00
G01 X9.5632 Y-23.6583 F50.00
G01 X9.5736 Y-23.6308 F50.00
G00 Z2.0000
G00 X15.9246 Y-14.8071
G01 F60.00
G01 Z-0.1500
G01 F50.00
G01 X15.9598 Y-14.8282 F50.00
G01 X15.9874 Y-14.8586 F50.00
G01 X16.0049 Y-14.8958 F50.00
G01 X16.0111 Y-14.9369 F50.00
G01 X16.0106 Y-15.6207 F50.00
G01 X16.0049 Y-15.6520 F50.00
G01 X15.9944 Y-15.6774 F50.00
G01 X15.9598 Y-15.7196 F50.00
G01 X15.9158 Y-15.7439 F50.00
G01 X15.8683 Y-15.7516 F50.00
G01 X14.9237 Y-15.7516 F50.00
G01 X14.8937 Y-15.7487 F50.00
G01 X14.8634 Y-15.7389 F50.00
G01 X14.8357 Y-15.7223 F50.00
G01 X14.8128 Y-15.7002 F50.00
G01 X14.7885 Y-15.6562 F50.00
G01 X14.7809 Y-15.6109 F50.00
G01 X14.7808 Y-14.9391 F50.00
G01 X14.7837 Y-14.9091 F50.00
G01 X14.7935 Y-14.8788 F50.00
G01 X14.8101 Y-14.8511 F50.00
G01 X14.8322 Y-14.8282 F50.00
G01 X14.8762 Y-14.8039 F50.00
G01 X14.9237 Y-14.7962 F50.00
G01 X15.8661 Y-14.7962 F50.00
G01 X15.8983 Y-14.7991 F50.00
G01 X15.9246 Y-14.8071 F50.00
G00 Z2.0000
G00 X16.7814 Y-7.9930
G01 F60.00
G01 Z-0.1500
G01 F50.00
G01 X16.7570 Y-8.0260 F50.00
G01 X16.7278 Y-8.0483 F50.00
G01 X16.6944 Y-8.0621 F50.00
G01 X16.6553 Y-8.0672 F50.00
G01 X15.9737 Y-8.0666 F50.00
G01 X15.9424 Y-8.0609 F50.00
G01 X15.9170 Y-8.0504 F50.00
G01 X15.8748 Y-8.0158 F50.00
G01 X15.8505 Y-7.9718 F50.00
G01 X15.8428 Y-7.9243 F50.00
G01 X15.8428 Y-6.9797 F50.00
G01 X15.8457 Y-6.9497 F50.00
G01 X15.8555 Y-6.9194 F50.00
G01 X15.8721 Y-6.8917 F50.00
G01 X15.8942 Y-6.8688 F50.00
G01 X15.9382 Y-6.8445 F50.00
G01 X15.9835 Y-6.8369 F50.00
G01 X16.6553 Y-6.8368 F50.00
G01 X16.6853 Y-6.8397 F50.00
G01 X16.7156 Y-6.8495 F50.00
G01 X16.7433 Y-6.8661 F50.00
G01 X16.7662 Y-6.8882 F50.00
G01 X16.7905 Y-6.9322 F50.00
G01 X16.7982 Y-6.9797 F50.00
G01 X16.7982 Y-7.9243 F50.00
G01 X16.7943 Y-7.9586 F50.00
G01 X16.7814 Y-7.9930 F50.00
G00 Z2.0000
G00 X16.8006 Y-6.0000
G01 F60.00
G01 Z-0.1500
G01 F50.00
G01 X16.7762 Y-6.0330 F50.00
G01 X16.7470 Y-6.0553 F50.00
G01 X16.7136 Y-6.0691 F50.00
G01 X16.6745 Y-6.0742 F50.00
G01 X15.9929 Y-6.0736 F50.00
G01 X15.9616 Y-6.0679 F50.00
G01 X15.9362 Y-6.0574 F50.00
G01 X15.8940 Y-6.0228 F50.00
G01 X15.8697 Y-5.9788 F50.00
G01 X15.8620 Y-5.9313 F50.00
G01 X15.8620 Y-4.9867 F50.00
G01 X15.8649 Y-4.9567 F50.00
G01 X15.8747 Y-4.9264 F50.00
G01 X15.8913 Y-4.8987 F50.00
G01 X15.9134 Y-4.8758 F50.00
G01 X15.9574 Y-4.8515 F50.00
G01 X16.0027 Y-4.8439 F50.00
G01 X16.6745 Y-4.8438 F50.00
G01 X16.7045 Y-4.8467 F50.00
G01 X16.7348 Y-4.8565 F50.00
G01 X16.7625 Y-4.8731 F50.00
G01 X16.7854 Y-4.8952 F50.00
G01 X16.8097 Y-4.9392 F50.00
G01 X16.8174 Y-4.9867 F50.00
G01 X16.8174 Y-5.9313 F50.00
G01 X16.8135 Y-5.9656 F50.00
G01 X16.8006 Y-6.0000 F50.00
G00 Z2.0000
G00 X18.8756 Y-6.0000
G01 F60.00
G01 Z-0.1500
G01 F50.00
G01 X18.8512 Y-6.0330 F50.00
G01 X18.8220 Y-6.0553 F50.00
G01 X18.7886 Y-6.0691 F50.00
G01 X18.7495 Y-6.0742 F50.00
G01 X18.0679 Y-6.0736 F50.00
G01 X18.0366 Y-6.0679 F50.00
G01 X18.0112 Y-6.0574 F50.00
G01 X17.9690 Y-6.0228 F50.00
G01 X17.9447 Y-5.9788 F50.00
G01 X17.9370 Y-5.9313 F50.00
G01 X17.9370 Y-4.9867 F50.00
G01 X17.9399 Y-4.9567 F50.00
G01 X17.9497 Y-4.9264 F50.00
G01 X17.9663 Y-4.8987 F50.00
G01 X17.9884 Y-4.8758 F50.00
G01 X18.0324 Y-4.8515 F50.00
G01 X18.0777 Y-4.8439 F50.00
G01 X18.7495 Y-4.8438 F50.00
G01 X18.7795 Y-4.8467 F50.00
G01 X18.8098 Y-4.8565 F50.00
G01 X18.8375 Y-4.8731 F50.00
G01 X18.8604 Y-4.8952 F50.00
G01 X18.8847 Y-4.9392 F50.00
G01 X18.8924 Y-4.9867 F50.00
G01 X18.8924 Y-5.9313 F50.00
G01 X18.8885 Y-5.9656 F50.00
G01 X18.8756 Y-6.0000 F50.00
G00 Z2.0000
G00 X18.8564 Y-7.9930
G01 F60.00
G01 Z-0.1500
G01 F50.00
G01 X18.8320 Y-8.0260 F50.00
G01 X18.8028 Y-8.0483 F50.00
G01 X18.7694 Y-8.0621 F50.00
G01 X18.7303 Y-8.0672 F50.00
G01 X18.0487 Y-8.0666 F50.00
G01 X18.0174 Y-8.0609 F50.00
G01 X17.9920 Y-8.0504 F50.00
G01 X17.9498 Y-8.0158 F50.00
G01 X17.9255 Y-7.9718 F50.00
G01 X17.9178 Y-7.9243 F50.00
G01 X17.9178 Y-6.9797 F50.00
G01 X17.9207 Y-6.9497 F50.00
G01 X17.9305 Y-6.9194 F50.00
G01 X17.9471 Y-6.8917 F50.00
G01 X17.9692 Y-6.8688 F50.00
G01 X18.0132 Y-6.8445 F50.00
G01 X18.0585 Y-6.8369 F50.00
G01 X18.7303 Y-6.8368 F50.00
G01 X18.7603 Y-6.8397 F50.00
G01 X18.7906 Y-6.8495 F50.00
G01 X18.8183 Y-6.8661 F50.00
G01 X18.8412 Y-6.8882 F50.00
G01 X18.8655 Y-6.9322 F50.00
G01 X18.8732 Y-6.9797 F50.00
G01 X18.8732 Y-7.9243 F50.00
G01 X18.8693 Y-7.9586 F50.00
G01 X18.8564 Y-7.9930 F50.00
G00 Z2.0000
G00 X27.9996 Y-10.5126
G01 F60.00
G01 Z-0.1500
G01 F50.00
G01 X27.9695 Y-10.4925 F50.00
G01 X27.9429 Y-10.4612 F50.00
G01 X27.9277 Y-10.4278 F50.00
G01 X27.9214 Y-10.3845 F50.00
G01 X27.9220 Y-9.7029 F50.00
G01 X27.9277 Y-9.6716 F50.00
G01 X27.9382 Y-9.6462 F50.00
G01 X27.9728 Y-9.6040 F50.00
G01 X28.0168 Y-9.5797 F50.00
G01 X28.0643 Y-9.5720 F50.00
G01 X29.0089 Y-9.5720 F50.00
G01 X29.0389 Y-9.5749 F50.00
G01 X29.0692 Y-9.5847 F50.00
G01 X29.0969 Y-9.6013 F50.00
G01 X29.1198 Y-9.6234 F50.00
G01 X29.1441 Y-9.6674 F50.00
G01 X29.1517 Y-9.7127 F50.00
G01 X29.1518 Y-10.3845 F50.00
G01 X29.1489 Y-10.4145 F50.00
G01 X29.1391 Y-10.4448 F50.00
G01 X29.1225 Y-10.4725 F50.00
G01 X29.1004 Y-10.4954 F50.00
G01 X29.0564 Y-10.5197 F50.00
G01 X29.0089 Y-10.5274 F50.00
G01 X28.0643 Y-10.5274 F50.00
G01 X28.0300 Y-10.5235 F50.00
G01 X27.9996 Y-10.5126 F50.00
G00 Z2.0000
G00 X30.0692 Y-10.5038
G01 F60.00
G01 Z-0.1500
G01 F50.00
G01 X30.0362 Y-10.4794 F50.00
G01 X30.0139 Y-10.4502 F50.00
G01 X30.0001 Y-10.4168 F50.00
G01 X29.9950 Y-10.3777 F50.00
G01 X29.9956 Y-9.6961 F50.00
G01 X30.0013 Y-9.6648 F50.00
G01 X30.0118 Y-9.6394 F50.00
G01 X30.0464 Y-9.5972 F50.00
G01 X30.0904 Y-9.5729 F50.00
G01 X30.1379 Y-9.5652 F50.00
G01 X31.0825 Y-9.5652 F50.00
G01 X31.1125 Y-9.5681 F50.00
G01 X31.1428 Y-9.5779 F50.00
G01 X31.1705 Y-9.5945 F50.00
G01 X31.1934 Y-9.6166 F50.00
G01 X31.2177 Y-9.6606 F50.00
G01 X31.2253 Y-9.7059 F50.00
G01 X31.2254 Y-10.3777 F50.00
G01 X31.2225 Y-10.4077 F50.00
G01 X31.2127 Y-10.4380 F50.00
G01 X31.1961 Y-10.4657 F50.00
G01 X31.1740 Y-10.4886 F50.00
G01 X31.1300 Y-10.5129 F50.00
G01 X31.0825 Y-10.5206 F50.00
G01 X30.1379 Y-10.5206 F50.00
G01 X30.1036 Y-10.5167 F50.00
G01 X30.0692 Y-10.5038 F50.00
G00 Z2.0000
G00 X30.0692 Y-12.5788
G01 F60.00
G01 Z-0.1500
G01 F50.00
G01 X30.0362 Y-12.5544 F50.00
G01 X30.0139 Y-12.5252 F50.00
G01 X30.0001 Y-12.4918 F50.00
G01 X29.9950 Y-12.4527 F50.00
G01 X29.9956 Y-11.7711 F50.00
G01 X30.0013 Y-11.7398 F50.00
G01 X30.0118 Y-11.7144 F50.00
G01 X30.0464 Y-11.6722 F50.00
G01 X30.0904 Y-11.6479 F50.00
G01 X30.1379 Y-11.6402 F50.00
G01 X31.0825 Y-11.6402 F50.00
G01 X31.1125 Y-11.6431 F50.00
G01 X31.1428 Y-11.6529 F50.00
G01 X31.1705 Y-11.6695 F50.00
G01 X31.1934 Y-11.6916 F50.00
G01 X31.2177 Y-11.7356 F50.00
G01 X31.2253 Y-11.7809 F50.00
G01 X31.2254 Y-12.4527 F50.00
G01 X31.2225 Y-12.4827 F50.00
G01 X31.2127 Y-12.5130 F50.00
G01 X31.1961 Y-12.5407 F50.00
G01 X31.1740 Y-12.5636 F50.00
G01 X31.1300 Y-12.5879 F50.00
G01 X31.0825 Y-12.5956 F50.00
G01 X30.1379 Y-12.5956 F50.00
G01 X30.1036 Y-12.5917 F50.00
G01 X30.0692 Y-12.5788 F50.00
G00 Z2.0000
G00 X27.9956 Y-12.5856
G01 F60.00
G01 Z-0.1500
G01 F50.00
G01 X27.9626 Y-12.5612 F50.00
G01 X27.9403 Y-12.5320 F50.00
G01 X27.9265 Y-12.4986 F50.00
G01 X27.9214 Y-12.4595 F50.00
G01 X27.9220 Y-11.7779 F50.00
G01 X27.9277 Y-11.7466 F50.00
G01 X27.9382 Y-11.7212 F50.00
G01 X27.9728 Y-11.6790 F50.00
G01 X28.0168 Y-11.6547 F50.00
G01 X28.0643 Y-11.6470 F50.00
G01 X29.0089 Y-11.6470 F50.00
G01 X29.0389 Y-11.6499 F50.00
G01 X29.0692 Y-11.6597 F50.00
G01 X29.0969 Y-11.6763 F50.00
G01 X29.1198 Y-11.6984 F50.00
G01 X29.1441 Y-11.7424 F50.00
G01 X29.1517 Y-11.7877 F50.00
G01 X29.1518 Y-12.4595 F50.00
G01 X29.1489 Y-12.4895 F50.00
G01 X29.1391 Y-12.5198 F50.00
G01 X29.1225 Y-12.5475 F50.00
G01 X29.1004 Y-12.5704 F50.00
G01 X29.0564 Y-12.5947 F50.00
G01 X29.0089 Y-12.6024 F50.00
G01 X28.0643 Y-12.6024 F50.00
G01 X28.0300 Y-12.5985 F50.00
G01 X27.9956 Y-12.5856 F50.00
G00 Z2.0000
G00 X33.4752 Y-13.7812
G01 F60.00
G01 Z-0.1500
G01 F50.00
G01 X33.5034 Y-13.7603 F50.00
G01 X33.5420 Y-13.7516 F50.00
G01 X36.9420 Y-13.7516 F50.00
G01 X36.9806 Y-13.7603 F50.00
G01 X37.0144 Y-13.7881 F50.00
G01 X37.0269 Y-13.8114 F50.00
G01 X37.0321 Y-13.8374 F50.00
G01 X37.0322 Y-15.4418 F50.00
G01 X37.0235 Y-15.4804 F50.00
G01 X37.0088 Y-15.5024 F50.00
G01 X36.9884 Y-15.5192 F50.00
G01 X36.9639 Y-15.5293 F50.00
G01 X36.9420 Y-15.5320 F50.00
G01 X33.5420 Y-15.5320 F50.00
G01 X33.5034 Y-15.5233 F50.00
G01 X33.4814 Y-15.5086 F50.00
G01 X33.4646 Y-15.4882 F50.00
G01 X33.4545 Y-15.4637 F50.00
G01 X33.4518 Y-15.4418 F50.00
G01 X33.4518 Y-13.8418 F50.00
G01 X33.4571 Y-13.8114 F50.00
G01 X33.4752 Y-13.7812 F50.00
G00 Z2.0000
G00 X39.3028 Y-12.2828
G01 F60.00
G01 Z-0.1500
G01 F50.00
G01 X39.2698 Y-12.2584 F50.00
G01 X39.2475 Y-12.2292 F50.00
G01 X39.2337 Y-12.1958 F50.00
G01 X39.2286 Y-12.1545 F50.00
G01 X39.2292 Y-11.3251 F50.00
G01 X39.2349 Y-11.2938 F50.00
G01 X39.2475 Y-11.2646 F50.00
G01 X39.2668 Y-11.2386 F50.00
G01 X39.2910 Y-11.2180 F50.00
G01 X39.3282 Y-11.2005 F50.00
G01 X39.3715 Y-11.1942 F50.00
G01 X40.6661 Y-11.1942 F50.00
G01 X40.7004 Y-11.1981 F50.00
G01 X40.7348 Y-11.2110 F50.00
G01 X40.7646 Y-11.2324 F50.00
G01 X40.7852 Y-11.2566 F50.00
G01 X40.8027 Y-11.2938 F50.00
G01 X40.8090 Y-11.3371 F50.00
G01 X40.8089 Y-12.1589 F50.00
G01 X40.8039 Y-12.1958 F50.00
G01 X40.7922 Y-12.2254 F50.00
G01 X40.7741 Y-12.2515 F50.00
G01 X40.7466 Y-12.2758 F50.00
G01 X40.7094 Y-12.2933 F50.00
G01 X40.6639 Y-12.2996 F50.00
G01 X39.3715 Y-12.2996 F50.00
G01 X39.3372 Y-12.2957 F50.00
G01 X39.3028 Y-12.2828 F50.00
G00 Z2.0000
G00 X39.3028 Y-15.4078
G01 F60.00
G01 Z-0.1500
G01 F50.00
G01 X39.2698 Y-15.3834 F50.00
G01 X39.2475 Y-15.3542 F50.00
G01 X39.2337 Y-15.3208 F50.00
G01 X39.2286 Y-15.2795 F50.00
G01 X39.2292 Y-14.4501 F50.00
G01 X39.2349 Y-14.4188 F50.00
G01 X39.2475 Y-14.3896 F50.00
G01 X39.2668 Y-14.3636 F50.00
G01 X39.2910 Y-14.3430 F50.00
G01 X39.3282 Y-14.3255 F50.00
G01 X39.3715 Y-14.3192 F50.00
G01 X40.6661 Y-14.3192 F50.00
G01 X40.7004 Y-14.3231 F50.00
G01 X40.7348 Y-14.3360 F50.00
G01 X40.7646 Y-14.3574 F50.00
G01 X40.7852 Y-14.3816 F50.00
G01 X40.8027 Y-14.4188 F50.00
G01 X40.8090 Y-14.4621 F50.00
G01 X40.8089 Y-15.2839 F50.00
G01 X40.8039 Y-15.3208 F50.00
G01 X40.7922 Y-15.3504 F50.00
G01 X40.7741 Y-15.3765 F50.00
G01 X40.7466 Y-15.4008 F50.00
G01 X40.7094 Y-15.4183 F50.00
G01 X40.6639 Y-15.4246 F50.00
G01 X39.3715 Y-15.4246 F50.00
G01 X39.3372 Y-15.4207 F50.00
G01 X39.3028 Y-15.4078 F50.00
G00 Z2.0000
G00 X41.8032 Y-15.9392
G01 F60.00
G01 Z-0.1500
G01 F50.00
G01 X41.7702 Y-15.9148 F50.00
G01 X41.7479 Y-15.8856 F50.00
G01 X41.7341 Y-15.8522 F50.00
G01 X41.7290 Y-15.8131 F50.00
G01 X41.7296 Y-15.1065 F50.00
G01 X41.7353 Y-15.0752 F50.00
G01 X41.7458 Y-15.0498 F50.00
G01 X41.7804 Y-15.0076 F50.00
G01 X41.8244 Y-14.9833 F50.00
G01 X41.8719 Y-14.9756 F50.00
G01 X42.7665 Y-14.9756 F50.00
G01 X42.7965 Y-14.9785 F50.00
G01 X42.8268 Y-14.9883 F50.00
G01 X42.8545 Y-15.0049 F50.00
G01 X42.8774 Y-15.0270 F50.00
G01 X42.9017 Y-15.0710 F50.00
G01 X42.9093 Y-15.1163 F50.00
G01 X42.9094 Y-15.8131 F50.00
G01 X42.9065 Y-15.8431 F50.00
G01 X42.8967 Y-15.8734 F50.00
G01 X42.8801 Y-15.9011 F50.00
G01 X42.8580 Y-15.9240 F50.00
G01 X42.8140 Y-15.9483 F50.00
G01 X42.7665 Y-15.9560 F50.00
G01 X41.8719 Y-15.9560 F50.00
G01 X41.8376 Y-15.9521 F50.00
G01 X41.8032 Y-15.9392 F50.00
G00 Z2.0000
G00 X41.8072 Y-17.9412
G01 F60.00
G01 Z-0.1500
G01 F50.00
G01 X41.7734 Y-17.9178 F50.00
G01 X41.7505 Y-17.8898 F50.00
G01 X41.7353 Y-17.8564 F50.00
G01 X41.7290 Y-17.8131 F50.00
G01 X41.7296 Y-17.1065 F50.00
G01 X41.7353 Y-17.0752 F50.00
G01 X41.7458 Y-17.0498 F50.00
G01 X41.7804 Y-17.0076 F50.00
G01 X41.8244 Y-16.9833 F50.00
G01 X41.8719 Y-16.9756 F50.00
G01 X42.7665 Y-16.9756 F50.00
G01 X42.7965 Y-16.9785 F50.00
G01 X42.8268 Y-16.9883 F50.00
G01 X42.8545 Y-17.0049 F50.00
G01 X42.8774 Y-17.0270 F50.00
G01 X42.9017 Y-17.0710 F50.00
G01 X42.9093 Y-17.1163 F50.00
G01 X42.9094 Y-17.8131 F50.00
G01 X42.9065 Y-17.8431 F50.00
G01 X42.8967 Y-17.8734 F50.00
G01 X42.8801 Y-17.9011 F50.00
G01 X42.8580 Y-17.9240 F50.00
G01 X42.8140 Y-17.9483 F50.00
G01 X42.7665 Y-17.9560 F50.00
G01 X41.8719 Y-17.9560 F50.00
G01 X41.8376 Y-17.9521 F50.00
G01 X41.8072 Y-17.9412 F50.00
G00 Z2.0000
G00 X40.0054 Y-19.0220
G01 F60.00
G01 Z-0.1500
G01 F50.00
G01 X39.9853 Y-19.0521 F50.00
G01 X39.9540 Y-19.0787 F50.00
G01 X39.9206 Y-19.0939 F50.00
G01 X39.8773 Y-19.1002 F50.00
G01 X39.1707 Y-19.0996 F50.00
G01 X39.1394 Y-19.0939 F50.00
G01 X39.1140 Y-19.0834 F50.00
G01 X39.0718 Y-19.0488 F50.00
G01 X39.0475 Y-19.0048 F50.00
G01 X39.0398 Y-18.9573 F50.00
G01 X39.0398 Y-18.0627 F50.00
G01 X39.0427 Y-18.0327 F50.00
G01 X39.0525 Y-18.0024 F50.00
G01 X39.0691 Y-17.9747 F50.00
G01 X39.0912 Y-17.9518 F50.00
G01 X39.1352 Y-17.9275 F50.00
G01 X39.1805 Y-17.9199 F50.00
G01 X39.8773 Y-17.9198 F50.00
G01 X39.9073 Y-17.9227 F50.00
G01 X39.9376 Y-17.9325 F50.00
G01 X39.9653 Y-17.9491 F50.00
G01 X39.9882 Y-17.9712 F50.00
G01 X40.0125 Y-18.0152 F50.00
G01 X40.0202 Y-18.0627 F50.00
G01 X40.0202 Y-18.9573 F50.00
G01 X40.0163 Y-18.9916 F50.00
G01 X40.0054 Y-19.0220 F50.00
G00 Z2.0000
G00 X40.0326 Y-21.0148
G01 F60.00
G01 Z-0.1500
G01 F50.00
G01 X40.0082 Y-21.0478 F50.00
G01 X39.9790 Y-21.0701 F50.00
G01 X39.9456 Y-21.0839 F50.00
G01 X39.9065 Y-21.0890 F50.00
G01 X39.1999 Y-21.0884 F50.00
G01 X39.1686 Y-21.0827 F50.00
G01 X39.1432 Y-21.0722 F50.00
G01 X39.1010 Y-21.0376 F50.00
G01 X39.0767 Y-20.9936 F50.00
G01 X39.0690 Y-20.9461 F50.00
G01 X39.0690 Y-20.0515 F50.00
G01 X39.0719 Y-20.0215 F50.00
G01 X39.0817 Y-19.9912 F50.00
G01 X39.0983 Y-19.9635 F50.00
G01 X39.1204 Y-19.9406 F50.00
G01 X39.1644 Y-19.9163 F50.00
G01 X39.2097 Y-19.9087 F50.00
G01 X39.9065 Y-19.9086 F50.00
G01 X39.9365 Y-19.9115 F50.00
G01 X39.9668 Y-19.9213 F50.00
G01 X39.9945 Y-19.9379 F50.00
G01 X40.0174 Y-19.9600 F50.00
G01 X40.0417 Y-20.0040 F50.00
G01 X40.0494 Y-20.0515 F50.00
G01 X40.0494 Y-20.9461 F50.00
G01 X40.0455 Y-20.9804 F50.00
G01 X40.0326 Y-21.0148 F50.00
G00 Z2.0000
G00 X38.0326 Y-21.0148
G01 F60.00
G01 Z-0.1500
G01 F50.00
G01 X38.0082 Y-21.0478 F50.00
G01 X37.9790 Y-21.0701 F50.00
G01 X37.9456 Y-21.0839 F50.00
G01 X37.9065 Y-21.0890 F50.00
G01 X37.1999 Y-21.0884 F50.00
G01 X37.1686 Y-21.0827 F50.00
G01 X37.1432 Y-21.0722 F50.00
G01 X37.1010 Y-21.0376 F50.00
G01 X37.0767 Y-20.9936 F50.00
G01 X37.0690 Y-20.9461 F50.00
G01 X37.0690 Y-20.0515 F50.00
G01 X37.0719 Y-20.0215 F50.00
G01 X37.0817 Y-19.9912 F50.00
G01 X37.0983 Y-19.9635 F50.00
G01 X37.1204 Y-19.9406 F50.00
G01 X37.1644 Y-19.9163 F50.00
G01 X37.2097 Y-19.9087 F50.00
G01 X37.9065 Y-19.9086 F50.00
G01 X37.9365 Y-19.9115 F50.00
G01 X37.9668 Y-19.9213 F50.00
G01 X37.9945 Y-19.9379 F50.00
G01 X38.0174 Y-19.9600 F50.00
G01 X38.0417 Y-20.0040 F50.00
G01 X38.0494 Y-20.0515 F50.00
G01 X38.0494 Y-20.9461 F50.00
G01 X38.0455 Y-20.9804 F50.00
G01 X38.0326 Y-21.0148 F50.00
G00 Z2.0000
G00 X38.0034 Y-19.0260
G01 F60.00
G01 Z-0.1500
G01 F50.00
G01 X37.9790 Y-19.0590 F50.00
G01 X37.9498 Y-19.0813 F50.00
G01 X37.9164 Y-19.0951 F50.00
G01 X37.8773 Y-19.1002 F50.00
G01 X37.1707 Y-19.0996 F50.00
G01 X37.1394 Y-19.0939 F50.00
G01 X37.1140 Y-19.0834 F50.00
G01 X37.0718 Y-19.0488 F50.00
G01 X37.0475 Y-19.0048 F50.00
G01 X37.0398 Y-18.9573 F50.00
G01 X37.0398 Y-18.0627 F50.00
G01 X37.0427 Y-18.0327 F50.00
G01 X37.0525 Y-18.0024 F50.00
G01 X37.0691 Y-17.9747 F50.00
G01 X37.0912 Y-17.9518 F50.00
G01 X37.1352 Y-17.9275 F50.00
G01 X37.1805 Y-17.9199 F50.00
G01 X37.8773 Y-17.9198 F50.00
G01 X37.9073 Y-17.9227 F50.00
G01 X37.9376 Y-17.9325 F50.00
G01 X37.9653 Y-17.9491 F50.00
G01 X37.9882 Y-17.9712 F50.00
G01 X38.0125 Y-18.0152 F50.00
G01 X38.0202 Y-18.0627 F50.00
G01 X38.0202 Y-18.9573 F50.00
G01 X38.0163 Y-18.9916 F50.00
G01 X38.0034 Y-19.0260 F50.00
G00 Z2.0000
G00 X36.5430 Y-23.4604
G01 F60.00
G01 Z-0.1500
G01 F50.00
G01 X36.5092 Y-23.4370 F50.00
G01 X36.4863 Y-23.4090 F50.00
G01 X36.4711 Y-23.3756 F50.00
G01 X36.4648 Y-23.3323 F50.00
G01 X36.4654 Y-22.6257 F50.00
G01 X36.4711 Y-22.5944 F50.00
G01 X36.4816 Y-22.5690 F50.00
G01 X36.5162 Y-22.5268 F50.00
G01 X36.5602 Y-22.5025 F50.00
G01 X36.6077 Y-22.4948 F50.00
G01 X37.5023 Y-22.4948 F50.00
G01 X37.5323 Y-22.4977 F50.00
G01 X37.5626 Y-22.5075 F50.00
G01 X37.5903 Y-22.5241 F50.00
G01 X37.6132 Y-22.5462 F50.00
G01 X37.6375 Y-22.5902 F50.00
G01 X37.6451 Y-22.6355 F50.00
G01 X37.6452 Y-23.3323 F50.00
G01 X37.6423 Y-23.3623 F50.00
G01 X37.6325 Y-23.3926 F50.00
G01 X37.6159 Y-23.4203 F50.00
G01 X37.5938 Y-23.4432 F50.00
G01 X37.5498 Y-23.4675 F50.00
G01 X37.5023 Y-23.4752 F50.00
G01 X36.6077 Y-23.4752 F50.00
G01 X36.5734 Y-23.4713 F50.00
G01 X36.5430 Y-23.4604 F50.00
G00 Z2.0000
G00 X36.5390 Y-25.4584
G01 F60.00
G01 Z-0.1500
G01 F50.00
G01 X36.5060 Y-25.4340 F50.00
G01 X36.4837 Y-25.4048 F50.00
G01 X36.4699 Y-25.3714 F50.00
G01 X36.4648 Y-25.3323 F50.00
G01 X36.4654 Y-24.6257 F50.00
G01 X36.4711 Y-24.5944 F50.00
G01 X36.4816 Y-24.5690 F50.00
G01 X36.5162 Y-24.5268 F50.00
G01 X36.5602 Y-24.5025 F50.00
G01 X36.6077 Y-24.4948 F50.00
G01 X37.5023 Y-24.4948 F50.00
G01 X37.5323 Y-24.4977 F50.00
G01 X37.5626 Y-24.5075 F50.00
G01 X37.5903 Y-24.5241 F50.00
G01 X37.6132 Y-24.5462 F50.00
G01 X37.6375 Y-24.5902 F50.00
G01 X37.6451 Y-24.6355 F50.00
G01 X37.6452 Y-25.3323 F50.00
G01 X37.6423 Y-25.3623 F50.00
G01 X37.6325 Y-25.3926 F50.00
G01 X37.6159 Y-25.4203 F50.00
G01 X37.5938 Y-25.4432 F50.00
G01 X37.5498 Y-25.4675 F50.00
G01 X37.5023 Y-25.4752 F50.00
G01 X36.6077 Y-25.4752 F50.00
G01 X36.5734 Y-25.4713 F50.00
G01 X36.5390 Y-25.4584 F50.00
G00 Z2.0000
G00 X38.5656 Y-25.6710
G01 F60.00
G01 Z-0.1500
G01 F50.00
G01 X38.5326 Y-25.6466 F50.00
G01 X38.5103 Y-25.6174 F50.00
G01 X38.4965 Y-25.5840 F50.00
G01 X38.4914 Y-25.5449 F50.00
G01 X38.4920 Y-24.8383 F50.00
G01 X38.4977 Y-24.8070 F50.00
G01 X38.5082 Y-24.7816 F50.00
G01 X38.5428 Y-24.7394 F50.00
G01 X38.5868 Y-24.7151 F50.00
G01 X38.6343 Y-24.7074 F50.00
G01 X39.5289 Y-24.7074 F50.00
G01 X39.5589 Y-24.7103 F50.00
G01 X39.5892 Y-24.7201 F50.00
G01 X39.6169 Y-24.7367 F50.00
G01 X39.6398 Y-24.7588 F50.00
G01 X39.6641 Y-24.8028 F50.00
G01 X39.6717 Y-24.8481 F50.00
G01 X39.6718 Y-25.5449 F50.00
G01 X39.6689 Y-25.5749 F50.00
G01 X39.6591 Y-25.6052 F50.00
G01 X39.6425 Y-25.6329 F50.00
G01 X39.6204 Y-25.6558 F50.00
G01 X39.5764 Y-25.6801 F50.00
G01 X39.5289 Y-25.6878 F50.00
G01 X38.6343 Y-25.6878 F50.00
G01 X38.6000 Y-25.6839 F50.00
G01 X38.5656 Y-25.6710 F50.00
G00 Z2.0000
G00 X38.5656 Y-27.6710
G01 F60.00
G01 Z-0.1500
G01 F50.00
G01 X38.5326 Y-27.6466 F50.00
G01 X38.5103 Y-27.6174 F50.00
G01 X38.4965 Y-27.5840 F50.00
G01 X38.4914 Y-27.5449 F50.00
G01 X38.4920 Y-26.8383 F50.00
G01 X38.4977 Y-26.8070 F50.00
G01 X38.5082 Y-26.7816 F50.00
G01 X38.5428 Y-26.7394 F50.00
G01 X38.5868 Y-26.7151 F50.00
G01 X38.6343 Y-26.7074 F50.00
G01 X39.5289 Y-26.7074 F50.00
G01 X39.5589 Y-26.7103 F50.00
G01 X39.5892 Y-26.7201 F50.00
G01 X39.6169 Y-26.7367 F50.00
G01 X39.6398 Y-26.7588 F50.00
G01 X39.6641 Y-26.8028 F50.00
G01 X39.6717 Y-26.8481 F50.00
G01 X39.6718 Y-27.5449 F50.00
G01 X39.6689 Y-27.5749 F50.00
G01 X39.6591 Y-27.6052 F50.00
G01 X39.6425 Y-27.6329 F50.00
G01 X39.6204 Y-27.6558 F50.00
G01 X39.5764 Y-27.6801 F50.00
G01 X39.5289 Y-27.6878 F50.00
G01 X38.6343 Y-27.6878 F50.00
G01 X38.6000 Y-27.6839 F50.00
G01 X38.5656 Y-27.6710 F50.00
G00 Z2.0000
G00 X45.6860 Y-22.4060
G01 F60.00
G01 Z-0.1500
G01 F50.00
G01 X45.6530 Y-22.3816 F50.00
G01 X45.6307 Y-22.3524 F50.00
G01 X45.6169 Y-22.3190 F50.00
G01 X45.6118 Y-22.2799 F50.00
G01 X45.6124 Y-21.5733 F50.00
G01 X45.6181 Y-21.5420 F50.00
G01 X45.6286 Y-21.5166 F50.00
G01 X45.6632 Y-21.4744 F50.00
G01 X45.7072 Y-21.4501 F50.00
G01 X45.7547 Y-21.4424 F50.00
G01 X46.6493 Y-21.4424 F50.00
G01 X46.6793 Y-21.4453 F50.00
G01 X46.7096 Y-21.4551 F50.00
G01 X46.7373 Y-21.4717 F50.00
G01 X46.7602 Y-21.4938 F50.00
G01 X46.7845 Y-21.5378 F50.00
G01 X46.7921 Y-21.5831 F50.00
G01 X46.7922 Y-22.2799 F50.00
G01 X46.7893 Y-22.3099 F50.00
G01 X46.7795 Y-22.3402 F50.00
G01 X46.7629 Y-22.3679 F50.00
G01 X46.7408 Y-22.3908 F50.00
G01 X46.6968 Y-22.4151 F50.00
G01 X46.6493 Y-22.4228 F50.00
G01 X45.7547 Y-22.4228 F50.00
G01 X45.7204 Y-22.4189 F50.00
G01 X45.6860 Y-22.4060 F50.00
G00 Z2.0000
G00 X45.6860 Y-20.4060
G01 F60.00
G01 Z-0.1500
G01 F50.00
G01 X45.6530 Y-20.3816 F50.00
G01 X45.6307 Y-20.3524 F50.00
G01 X45.6169 Y-20.3190 F50.00
G01 X45.6118 Y-20.2799 F50.00
G01 X45.6124 Y-19.5733 F50.00
G01 X45.6181 Y-19.5420 F50.00
G01 X45.6286 Y-19.5166 F50.00
G01 X45.6632 Y-19.4744 F50.00
G01 X45.7072 Y-19.4501 F50.00
G01 X45.7547 Y-19.4424 F50.00
G01 X46.6493 Y-19.4424 F50.00
G01 X46.6793 Y-19.4453 F50.00
G01 X46.7096 Y-19.4551 F50.00
G01 X46.7373 Y-19.4717 F50.00
G01 X46.7602 Y-19.4938 F50.00
G01 X46.7845 Y-19.5378 F50.00
G01 X46.7921 Y-19.5831 F50.00
G01 X46.7922 Y-20.2799 F50.00
G01 X46.7893 Y-20.3099 F50.00
G01 X46.7795 Y-20.3402 F50.00
G01 X46.7629 Y-20.3679 F50.00
G01 X46.7408 Y-20.3908 F50.00
G01 X46.6968 Y-20.4151 F50.00
G01 X46.6493 Y-20.4228 F50.00
G01 X45.7547 Y-20.4228 F50.00
G01 X45.7204 Y-20.4189 F50.00
G01 X45.6860 Y-20.4060 F50.00
G00 Z2.0000
G00 X47.8426 Y-20.1813
G01 F60.00
G01 Z-0.1500
G01 F50.00
G01 X47.8764 Y-20.1535 F50.00
G01 X47.9106 Y-20.1449 F50.00
G01 X48.8619 Y-20.1475 F50.00
G01 X48.8864 Y-20.1576 F50.00
G01 X48.9068 Y-20.1744 F50.00
G01 X48.9275 Y-20.2131 F50.00
G01 X48.9275 Y-20.4569 F50.00
G01 X48.9174 Y-20.4814 F50.00
G01 X48.9006 Y-20.5018 F50.00
G01 X48.8704 Y-20.5199 F50.00
G01 X48.8444 Y-20.5251 F50.00
G01 X47.8931 Y-20.5225 F50.00
G01 X47.8686 Y-20.5124 F50.00
G01 X47.8482 Y-20.4956 F50.00
G01 X47.8335 Y-20.4736 F50.00
G01 X47.8258 Y-20.4482 F50.00
G01 X47.8249 Y-20.2306 F50.00
G01 X47.8301 Y-20.2046 F50.00
G01 X47.8426 Y-20.1813 F50.00
G00 Z2.0000
G00 X47.8426 Y-22.0813
G01 F60.00
G01 Z-0.1500
G01 F50.00
G01 X47.8764 Y-22.0535 F50.00
G01 X47.9106 Y-22.0449 F50.00
G01 X48.8619 Y-22.0475 F50.00
G01 X48.8864 Y-22.0576 F50.00
G01 X48.9068 Y-22.0744 F50.00
G01 X48.9275 Y-22.1131 F50.00
G01 X48.9275 Y-22.3569 F50.00
G01 X48.9174 Y-22.3814 F50.00
G01 X48.9006 Y-22.4018 F50.00
G01 X48.8704 Y-22.4199 F50.00
G01 X48.8444 Y-22.4251 F50.00
G01 X47.8931 Y-22.4225 F50.00
G01 X47.8686 Y-22.4124 F50.00
G01 X47.8482 Y-22.3956 F50.00
G01 X47.8335 Y-22.3736 F50.00
G01 X47.8258 Y-22.3482 F50.00
G01 X47.8249 Y-22.1306 F50.00
G01 X47.8301 Y-22.1046 F50.00
G01 X47.8426 Y-22.0813 F50.00
G00 Z2.0000
G00 X49.2131 Y-23.5094
G01 F60.00
G01 Z-0.1500
G01 F50.00
G01 X49.2358 Y-23.4700 F50.00
G01 X49.2662 Y-23.4424 F50.00
G01 X49.3034 Y-23.4249 F50.00
G01 X49.3445 Y-23.4187 F50.00
G01 X50.0283 Y-23.4192 F50.00
G01 X50.0596 Y-23.4249 F50.00
G01 X50.0850 Y-23.4354 F50.00
G01 X50.1272 Y-23.4700 F50.00
G01 X50.1515 Y-23.5140 F50.00
G01 X50.1592 Y-23.5615 F50.00
G01 X50.1592 Y-24.5061 F50.00
G01 X50.1563 Y-24.5361 F50.00
G01 X50.1465 Y-24.5664 F50.00
G01 X50.1299 Y-24.5941 F50.00
G01 X50.1078 Y-24.6170 F50.00
G01 X50.0638 Y-24.6413 F50.00
G01 X50.0185 Y-24.6489 F50.00
G01 X49.3467 Y-24.6490 F50.00
G01 X49.3167 Y-24.6461 F50.00
G01 X49.2864 Y-24.6363 F50.00
G01 X49.2587 Y-24.6197 F50.00
G01 X49.2358 Y-24.5976 F50.00
G01 X49.2115 Y-24.5536 F50.00
G01 X49.2038 Y-24.5061 F50.00
G01 X49.2038 Y-23.5637 F50.00
G01 X49.2131 Y-23.5094 F50.00
G00 Z2.0000
G00 X50.1176 Y-22.0813
G01 F60.00
G01 Z-0.1500
G01 F50.00
G01 X50.1514 Y-22.0535 F50.00
G01 X50.1856 Y-22.0449 F50.00
G01 X51.1369 Y-22.0475 F50.00
G01 X51.1614 Y-22.0576 F50.00
G01 X51.1818 Y-22.0744 F50.00
G01 X51.2025 Y-22.1131 F50.00
G01 X51.2025 Y-22.3569 F50.00
G01 X51.1924 Y-22.3814 F50.00
G01 X51.1756 Y-22.4018 F50.00
G01 X51.1454 Y-22.4199 F50.00
G01 X51.1194 Y-22.4251 F50.00
G01 X50.1681 Y-22.4225 F50.00
G01 X50.1436 Y-22.4124 F50.00
G01 X50.1232 Y-22.3956 F50.00
G01 X50.1085 Y-22.3736 F50.00
G01 X50.1008 Y-22.3482 F50.00
G01 X50.0999 Y-22.1306 F50.00
G01 X50.1051 Y-22.1046 F50.00
G01 X50.1176 Y-22.0813 F50.00
G00 Z2.0000
G00 X50.1176 Y-21.1313
G01 F60.00
G01 Z-0.1500
G01 F50.00
G01 X50.1514 Y-21.1035 F50.00
G01 X50.1856 Y-21.0949 F50.00
G01 X51.1369 Y-21.0975 F50.00
G01 X51.1614 Y-21.1076 F50.00
G01 X51.1818 Y-21.1244 F50.00
G01 X51.2025 Y-21.1631 F50.00
G01 X51.2025 Y-21.4069 F50.00
G01 X51.1924 Y-21.4314 F50.00
G01 X51.1756 Y-21.4518 F50.00
G01 X51.1454 Y-21.4699 F50.00
G01 X51.1194 Y-21.4751 F50.00
G01 X50.1681 Y-21.4725 F50.00
G01 X50.1436 Y-21.4624 F50.00
G01 X50.1232 Y-21.4456 F50.00
G01 X50.1085 Y-21.4236 F50.00
G01 X50.1008 Y-21.3982 F50.00
G01 X50.0999 Y-21.1806 F50.00
G01 X50.1051 Y-21.1546 F50.00
G01 X50.1176 Y-21.1313 F50.00
G00 Z2.0000
G00 X50.1176 Y-20.1813
G01 F60.00
G01 Z-0.1500
G01 F50.00
G01 X50.1514 Y-20.1535 F50.00
G01 X50.1856 Y-20.1449 F50.00
G01 X51.1369 Y-20.1475 F50.00
G01 X51.1614 Y-20.1576 F50.00
G01 X51.1818 Y-20.1744 F50.00
G01 X51.2025 Y-20.2131 F50.00
G01 X51.2025 Y-20.4569 F50.00
G01 X51.1924 Y-20.4814 F50.00
G01 X51.1756 Y-20.5018 F50.00
G01 X51.1454 Y-20.5199 F50.00
G01 X51.1194 Y-20.5251 F50.00
G01 X50.1681 Y-20.5225 F50.00
G01 X50.1436 Y-20.5124 F50.00
G01 X50.1232 Y-20.4956 F50.00
G01 X50.1085 Y-20.4736 F50.00
G01 X50.1008 Y-20.4482 F50.00
G01 X50.0999 Y-20.2306 F50.00
G01 X50.1051 Y-20.2046 F50.00
G01 X50.1176 Y-20.1813 F50.00
G00 Z2.0000
G00 X53.2544 Y-19.1941
G01 F60.00
G01 Z-0.1500
G01 F50.00
G01 X53.2938 Y-19.2168 F50.00
G01 X53.3214 Y-19.2472 F50.00
G01 X53.3389 Y-19.2844 F50.00
G01 X53.3451 Y-19.3255 F50.00
G01 X53.3446 Y-20.0343 F50.00
G01 X53.3304 Y-20.0870 F50.00
G01 X53.2971 Y-20.1303 F50.00
G01 X53.2544 Y-20.1559 F50.00
G01 X53.2023 Y-20.1652 F50.00
G01 X52.3099 Y-20.1652 F50.00
G01 X52.2777 Y-20.1623 F50.00
G01 X52.2514 Y-20.1543 F50.00
G01 X52.2236 Y-20.1388 F50.00
G01 X52.1997 Y-20.1171 F50.00
G01 X52.1741 Y-20.0744 F50.00
G01 X52.1649 Y-20.0245 F50.00
G01 X52.1648 Y-19.3277 F50.00
G01 X52.1677 Y-19.2977 F50.00
G01 X52.1775 Y-19.2674 F50.00
G01 X52.1941 Y-19.2397 F50.00
G01 X52.2129 Y-19.2197 F50.00
G01 X52.2556 Y-19.1941 F50.00
G01 X52.3077 Y-19.1848 F50.00
G01 X53.2001 Y-19.1848 F50.00
G01 X53.2544 Y-19.1941 F50.00
G00 Z2.0000
G00 X54.5176 Y-18.5216
G01 F60.00
G01 Z-0.1500
G01 F50.00
G01 X54.4846 Y-18.4972 F50.00
G01 X54.4623 Y-18.4680 F50.00
G01 X54.4485 Y-18.4346 F50.00
G01 X54.4434 Y-18.3955 F50.00
G01 X54.4440 Y-17.6889 F50.00
G01 X54.4497 Y-17.6576 F50.00
G01 X54.4602 Y-17.6322 F50.00
G01 X54.4948 Y-17.5900 F50.00
G01 X54.5388 Y-17.5657 F50.00
G01 X54.5863 Y-17.5580 F50.00
G01 X55.4809 Y-17.5580 F50.00
G01 X55.5109 Y-17.5609 F50.00
G01 X55.5412 Y-17.5707 F50.00
G01 X55.5689 Y-17.5873 F50.00
G01 X55.5918 Y-17.6094 F50.00
G01 X55.6161 Y-17.6534 F50.00
G01 X55.6237 Y-17.6987 F50.00
G01 X55.6238 Y-18.3955 F50.00
G01 X55.6209 Y-18.4255 F50.00
G01 X55.6111 Y-18.4558 F50.00
G01 X55.5945 Y-18.4835 F50.00
G01 X55.5724 Y-18.5064 F50.00
G01 X55.5284 Y-18.5307 F50.00
G01 X55.4809 Y-18.5384 F50.00
G01 X54.5863 Y-18.5384 F50.00
G01 X54.5520 Y-18.5345 F50.00
G01 X54.5176 Y-18.5216 F50.00
G00 Z2.0000
G00 X55.3783 Y-19.6822
G01 F60.00
G01 Z-0.1500
G01 F50.00
G01 X55.4135 Y-19.7033 F50.00
G01 X55.4411 Y-19.7337 F50.00
G01 X55.4586 Y-19.7709 F50.00
G01 X55.4648 Y-19.8120 F50.00
G01 X55.4643 Y-20.4708 F50.00
G01 X55.4586 Y-20.5021 F50.00
G01 X55.4481 Y-20.5275 F50.00
G01 X55.4135 Y-20.5697 F50.00
G01 X55.3695 Y-20.5940 F50.00
G01 X55.3220 Y-20.6017 F50.00
G01 X54.4274 Y-20.6017 F50.00
G01 X54.3974 Y-20.5988 F50.00
G01 X54.3671 Y-20.5890 F50.00
G01 X54.3394 Y-20.5724 F50.00
G01 X54.3165 Y-20.5503 F50.00
G01 X54.2922 Y-20.5063 F50.00
G01 X54.2846 Y-20.4610 F50.00
G01 X54.2845 Y-19.8142 F50.00
G01 X54.2874 Y-19.7842 F50.00
G01 X54.2972 Y-19.7539 F50.00
G01 X54.3138 Y-19.7262 F50.00
G01 X54.3359 Y-19.7033 F50.00
G01 X54.3799 Y-19.6790 F50.00
G01 X54.4274 Y-19.6713 F50.00
G01 X55.3198 Y-19.6713 F50.00
G01 X55.3520 Y-19.6742 F50.00
G01 X55.3783 Y-19.6822 F50.00
G00 Z2.0000
G00 X56.3936 Y-19.7550
G01 F60.00
G01 Z-0.1500
G01 F50.00
G01 X56.4180 Y-19.7220 F50.00
G01 X56.4472 Y-19.6997 F50.00
G01 X56.4806 Y-19.6859 F50.00
G01 X56.5219 Y-19.6808 F50.00
G01 X57.3263 Y-19.6814 F50.00
G01 X57.3576 Y-19.6871 F50.00
G01 X57.3868 Y-19.6997 F50.00
G01 X57.4128 Y-19.7190 F50.00
G01 X57.4334 Y-19.7432 F50.00
G01 X57.4509 Y-19.7804 F50.00
G01 X57.4572 Y-19.8237 F50.00
G01 X57.4572 Y-21.0683 F50.00
G01 X57.4533 Y-21.1026 F50.00
G01 X57.4404 Y-21.1370 F50.00
G01 X57.4223 Y-21.1631 F50.00
G01 X57.3948 Y-21.1874 F50.00
G01 X57.3576 Y-21.2049 F50.00
G01 X57.3143 Y-21.2112 F50.00
G01 X56.5175 Y-21.2111 F50.00
G01 X56.4806 Y-21.2061 F50.00
G01 X56.4510 Y-21.1944 F50.00
G01 X56.4249 Y-21.1763 F50.00
G01 X56.4006 Y-21.1488 F50.00
G01 X56.3831 Y-21.1116 F50.00
G01 X56.3768 Y-21.0661 F50.00
G01 X56.3768 Y-19.8237 F50.00
G01 X56.3807 Y-19.7894 F50.00
G01 X56.3936 Y-19.7550 F50.00
G00 Z2.0000
G00 X55.3783 Y-21.7322
G01 F60.00
G01 Z-0.1500
G01 F50.00
G01 X55.4135 Y-21.7533 F50.00
G01 X55.4411 Y-21.7837 F50.00
G01 X55.4586 Y-21.8209 F50.00
G01 X55.4648 Y-21.8620 F50.00
G01 X55.4643 Y-22.5208 F50.00
G01 X55.4586 Y-22.5521 F50.00
G01 X55.4481 Y-22.5775 F50.00
G01 X55.4135 Y-22.6197 F50.00
G01 X55.3695 Y-22.6440 F50.00
G01 X55.3220 Y-22.6517 F50.00
G01 X54.4274 Y-22.6517 F50.00
G01 X54.3974 Y-22.6488 F50.00
G01 X54.3671 Y-22.6390 F50.00
G01 X54.3394 Y-22.6224 F50.00
G01 X54.3165 Y-22.6003 F50.00
G01 X54.2922 Y-22.5563 F50.00
G01 X54.2846 Y-22.5110 F50.00
G01 X54.2845 Y-21.8642 F50.00
G01 X54.2874 Y-21.8342 F50.00
G01 X54.2972 Y-21.8039 F50.00
G01 X54.3138 Y-21.7762 F50.00
G01 X54.3359 Y-21.7533 F50.00
G01 X54.3799 Y-21.7290 F50.00
G01 X54.4274 Y-21.7213 F50.00
G01 X55.3198 Y-21.7213 F50.00
G01 X55.3520 Y-21.7242 F50.00
G01 X55.3783 Y-21.7322 F50.00
G00 Z2.0000
G00 X53.2586 Y-21.1957
G01 F60.00
G01 Z-0.1500
G01 F50.00
G01 X53.2938 Y-21.2168 F50.00
G01 X53.3214 Y-21.2472 F50.00
G01 X53.3389 Y-21.2844 F50.00
G01 X53.3451 Y-21.3255 F50.00
G01 X53.3446 Y-22.0343 F50.00
G01 X53.3304 Y-22.0870 F50.00
G01 X53.2971 Y-22.1303 F50.00
G01 X53.2544 Y-22.1559 F50.00
G01 X53.2023 Y-22.1652 F50.00
G01 X52.3099 Y-22.1652 F50.00
G01 X52.2777 Y-22.1623 F50.00
G01 X52.2514 Y-22.1543 F50.00
G01 X52.2236 Y-22.1388 F50.00
G01 X52.1997 Y-22.1171 F50.00
G01 X52.1741 Y-22.0744 F50.00
G01 X52.1649 Y-22.0245 F50.00
G01 X52.1648 Y-21.3277 F50.00
G01 X52.1677 Y-21.2977 F50.00
G01 X52.1775 Y-21.2674 F50.00
G01 X52.1941 Y-21.2397 F50.00
G01 X52.2129 Y-21.2197 F50.00
G01 X52.2556 Y-21.1941 F50.00
G01 X52.3077 Y-21.1848 F50.00
G01 X53.2001 Y-21.1848 F50.00
G01 X53.2323 Y-21.1877 F50.00
G01 X53.2586 Y-21.1957 F50.00
G00 Z2.0000
G00 X51.2881 Y-23.5094
G01 F60.00
G01 Z-0.1500
G01 F50.00
G01 X51.3108 Y-23.4700 F50.00
G01 X51.3412 Y-23.4424 F50.00
G01 X51.3784 Y-23.4249 F50.00
G01 X51.4195 Y-23.4187 F50.00
G01 X52.1033 Y-23.4192 F50.00
G01 X52.1346 Y-23.4249 F50.00
G01 X52.1600 Y-23.4354 F50.00
G01 X52.2022 Y-23.4700 F50.00
G01 X52.2265 Y-23.5140 F50.00
G01 X52.2342 Y-23.5615 F50.00
G01 X52.2342 Y-24.5061 F50.00
G01 X52.2313 Y-24.5361 F50.00
G01 X52.2215 Y-24.5664 F50.00
G01 X52.2049 Y-24.5941 F50.00
G01 X52.1828 Y-24.6170 F50.00
G01 X52.1388 Y-24.6413 F50.00
G01 X52.0935 Y-24.6489 F50.00
G01 X51.4217 Y-24.6490 F50.00
G01 X51.3917 Y-24.6461 F50.00
G01 X51.3614 Y-24.6363 F50.00
G01 X51.3337 Y-24.6197 F50.00
G01 X51.3108 Y-24.5976 F50.00
G01 X51.2865 Y-24.5536 F50.00
G01 X51.2788 Y-24.5061 F50.00
G01 X51.2788 Y-23.5637 F50.00
G01 X51.2881 Y-23.5094 F50.00
G00 Z2.0000
G00 X54.5176 Y-16.5216
G01 F60.00
G01 Z-0.1500
G01 F50.00
G01 X54.4846 Y-16.4972 F50.00
G01 X54.4623 Y-16.4680 F50.00
G01 X54.4485 Y-16.4346 F50.00
G01 X54.4434 Y-16.3955 F50.00
G01 X54.4440 Y-15.6889 F50.00
G01 X54.4497 Y-15.6576 F50.00
G01 X54.4602 Y-15.6322 F50.00
G01 X54.4948 Y-15.5900 F50.00
G01 X54.5388 Y-15.5657 F50.00
G01 X54.5863 Y-15.5580 F50.00
G01 X55.4809 Y-15.5580 F50.00
G01 X55.5109 Y-15.5609 F50.00
G01 X55.5412 Y-15.5707 F50.00
G01 X55.5689 Y-15.5873 F50.00
G01 X55.5918 Y-15.6094 F50.00
G01 X55.6161 Y-15.6534 F50.00
G01 X55.6237 Y-15.6987 F50.00
G01 X55.6238 Y-16.3955 F50.00
G01 X55.6209 Y-16.4255 F50.00
G01 X55.6111 Y-16.4558 F50.00
G01 X55.5945 Y-16.4835 F50.00
G01 X55.5724 Y-16.5064 F50.00
G01 X55.5284 Y-16.5307 F50.00
G01 X55.4809 Y-16.5384 F50.00
G01 X54.5863 Y-16.5384 F50.00
G01 X54.5520 Y-16.5345 F50.00
G01 X54.5176 Y-16.5216 F50.00
G00 Z2.0000
G00 X56.5654 Y-15.4852
G01 F60.00
G01 Z-0.1500
G01 F50.00
G01 X56.5936 Y-15.4643 F50.00
G01 X56.6278 Y-15.4557 F50.00
G01 X57.0366 Y-15.4557 F50.00
G01 X57.0626 Y-15.4609 F50.00
G01 X57.0859 Y-15.4734 F50.00
G01 X57.1046 Y-15.4921 F50.00
G01 X57.1197 Y-15.5239 F50.00
G01 X57.1223 Y-17.0502 F50.00
G01 X57.1171 Y-17.0762 F50.00
G01 X57.1046 Y-17.0995 F50.00
G01 X57.0859 Y-17.1183 F50.00
G01 X57.0541 Y-17.1333 F50.00
G01 X56.6190 Y-17.1350 F50.00
G01 X56.5936 Y-17.1273 F50.00
G01 X56.5716 Y-17.1126 F50.00
G01 X56.5548 Y-17.0922 F50.00
G01 X56.5447 Y-17.0677 F50.00
G01 X56.5420 Y-15.5458 F50.00
G01 X56.5473 Y-15.5154 F50.00
G01 X56.5654 Y-15.4852 F50.00
G00 Z2.0000
G00 X58.4654 Y-15.4852
G01 F60.00
G01 Z-0.1500
G01 F50.00
G01 X58.4936 Y-15.4643 F50.00
G01 X58.5278 Y-15.4557 F50.00
G01 X58.9366 Y-15.4557 F50.00
G01 X58.9626 Y-15.4609 F50.00
G01 X58.9859 Y-15.4734 F50.00
G01 X59.0046 Y-15.4921 F50.00
G01 X59.0197 Y-15.5239 F50.00
G01 X59.0223 Y-17.0502 F50.00
G01 X59.0171 Y-17.0762 F50.00
G01 X59.0046 Y-17.0995 F50.00
G01 X58.9859 Y-17.1183 F50.00
G01 X58.9541 Y-17.1333 F50.00
G01 X58.5190 Y-17.1350 F50.00
G01 X58.4936 Y-17.1273 F50.00
G01 X58.4716 Y-17.1126 F50.00
G01 X58.4548 Y-17.0922 F50.00
G01 X58.4447 Y-17.0677 F50.00
G01 X58.4420 Y-15.5458 F50.00
G01 X58.4473 Y-15.5154 F50.00
G01 X58.4654 Y-15.4852 F50.00
G00 Z2.0000
G00 X57.5098 Y-12.4921
G01 F60.00
G01 Z-0.1500
G01 F50.00
G01 X57.5436 Y-12.4643 F50.00
G01 X57.5778 Y-12.4557 F50.00
G01 X57.9866 Y-12.4557 F50.00
G01 X58.0126 Y-12.4609 F50.00
G01 X58.0359 Y-12.4734 F50.00
G01 X58.0546 Y-12.4921 F50.00
G01 X58.0671 Y-12.5154 F50.00
G01 X58.0724 Y-12.5458 F50.00
G01 X58.0723 Y-14.0502 F50.00
G01 X58.0671 Y-14.0762 F50.00
G01 X58.0546 Y-14.0995 F50.00
G01 X58.0359 Y-14.1182 F50.00
G01 X58.0126 Y-14.1307 F50.00
G01 X57.9822 Y-14.1360 F50.00
G01 X57.5690 Y-14.1350 F50.00
G01 X57.5436 Y-14.1273 F50.00
G01 X57.5216 Y-14.1126 F50.00
G01 X57.4973 Y-14.0762 F50.00
G01 X57.4920 Y-14.0458 F50.00
G01 X57.4920 Y-12.5458 F50.00
G01 X57.4973 Y-12.5154 F50.00
G01 X57.5098 Y-12.4921 F50.00
G00 Z2.0000
G00 X59.4354 Y-10.9636
G01 F60.00
G01 Z-0.1500
G01 F50.00
G01 X59.4636 Y-10.9427 F50.00
G01 X59.5022 Y-10.9340 F50.00
G01 X60.6022 Y-10.9340 F50.00
G01 X60.6326 Y-10.9393 F50.00
G01 X60.6690 Y-10.9636 F50.00
G01 X60.6837 Y-10.9856 F50.00
G01 X60.6914 Y-11.0110 F50.00
G01 X60.6924 Y-11.3242 F50.00
G01 X60.6871 Y-11.3546 F50.00
G01 X60.6746 Y-11.3779 F50.00
G01 X60.6559 Y-11.3966 F50.00
G01 X60.6326 Y-11.4091 F50.00
G01 X60.6066 Y-11.4143 F50.00
G01 X59.5022 Y-11.4144 F50.00
G01 X59.4718 Y-11.4091 F50.00
G01 X59.4485 Y-11.3966 F50.00
G01 X59.4298 Y-11.3779 F50.00
G01 X59.4173 Y-11.3546 F50.00
G01 X59.4121 Y-11.3286 F50.00
G01 X59.4121 Y-11.0198 F50.00
G01 X59.4207 Y-10.9856 F50.00
G01 X59.4354 Y-10.9636 F50.00
G00 Z2.0000
G00 X59.4354 Y-9.6936
G01 F60.00
G01 Z-0.1500
G01 F50.00
G01 X59.4636 Y-9.6727 F50.00
G01 X59.5022 Y-9.6640 F50.00
G01 X60.6022 Y-9.6640 F50.00
G01 X60.6326 Y-9.6693 F50.00
G01 X60.6690 Y-9.6936 F50.00
G01 X60.6837 Y-9.7156 F50.00
G01 X60.6914 Y-9.7410 F50.00
G01 X60.6924 Y-10.0542 F50.00
G01 X60.6871 Y-10.0846 F50.00
G01 X60.6746 Y-10.1079 F50.00
G01 X60.6559 Y-10.1266 F50.00
G01 X60.6326 Y-10.1391 F50.00
G01 X60.6066 Y-10.1443 F50.00
G01 X59.5022 Y-10.1444 F50.00
G01 X59.4718 Y-10.1391 F50.00
G01 X59.4485 Y-10.1266 F50.00
G01 X59.4298 Y-10.1079 F50.00
G01 X59.4173 Y-10.0846 F50.00
G01 X59.4121 Y-10.0586 F50.00
G01 X59.4121 Y-9.7498 F50.00
G01 X59.4207 Y-9.7156 F50.00
G01 X59.4354 Y-9.6936 F50.00
G00 Z2.0000
G00 X59.4298 Y-8.4305
G01 F60.00
G01 Z-0.1500
G01 F50.00
G01 X59.4636 Y-8.4027 F50.00
G01 X59.4978 Y-8.3941 F50.00
G01 X60.6241 Y-8.3967 F50.00
G01 X60.6486 Y-8.4068 F50.00
G01 X60.6690 Y-8.4236 F50.00
G01 X60.6837 Y-8.4456 F50.00
G01 X60.6914 Y-8.4710 F50.00
G01 X60.6897 Y-8.8061 F50.00
G01 X60.6796 Y-8.8306 F50.00
G01 X60.6559 Y-8.8566 F50.00
G01 X60.6326 Y-8.8691 F50.00
G01 X60.6066 Y-8.8743 F50.00
G01 X59.4803 Y-8.8717 F50.00
G01 X59.4558 Y-8.8616 F50.00
G01 X59.4354 Y-8.8448 F50.00
G01 X59.4207 Y-8.8228 F50.00
G01 X59.4130 Y-8.7974 F50.00
G01 X59.4121 Y-8.4798 F50.00
G01 X59.4173 Y-8.4538 F50.00
G01 X59.4298 Y-8.4305 F50.00
G00 Z2.0000
G00 X59.4354 Y-7.1536
G01 F60.00
G01 Z-0.1500
G01 F50.00
G01 X59.4636 Y-7.1327 F50.00
G01 X59.5022 Y-7.1240 F50.00
G01 X60.6022 Y-7.1240 F50.00
G01 X60.6326 Y-7.1293 F50.00
G01 X60.6559 Y-7.1418 F50.00
G01 X60.6746 Y-7.1605 F50.00
G01 X60.6914 Y-7.2010 F50.00
G01 X60.6924 Y-7.5142 F50.00
G01 X60.6871 Y-7.5446 F50.00
G01 X60.6746 Y-7.5679 F50.00
G01 X60.6559 Y-7.5866 F50.00
G01 X60.6326 Y-7.5991 F50.00
G01 X60.6066 Y-7.6043 F50.00
G01 X59.5022 Y-7.6044 F50.00
G01 X59.4718 Y-7.5991 F50.00
G01 X59.4485 Y-7.5866 F50.00
G01 X59.4298 Y-7.5679 F50.00
G01 X59.4173 Y-7.5446 F50.00
G01 X59.4121 Y-7.5186 F50.00
G01 X59.4121 Y-7.2098 F50.00
G01 X59.4207 Y-7.1756 F50.00
G01 X59.4354 Y-7.1536 F50.00
G00 Z2.0000
G00 X54.1354 Y-7.1536
G01 F60.00
G01 Z-0.1500
G01 F50.00
G01 X54.1636 Y-7.1327 F50.00
G01 X54.2022 Y-7.1240 F50.00
G01 X55.3022 Y-7.1240 F50.00
G01 X55.3326 Y-7.1293 F50.00
G01 X55.3559 Y-7.1418 F50.00
G01 X55.3746 Y-7.1605 F50.00
G01 X55.3914 Y-7.2010 F50.00
G01 X55.3924 Y-7.5142 F50.00
G01 X55.3871 Y-7.5446 F50.00
G01 X55.3746 Y-7.5679 F50.00
G01 X55.3559 Y-7.5866 F50.00
G01 X55.3326 Y-7.5991 F50.00
G01 X55.3066 Y-7.6043 F50.00
G01 X54.2022 Y-7.6044 F50.00
G01 X54.1718 Y-7.5991 F50.00
G01 X54.1485 Y-7.5866 F50.00
G01 X54.1298 Y-7.5679 F50.00
G01 X54.1173 Y-7.5446 F50.00
G01 X54.1121 Y-7.5186 F50.00
G01 X54.1121 Y-7.2098 F50.00
G01 X54.1207 Y-7.1756 F50.00
G01 X54.1354 Y-7.1536 F50.00
G00 Z2.0000
G00 X53.3432 Y-6.5676
G01 F60.00
G01 Z-0.1500
G01 F50.00
G01 X53.3188 Y-6.6006 F50.00
G01 X53.2896 Y-6.6229 F50.00
G01 X53.2562 Y-6.6367 F50.00
G01 X53.2171 Y-6.6418 F50.00
G01 X51.2247 Y-6.6418 F50.00
G01 X51.1792 Y-6.6355 F50.00
G01 X51.1420 Y-6.6180 F50.00
G01 X51.1145 Y-6.5937 F50.00
G01 X51.0964 Y-6.5676 F50.00
G01 X51.0835 Y-6.5332 F50.00
G01 X51.0796 Y-6.4989 F50.00
G01 X51.0796 Y-5.2043 F50.00
G01 X51.0859 Y-5.1610 F50.00
G01 X51.1034 Y-5.1238 F50.00
G01 X51.1277 Y-5.0963 F50.00
G01 X51.1538 Y-5.0782 F50.00
G01 X51.1882 Y-5.0653 F50.00
G01 X51.2225 Y-5.0614 F50.00
G01 X53.2149 Y-5.0614 F50.00
G01 X53.2604 Y-5.0677 F50.00
G01 X53.2976 Y-5.0852 F50.00
G01 X53.3251 Y-5.1095 F50.00
G01 X53.3432 Y-5.1356 F50.00
G01 X53.3561 Y-5.1700 F50.00
G01 X53.3600 Y-5.2043 F50.00
G01 X53.3600 Y-6.4989 F50.00
G01 X53.3561 Y-6.5332 F50.00
G01 X53.3432 Y-6.5676 F50.00
G00 Z2.0000
G00 X54.1354 Y-8.4236
G01 F60.00
G01 Z-0.1500
G01 F50.00
G01 X54.1636 Y-8.4027 F50.00
G01 X54.2022 Y-8.3940 F50.00
G01 X55.3022 Y-8.3940 F50.00
G01 X55.3326 Y-8.3993 F50.00
G01 X55.3690 Y-8.4236 F50.00
G01 X55.3837 Y-8.4456 F50.00
G01 X55.3914 Y-8.4710 F50.00
G01 X55.3924 Y-8.7842 F50.00
G01 X55.3871 Y-8.8146 F50.00
G01 X55.3746 Y-8.8379 F50.00
G01 X55.3559 Y-8.8566 F50.00
G01 X55.3326 Y-8.8691 F50.00
G01 X55.3066 Y-8.8743 F50.00
G01 X54.2022 Y-8.8744 F50.00
G01 X54.1718 Y-8.8691 F50.00
G01 X54.1485 Y-8.8566 F50.00
G01 X54.1298 Y-8.8379 F50.00
G01 X54.1173 Y-8.8146 F50.00
G01 X54.1121 Y-8.7886 F50.00
G01 X54.1121 Y-8.4798 F50.00
G01 X54.1207 Y-8.4456 F50.00
G01 X54.1354 Y-8.4236 F50.00
G00 Z2.0000
G00 X54.1354 Y-9.6936
G01 F60.00
G01 Z-0.1500
G01 F50.00
G01 X54.1636 Y-9.6727 F50.00
G01 X54.2022 Y-9.6640 F50.00
G01 X55.3022 Y-9.6640 F50.00
G01 X55.3326 Y-9.6693 F50.00
G01 X55.3690 Y-9.6936 F50.00
G01 X55.3837 Y-9.7156 F50.00
G01 X55.3914 Y-9.7410 F50.00
G01 X55.3924 Y-10.0542 F50.00
G01 X55.3871 Y-10.0846 F50.00
G01 X55.3746 Y-10.1079 F50.00
G01 X55.3559 Y-10.1266 F50.00
G01 X55.3326 Y-10.1391 F50.00
G01 X55.3066 Y-10.1443 F50.00
G01 X54.2022 Y-10.1444 F50.00
G01 X54.1718 Y-10.1391 F50.00
G01 X54.1485 Y-10.1266 F50.00
G01 X54.1298 Y-10.1079 F50.00
G01 X54.1173 Y-10.0846 F50.00
G01 X54.1121 Y-10.0586 F50.00
G01 X54.1121 Y-9.7498 F50.00
G01 X54.1207 Y-9.7156 F50.00
G01 X54.1354 Y-9.6936 F50.00
G00 Z2.0000
G00 X54.1354 Y-10.9636
G01 F60.00
G01 Z-0.1500
G01 F50.00
G01 X54.1636 Y-10.9427 F50.00
G01 X54.2022 Y-10.9340 F50.00
G01 X55.3022 Y-10.9340 F50.00
G01 X55.3326 Y-10.9393 F50.00
G01 X55.3690 Y-10.9636 F50.00
G01 X55.3837 Y-10.9856 F50.00
G01 X55.3914 Y-11.0110 F50.00
G01 X55.3924 Y-11.3242 F50.00
G01 X55.3871 Y-11.3546 F50.00
G01 X55.3746 Y-11.3779 F50.00
G01 X55.3559 Y-11.3966 F50.00
G01 X55.3326 Y-11.4091 F50.00
G01 X55.3066 Y-11.4143 F50.00
G01 X54.2022 Y-11.4144 F50.00
G01 X54.1718 Y-11.4091 F50.00
G01 X54.1485 Y-11.3966 F50.00
G01 X54.1298 Y-11.3779 F50.00
G01 X54.1173 Y-11.3546 F50.00
G01 X54.1121 Y-11.3286 F50.00
G01 X54.1121 Y-11.0198 F50.00
G01 X54.1207 Y-10.9856 F50.00
G01 X54.1354 Y-10.9636 F50.00
G00 Z2.0000
G00 X54.6068 Y-13.3482
G01 F60.00
G01 Z-0.1500
G01 F50.00
G01 X54.6312 Y-13.3152 F50.00
G01 X54.6604 Y-13.2929 F50.00
G01 X54.6938 Y-13.2791 F50.00
G01 X54.7351 Y-13.2740 F50.00
G01 X55.5395 Y-13.2746 F50.00
G01 X55.5708 Y-13.2803 F50.00
G01 X55.6000 Y-13.2929 F50.00
G01 X55.6260 Y-13.3122 F50.00
G01 X55.6466 Y-13.3364 F50.00
G01 X55.6641 Y-13.3736 F50.00
G01 X55.6704 Y-13.4169 F50.00
G01 X55.6704 Y-14.6615 F50.00
G01 X55.6665 Y-14.6958 F50.00
G01 X55.6536 Y-14.7302 F50.00
G01 X55.6355 Y-14.7563 F50.00
G01 X55.6080 Y-14.7806 F50.00
G01 X55.5708 Y-14.7981 F50.00
G01 X55.5275 Y-14.8044 F50.00
G01 X54.7307 Y-14.8043 F50.00
G01 X54.6938 Y-14.7993 F50.00
G01 X54.6642 Y-14.7876 F50.00
G01 X54.6344 Y-14.7662 F50.00
G01 X54.6138 Y-14.7420 F50.00
G01 X54.5963 Y-14.7048 F50.00
G01 X54.5900 Y-14.6593 F50.00
G01 X54.5900 Y-13.4169 F50.00
G01 X54.5939 Y-13.3826 F50.00
G01 X54.6068 Y-13.3482 F50.00
G00 Z2.0000
G00 X51.8224 Y-12.2398
G01 F60.00
G01 Z-0.1500
G01 F50.00
G01 X51.7894 Y-12.2154 F50.00
G01 X51.7671 Y-12.1862 F50.00
G01 X51.7533 Y-12.1528 F50.00
G01 X51.7482 Y-12.1115 F50.00
G01 X51.7488 Y-11.3071 F50.00
G01 X51.7545 Y-11.2758 F50.00
G01 X51.7671 Y-11.2466 F50.00
G01 X51.7864 Y-11.2206 F50.00
G01 X51.8106 Y-11.2000 F50.00
G01 X51.8478 Y-11.1825 F50.00
G01 X51.8911 Y-11.1762 F50.00
G01 X53.1357 Y-11.1762 F50.00
G01 X53.1700 Y-11.1801 F50.00
G01 X53.2044 Y-11.1930 F50.00
G01 X53.2342 Y-11.2144 F50.00
G01 X53.2548 Y-11.2386 F50.00
G01 X53.2723 Y-11.2758 F50.00
G01 X53.2786 Y-11.3191 F50.00
G01 X53.2785 Y-12.1159 F50.00
G01 X53.2735 Y-12.1528 F50.00
G01 X53.2618 Y-12.1824 F50.00
G01 X53.2437 Y-12.2085 F50.00
G01 X53.2162 Y-12.2328 F50.00
G01 X53.1790 Y-12.2503 F50.00
G01 X53.1335 Y-12.2566 F50.00
G01 X51.8911 Y-12.2566 F50.00
G01 X51.8568 Y-12.2527 F50.00
G01 X51.8224 Y-12.2398 F50.00
G00 Z2.0000
G00 X51.5068 Y-13.3482
G01 F60.00
G01 Z-0.1500
G01 F50.00
G01 X51.5312 Y-13.3152 F50.00
G01 X51.5604 Y-13.2929 F50.00
G01 X51.5938 Y-13.2791 F50.00
G01 X51.6351 Y-13.2740 F50.00
G01 X52.4395 Y-13.2746 F50.00
G01 X52.4708 Y-13.2803 F50.00
G01 X52.5000 Y-13.2929 F50.00
G01 X52.5260 Y-13.3122 F50.00
G01 X52.5466 Y-13.3364 F50.00
G01 X52.5641 Y-13.3736 F50.00
G01 X52.5704 Y-13.4169 F50.00
G01 X52.5704 Y-14.6615 F50.00
G01 X52.5665 Y-14.6958 F50.00
G01 X52.5536 Y-14.7302 F50.00
G01 X52.5355 Y-14.7563 F50.00
G01 X52.5080 Y-14.7806 F50.00
G01 X52.4708 Y-14.7981 F50.00
G01 X52.4275 Y-14.8044 F50.00
G01 X51.6307 Y-14.8043 F50.00
G01 X51.5938 Y-14.7993 F50.00
G01 X51.5642 Y-14.7876 F50.00
G01 X51.5344 Y-14.7662 F50.00
G01 X51.5138 Y-14.7420 F50.00
G01 X51.4963 Y-14.7048 F50.00
G01 X51.4900 Y-14.6593 F50.00
G01 X51.4900 Y-13.4169 F50.00
G01 X51.4939 Y-13.3826 F50.00
G01 X51.5068 Y-13.3482 F50.00
G00 Z2.0000
G00 X50.5858 Y-15.1440
G01 F60.00
G01 Z-0.1500
G01 F50.00
G01 X50.5614 Y-15.1770 F50.00
G01 X50.5322 Y-15.1993 F50.00
G01 X50.4988 Y-15.2131 F50.00
G01 X50.4597 Y-15.2182 F50.00
G01 X49.7781 Y-15.2176 F50.00
G01 X49.7468 Y-15.2119 F50.00
G01 X49.7214 Y-15.2014 F50.00
G01 X49.6792 Y-15.1668 F50.00
G01 X49.6549 Y-15.1228 F50.00
G01 X49.6472 Y-15.0753 F50.00
G01 X49.6472 Y-14.1307 F50.00
G01 X49.6501 Y-14.1007 F50.00
G01 X49.6599 Y-14.0704 F50.00
G01 X49.6765 Y-14.0427 F50.00
G01 X49.6986 Y-14.0198 F50.00
G01 X49.7426 Y-13.9955 F50.00
G01 X49.7879 Y-13.9879 F50.00
G01 X50.4597 Y-13.9878 F50.00
G01 X50.4897 Y-13.9907 F50.00
G01 X50.5200 Y-14.0005 F50.00
G01 X50.5477 Y-14.0171 F50.00
G01 X50.5706 Y-14.0392 F50.00
G01 X50.5949 Y-14.0832 F50.00
G01 X50.6026 Y-14.1307 F50.00
G01 X50.6026 Y-15.0753 F50.00
G01 X50.5987 Y-15.1096 F50.00
G01 X50.5858 Y-15.1440 F50.00
G00 Z2.0000
G00 X48.5108 Y-15.1440
G01 F60.00
G01 Z-0.1500
G01 F50.00
G01 X48.4864 Y-15.1770 F50.00
G01 X48.4572 Y-15.1993 F50.00
G01 X48.4238 Y-15.2131 F50.00
G01 X48.3847 Y-15.2182 F50.00
G01 X47.7031 Y-15.2176 F50.00
G01 X47.6718 Y-15.2119 F50.00
G01 X47.6464 Y-15.2014 F50.00
G01 X47.6042 Y-15.1668 F50.00
G01 X47.5799 Y-15.1228 F50.00
G01 X47.5722 Y-15.0753 F50.00
G01 X47.5722 Y-14.1307 F50.00
G01 X47.5751 Y-14.1007 F50.00
G01 X47.5849 Y-14.0704 F50.00
G01 X47.6015 Y-14.0427 F50.00
G01 X47.6236 Y-14.0198 F50.00
G01 X47.6676 Y-13.9955 F50.00
G01 X47.7129 Y-13.9879 F50.00
G01 X48.3847 Y-13.9878 F50.00
G01 X48.4147 Y-13.9907 F50.00
G01 X48.4450 Y-14.0005 F50.00
G01 X48.4727 Y-14.0171 F50.00
G01 X48.4956 Y-14.0392 F50.00
G01 X48.5199 Y-14.0832 F50.00
G01 X48.5276 Y-14.1307 F50.00
G01 X48.5276 Y-15.0753 F50.00
G01 X48.5237 Y-15.1096 F50.00
G01 X48.5108 Y-15.1440 F50.00
G00 Z2.0000
G00 X48.6572 Y-12.1467
G01 F60.00
G01 Z-0.1500
G01 F50.00
G01 X48.6924 Y-12.1678 F50.00
G01 X48.7200 Y-12.1982 F50.00
G01 X48.7375 Y-12.2354 F50.00
G01 X48.7437 Y-12.2765 F50.00
G01 X48.7432 Y-12.9603 F50.00
G01 X48.7375 Y-12.9916 F50.00
G01 X48.7270 Y-13.0170 F50.00
G01 X48.6924 Y-13.0592 F50.00
G01 X48.6484 Y-13.0835 F50.00
G01 X48.6009 Y-13.0912 F50.00
G01 X47.6563 Y-13.0912 F50.00
G01 X47.6263 Y-13.0883 F50.00
G01 X47.5960 Y-13.0785 F50.00
G01 X47.5683 Y-13.0619 F50.00
G01 X47.5454 Y-13.0398 F50.00
G01 X47.5211 Y-12.9958 F50.00
G01 X47.5135 Y-12.9505 F50.00
G01 X47.5134 Y-12.2787 F50.00
G01 X47.5163 Y-12.2487 F50.00
G01 X47.5261 Y-12.2184 F50.00
G01 X47.5427 Y-12.1907 F50.00
G01 X47.5648 Y-12.1678 F50.00
G01 X47.6088 Y-12.1435 F50.00
G01 X47.6563 Y-12.1358 F50.00
G01 X48.5987 Y-12.1358 F50.00
G01 X48.6309 Y-12.1387 F50.00
G01 X48.6572 Y-12.1467 F50.00
G00 Z2.0000
G00 X48.6530 Y-10.0701
G01 F60.00
G01 Z-0.1500
G01 F50.00
G01 X48.6924 Y-10.0928 F50.00
G01 X48.7200 Y-10.1232 F50.00
G01 X48.7375 Y-10.1604 F50.00
G01 X48.7437 Y-10.2015 F50.00
G01 X48.7432 Y-10.8853 F50.00
G01 X48.7375 Y-10.9166 F50.00
G01 X48.7270 Y-10.9420 F50.00
G01 X48.6924 Y-10.9842 F50.00
G01 X48.6484 Y-11.0085 F50.00
G01 X48.6009 Y-11.0162 F50.00
G01 X47.6563 Y-11.0162 F50.00
G01 X47.6263 Y-11.0133 F50.00
G01 X47.5960 Y-11.0035 F50.00
G01 X47.5683 Y-10.9869 F50.00
G01 X47.5454 Y-10.9648 F50.00
G01 X47.5211 Y-10.9208 F50.00
G01 X47.5135 Y-10.8755 F50.00
G01 X47.5134 Y-10.2037 F50.00
G01 X47.5163 Y-10.1737 F50.00
G01 X47.5261 Y-10.1434 F50.00
G01 X47.5427 Y-10.1157 F50.00
G01 X47.5648 Y-10.0928 F50.00
G01 X47.6088 Y-10.0685 F50.00
G01 X47.6563 Y-10.0608 F50.00
G01 X48.5987 Y-10.0608 F50.00
G01 X48.6530 Y-10.0701 F50.00
G00 Z2.0000
G00 X50.5730 Y-10.8593
G01 F60.00
G01 Z-0.1500
G01 F50.00
G01 X50.6082 Y-10.8804 F50.00
G01 X50.6358 Y-10.9108 F50.00
G01 X50.6533 Y-10.9480 F50.00
G01 X50.6595 Y-10.9891 F50.00
G01 X50.6590 Y-11.6979 F50.00
G01 X50.6448 Y-11.7506 F50.00
G01 X50.6115 Y-11.7939 F50.00
G01 X50.5688 Y-11.8195 F50.00
G01 X50.5167 Y-11.8288 F50.00
G01 X49.6243 Y-11.8288 F50.00
G01 X49.5921 Y-11.8259 F50.00
G01 X49.5658 Y-11.8179 F50.00
G01 X49.5380 Y-11.8024 F50.00
G01 X49.5141 Y-11.7807 F50.00
G01 X49.4885 Y-11.7380 F50.00
G01 X49.4793 Y-11.6881 F50.00
G01 X49.4792 Y-10.9913 F50.00
G01 X49.4821 Y-10.9613 F50.00
G01 X49.4919 Y-10.9310 F50.00
G01 X49.5056 Y-10.9072 F50.00
G01 X49.5273 Y-10.8833 F50.00
G01 X49.5700 Y-10.8577 F50.00
G01 X49.6221 Y-10.8484 F50.00
G01 X50.5145 Y-10.8484 F50.00
G01 X50.5467 Y-10.8513 F50.00
G01 X50.5730 Y-10.8593 F50.00
G00 Z2.0000
G00 X50.5730 Y-8.8593
G01 F60.00
G01 Z-0.1500
G01 F50.00
G01 X50.6082 Y-8.8804 F50.00
G01 X50.6358 Y-8.9108 F50.00
G01 X50.6533 Y-8.9480 F50.00
G01 X50.6595 Y-8.9891 F50.00
G01 X50.6590 Y-9.6979 F50.00
G01 X50.6448 Y-9.7506 F50.00
G01 X50.6115 Y-9.7939 F50.00
G01 X50.5688 Y-9.8195 F50.00
G01 X50.5167 Y-9.8288 F50.00
G01 X49.6243 Y-9.8288 F50.00
G01 X49.5921 Y-9.8259 F50.00
G01 X49.5658 Y-9.8179 F50.00
G01 X49.5380 Y-9.8024 F50.00
G01 X49.5141 Y-9.7807 F50.00
G01 X49.4885 Y-9.7380 F50.00
G01 X49.4793 Y-9.6881 F50.00
G01 X49.4792 Y-8.9913 F50.00
G01 X49.4821 Y-8.9613 F50.00
G01 X49.4919 Y-8.9310 F50.00
G01 X49.5056 Y-8.9072 F50.00
G01 X49.5273 Y-8.8833 F50.00
G01 X49.5700 Y-8.8577 F50.00
G01 X49.6221 Y-8.8484 F50.00
G01 X50.5145 Y-8.8484 F50.00
G01 X50.5467 Y-8.8513 F50.00
G01 X50.5730 Y-8.8593 F50.00
G00 Z2.0000
G00 X51.8224 Y-9.1398
G01 F60.00
G01 Z-0.1500
G01 F50.00
G01 X51.7894 Y-9.1154 F50.00
G01 X51.7671 Y-9.0862 F50.00
G01 X51.7533 Y-9.0528 F50.00
G01 X51.7482 Y-9.0115 F50.00
G01 X51.7488 Y-8.2071 F50.00
G01 X51.7545 Y-8.1758 F50.00
G01 X51.7671 Y-8.1466 F50.00
G01 X51.7864 Y-8.1206 F50.00
G01 X51.8106 Y-8.1000 F50.00
G01 X51.8478 Y-8.0825 F50.00
G01 X51.8911 Y-8.0762 F50.00
G01 X53.1357 Y-8.0762 F50.00
G01 X53.1700 Y-8.0801 F50.00
G01 X53.2044 Y-8.0930 F50.00
G01 X53.2342 Y-8.1144 F50.00
G01 X53.2548 Y-8.1386 F50.00
G01 X53.2723 Y-8.1758 F50.00
G01 X53.2786 Y-8.2191 F50.00
G01 X53.2785 Y-9.0159 F50.00
G01 X53.2735 Y-9.0528 F50.00
G01 X53.2618 Y-9.0824 F50.00
G01 X53.2437 Y-9.1085 F50.00
G01 X53.2162 Y-9.1328 F50.00
G01 X53.1790 Y-9.1503 F50.00
G01 X53.1335 Y-9.1566 F50.00
G01 X51.8911 Y-9.1566 F50.00
G01 X51.8568 Y-9.1527 F50.00
G01 X51.8224 Y-9.1398 F50.00
G00 Z2.0000
G00 X49.3432 Y-6.5676
G01 F60.00
G01 Z-0.1500
G01 F50.00
G01 X49.3188 Y-6.6006 F50.00
G01 X49.2896 Y-6.6229 F50.00
G01 X49.2562 Y-6.6367 F50.00
G01 X49.2171 Y-6.6418 F50.00
G01 X47.2247 Y-6.6418 F50.00
G01 X47.1792 Y-6.6355 F50.00
G01 X47.1420 Y-6.6180 F50.00
G01 X47.1145 Y-6.5937 F50.00
G01 X47.0964 Y-6.5676 F50.00
G01 X47.0835 Y-6.5332 F50.00
G01 X47.0796 Y-6.4989 F50.00
G01 X47.0796 Y-5.2043 F50.00
G01 X47.0859 Y-5.1610 F50.00
G01 X47.1034 Y-5.1238 F50.00
G01 X47.1277 Y-5.0963 F50.00
G01 X47.1538 Y-5.0782 F50.00
G01 X47.1882 Y-5.0653 F50.00
G01 X47.2225 Y-5.0614 F50.00
G01 X49.2149 Y-5.0614 F50.00
G01 X49.2604 Y-5.0677 F50.00
G01 X49.2976 Y-5.0852 F50.00
G01 X49.3251 Y-5.1095 F50.00
G01 X49.3432 Y-5.1356 F50.00
G01 X49.3561 Y-5.1700 F50.00
G01 X49.3600 Y-5.2043 F50.00
G01 X49.3600 Y-6.4989 F50.00
G01 X49.3561 Y-6.5332 F50.00
G01 X49.3432 Y-6.5676 F50.00
G00 Z2.0000
G00 X51.5522 Y-3.5852
G01 F60.00
G01 Z-0.1500
G01 F50.00
G01 X51.5192 Y-3.5608 F50.00
G01 X51.4969 Y-3.5316 F50.00
G01 X51.4831 Y-3.4982 F50.00
G01 X51.4780 Y-3.4591 F50.00
G01 X51.4786 Y-2.7775 F50.00
G01 X51.4843 Y-2.7462 F50.00
G01 X51.4948 Y-2.7208 F50.00
G01 X51.5294 Y-2.6786 F50.00
G01 X51.5734 Y-2.6543 F50.00
G01 X51.6209 Y-2.6466 F50.00
G01 X52.5655 Y-2.6466 F50.00
G01 X52.5955 Y-2.6495 F50.00
G01 X52.6258 Y-2.6593 F50.00
G01 X52.6535 Y-2.6759 F50.00
G01 X52.6764 Y-2.6980 F50.00
G01 X52.7007 Y-2.7420 F50.00
G01 X52.7083 Y-2.7873 F50.00
G01 X52.7084 Y-3.4591 F50.00
G01 X52.7055 Y-3.4891 F50.00
G01 X52.6957 Y-3.5194 F50.00
G01 X52.6791 Y-3.5471 F50.00
G01 X52.6570 Y-3.5700 F50.00
G01 X52.6130 Y-3.5943 F50.00
G01 X52.5655 Y-3.6020 F50.00
G01 X51.6209 Y-3.6020 F50.00
G01 X51.5866 Y-3.5981 F50.00
G01 X51.5522 Y-3.5852 F50.00
G00 Z2.0000
G00 X51.5522 Y-1.5102
G01 F60.00
G01 Z-0.1500
G01 F50.00
G01 X51.5192 Y-1.4858 F50.00
G01 X51.4969 Y-1.4566 F50.00
G01 X51.4831 Y-1.4232 F50.00
G01 X51.4780 Y-1.3841 F50.00
G01 X51.4786 Y-0.7025 F50.00
G01 X51.4843 Y-0.6712 F50.00
G01 X51.4948 Y-0.6458 F50.00
G01 X51.5294 Y-0.6036 F50.00
G01 X51.5734 Y-0.5793 F50.00
G01 X51.6209 Y-0.5716 F50.00
G01 X52.5655 Y-0.5716 F50.00
G01 X52.5955 Y-0.5745 F50.00
G01 X52.6258 Y-0.5843 F50.00
G01 X52.6535 Y-0.6009 F50.00
G01 X52.6764 Y-0.6230 F50.00
G01 X52.7007 Y-0.6670 F50.00
G01 X52.7083 Y-0.7123 F50.00
G01 X52.7084 Y-1.3841 F50.00
G01 X52.7055 Y-1.4141 F50.00
G01 X52.6957 Y-1.4444 F50.00
G01 X52.6791 Y-1.4721 F50.00
G01 X52.6570 Y-1.4950 F50.00
G01 X52.6130 Y-1.5193 F50.00
G01 X52.5655 Y-1.5270 F50.00
G01 X51.6209 Y-1.5270 F50.00
G01 X51.5866 Y-1.5231 F50.00
G01 X51.5522 Y-1.5102 F50.00
G00 Z2.0000
G00 X49.1753 Y-2.3874
G01 F60.00
G01 Z-0.1500
G01 F50.00
G01 X49.1964 Y-2.3522 F50.00
G01 X49.2268 Y-2.3246 F50.00
G01 X49.2640 Y-2.3071 F50.00
G01 X49.3051 Y-2.3009 F50.00
G01 X49.9889 Y-2.3014 F50.00
G01 X50.0202 Y-2.3071 F50.00
G01 X50.0456 Y-2.3176 F50.00
G01 X50.0878 Y-2.3522 F50.00
G01 X50.1121 Y-2.3962 F50.00
G01 X50.1198 Y-2.4437 F50.00
G01 X50.1198 Y-3.3883 F50.00
G01 X50.1169 Y-3.4183 F50.00
G01 X50.1071 Y-3.4486 F50.00
G01 X50.0905 Y-3.4763 F50.00
G01 X50.0684 Y-3.4992 F50.00
G01 X50.0244 Y-3.5235 F50.00
G01 X49.9791 Y-3.5311 F50.00
G01 X49.3073 Y-3.5312 F50.00
G01 X49.2773 Y-3.5283 F50.00
G01 X49.2470 Y-3.5185 F50.00
G01 X49.2193 Y-3.5019 F50.00
G01 X49.1964 Y-3.4798 F50.00
G01 X49.1721 Y-3.4358 F50.00
G01 X49.1644 Y-3.3883 F50.00
G01 X49.1644 Y-2.4459 F50.00
G01 X49.1673 Y-2.4137 F50.00
G01 X49.1753 Y-2.3874 F50.00
G00 Z2.0000
G00 X47.1003 Y-2.3874
G01 F60.00
G01 Z-0.1500
G01 F50.00
G01 X47.1214 Y-2.3522 F50.00
G01 X47.1518 Y-2.3246 F50.00
G01 X47.1890 Y-2.3071 F50.00
G01 X47.2301 Y-2.3009 F50.00
G01 X47.9139 Y-2.3014 F50.00
G01 X47.9452 Y-2.3071 F50.00
G01 X47.9706 Y-2.3176 F50.00
G01 X48.0128 Y-2.3522 F50.00
G01 X48.0371 Y-2.3962 F50.00
G01 X48.0448 Y-2.4437 F50.00
G01 X48.0448 Y-3.3883 F50.00
G01 X48.0419 Y-3.4183 F50.00
G01 X48.0321 Y-3.4486 F50.00
G01 X48.0155 Y-3.4763 F50.00
G01 X47.9934 Y-3.4992 F50.00
G01 X47.9494 Y-3.5235 F50.00
G01 X47.9041 Y-3.5311 F50.00
G01 X47.2323 Y-3.5312 F50.00
G01 X47.2023 Y-3.5283 F50.00
G01 X47.1720 Y-3.5185 F50.00
G01 X47.1443 Y-3.5019 F50.00
G01 X47.1214 Y-3.4798 F50.00
G01 X47.0971 Y-3.4358 F50.00
G01 X47.0894 Y-3.3883 F50.00
G01 X47.0894 Y-2.4459 F50.00
G01 X47.0923 Y-2.4137 F50.00
G01 X47.1003 Y-2.3874 F50.00
G00 Z2.0000
G00 X45.1552 Y-6.4113
G01 F60.00
G01 Z-0.1500
G01 F50.00
G01 X45.1834 Y-6.3904 F50.00
G01 X45.2176 Y-6.3818 F50.00
G01 X45.9694 Y-6.3818 F50.00
G01 X45.9954 Y-6.3870 F50.00
G01 X46.0187 Y-6.3995 F50.00
G01 X46.0424 Y-6.4255 F50.00
G01 X46.0525 Y-6.4500 F50.00
G01 X46.0552 Y-9.2723 F50.00
G01 X46.0499 Y-9.3027 F50.00
G01 X46.0374 Y-9.3260 F50.00
G01 X46.0187 Y-9.3447 F50.00
G01 X45.9869 Y-9.3598 F50.00
G01 X45.2176 Y-9.3624 F50.00
G01 X45.1916 Y-9.3572 F50.00
G01 X45.1683 Y-9.3447 F50.00
G01 X45.1496 Y-9.3260 F50.00
G01 X45.1345 Y-9.2942 F50.00
G01 X45.1318 Y-6.4719 F50.00
G01 X45.1371 Y-6.4415 F50.00
G01 X45.1552 Y-6.4113 F50.00
G00 Z2.0000
G00 X42.1072 Y-6.4113
G01 F60.00
G01 Z-0.1500
G01 F50.00
G01 X42.1354 Y-6.3904 F50.00
G01 X42.1696 Y-6.3818 F50.00
G01 X42.9214 Y-6.3818 F50.00
G01 X42.9474 Y-6.3870 F50.00
G01 X42.9707 Y-6.3995 F50.00
G01 X42.9944 Y-6.4255 F50.00
G01 X43.0045 Y-6.4500 F50.00
G01 X43.0072 Y-9.2723 F50.00
G01 X43.0019 Y-9.3027 F50.00
G01 X42.9894 Y-9.3260 F50.00
G01 X42.9707 Y-9.3447 F50.00
G01 X42.9389 Y-9.3598 F50.00
G01 X42.1696 Y-9.3624 F50.00
G01 X42.1436 Y-9.3572 F50.00
G01 X42.1203 Y-9.3447 F50.00
G01 X42.1016 Y-9.3260 F50.00
G01 X42.0865 Y-9.2942 F50.00
G01 X42.0838 Y-6.4719 F50.00
G01 X42.0891 Y-6.4415 F50.00
G01 X42.1072 Y-6.4113 F50.00
G00 Z2.0000
G00 X40.7154 Y-6.2278
G01 F60.00
G01 Z-0.1500
G01 F50.00
G01 X40.7484 Y-6.2522 F50.00
G01 X40.7707 Y-6.2814 F50.00
G01 X40.7845 Y-6.3148 F50.00
G01 X40.7896 Y-6.3561 F50.00
G01 X40.7890 Y-7.1855 F50.00
G01 X40.7833 Y-7.2168 F50.00
G01 X40.7707 Y-7.2460 F50.00
G01 X40.7514 Y-7.2720 F50.00
G01 X40.7272 Y-7.2926 F50.00
G01 X40.6900 Y-7.3101 F50.00
G01 X40.6467 Y-7.3164 F50.00
G01 X39.3521 Y-7.3164 F50.00
G01 X39.3178 Y-7.3125 F50.00
G01 X39.2834 Y-7.2996 F50.00
G01 X39.2573 Y-7.2815 F50.00
G01 X39.2330 Y-7.2540 F50.00
G01 X39.2155 Y-7.2168 F50.00
G01 X39.2092 Y-7.1735 F50.00
G01 X39.2093 Y-6.3517 F50.00
G01 X39.2143 Y-6.3148 F50.00
G01 X39.2260 Y-6.2852 F50.00
G01 X39.2441 Y-6.2591 F50.00
G01 X39.2716 Y-6.2348 F50.00
G01 X39.3088 Y-6.2173 F50.00
G01 X39.3543 Y-6.2110 F50.00
G01 X40.6467 Y-6.2110 F50.00
G01 X40.6810 Y-6.2149 F50.00
G01 X40.7154 Y-6.2278 F50.00
G00 Z2.0000
G00 X40.7154 Y-9.3528
G01 F60.00
G01 Z-0.1500
G01 F50.00
G01 X40.7484 Y-9.3772 F50.00
G01 X40.7707 Y-9.4064 F50.00
G01 X40.7845 Y-9.4398 F50.00
G01 X40.7896 Y-9.4811 F50.00
G01 X40.7890 Y-10.3105 F50.00
G01 X40.7833 Y-10.3418 F50.00
G01 X40.7707 Y-10.3710 F50.00
G01 X40.7514 Y-10.3970 F50.00
G01 X40.7272 Y-10.4176 F50.00
G01 X40.6900 Y-10.4351 F50.00
G01 X40.6467 Y-10.4414 F50.00
G01 X39.3521 Y-10.4414 F50.00
G01 X39.3178 Y-10.4375 F50.00
G01 X39.2834 Y-10.4246 F50.00
G01 X39.2536 Y-10.4032 F50.00
G01 X39.2330 Y-10.3790 F50.00
G01 X39.2155 Y-10.3418 F50.00
G01 X39.2092 Y-10.2985 F50.00
G01 X39.2093 Y-9.4767 F50.00
G01 X39.2143 Y-9.4398 F50.00
G01 X39.2260 Y-9.4102 F50.00
G01 X39.2441 Y-9.3841 F50.00
G01 X39.2716 Y-9.3598 F50.00
G01 X39.3088 Y-9.3423 F50.00
G01 X39.3543 Y-9.3360 F50.00
G01 X40.6467 Y-9.3360 F50.00
G01 X40.6810 Y-9.3399 F50.00
G01 X40.7154 Y-9.3528 F50.00
G00 Z2.0000
G00 X42.8410 Y-11.0893
G01 F60.00
G01 Z-0.1500
G01 F50.00
G01 X42.8762 Y-11.1104 F50.00
G01 X42.9038 Y-11.1408 F50.00
G01 X42.9213 Y-11.1780 F50.00
G01 X42.9275 Y-11.2191 F50.00
G01 X42.9270 Y-11.9029 F50.00
G01 X42.9213 Y-11.9342 F50.00
G01 X42.9108 Y-11.9596 F50.00
G01 X42.8762 Y-12.0018 F50.00
G01 X42.8322 Y-12.0261 F50.00
G01 X42.7847 Y-12.0338 F50.00
G01 X41.8401 Y-12.0338 F50.00
G01 X41.8101 Y-12.0309 F50.00
G01 X41.7798 Y-12.0211 F50.00
G01 X41.7521 Y-12.0045 F50.00
G01 X41.7292 Y-11.9824 F50.00
G01 X41.7049 Y-11.9384 F50.00
G01 X41.6973 Y-11.8931 F50.00
G01 X41.6972 Y-11.2213 F50.00
G01 X41.7001 Y-11.1913 F50.00
G01 X41.7099 Y-11.1610 F50.00
G01 X41.7265 Y-11.1333 F50.00
G01 X41.7486 Y-11.1104 F50.00
G01 X41.7926 Y-11.0861 F50.00
G01 X41.8401 Y-11.0784 F50.00
G01 X42.7825 Y-11.0784 F50.00
G01 X42.8147 Y-11.0813 F50.00
G01 X42.8410 Y-11.0893 F50.00
G00 Z2.0000
G00 X44.1288 Y-10.7120
G01 F60.00
G01 Z-0.1500
G01 F50.00
G01 X44.1570 Y-10.6911 F50.00
G01 X44.1912 Y-10.6825 F50.00
G01 X44.4500 Y-10.6825 F50.00
G01 X44.4760 Y-10.6877 F50.00
G01 X44.4993 Y-10.7002 F50.00
G01 X44.5180 Y-10.7189 F50.00
G01 X44.5331 Y-10.7507 F50.00
G01 X44.5357 Y-11.9370 F50.00
G01 X44.5305 Y-11.9630 F50.00
G01 X44.5180 Y-11.9863 F50.00
G01 X44.4993 Y-12.0050 F50.00
G01 X44.4675 Y-12.0201 F50.00
G01 X44.1824 Y-12.0218 F50.00
G01 X44.1570 Y-12.0141 F50.00
G01 X44.1350 Y-11.9994 F50.00
G01 X44.1182 Y-11.9790 F50.00
G01 X44.1081 Y-11.9545 F50.00
G01 X44.1054 Y-10.7726 F50.00
G01 X44.1107 Y-10.7422 F50.00
G01 X44.1288 Y-10.7120 F50.00
G00 Z2.0000
G00 X45.0788 Y-10.7120
G01 F60.00
G01 Z-0.1500
G01 F50.00
G01 X45.1070 Y-10.6911 F50.00
G01 X45.1412 Y-10.6825 F50.00
G01 X45.4000 Y-10.6825 F50.00
G01 X45.4260 Y-10.6877 F50.00
G01 X45.4493 Y-10.7002 F50.00
G01 X45.4680 Y-10.7189 F50.00
G01 X45.4831 Y-10.7507 F50.00
G01 X45.4857 Y-11.9370 F50.00
G01 X45.4805 Y-11.9630 F50.00
G01 X45.4680 Y-11.9863 F50.00
G01 X45.4493 Y-12.0050 F50.00
G01 X45.4175 Y-12.0201 F50.00
G01 X45.1324 Y-12.0218 F50.00
G01 X45.1070 Y-12.0141 F50.00
G01 X45.0850 Y-11.9994 F50.00
G01 X45.0682 Y-11.9790 F50.00
G01 X45.0581 Y-11.9545 F50.00
G01 X45.0554 Y-10.7726 F50.00
G01 X45.0607 Y-10.7422 F50.00
G01 X45.0788 Y-10.7120 F50.00
G00 Z2.0000
G00 X46.0288 Y-10.7120
G01 F60.00
G01 Z-0.1500
G01 F50.00
G01 X46.0570 Y-10.6911 F50.00
G01 X46.0912 Y-10.6825 F50.00
G01 X46.3500 Y-10.6825 F50.00
G01 X46.3760 Y-10.6877 F50.00
G01 X46.3993 Y-10.7002 F50.00
G01 X46.4180 Y-10.7189 F50.00
G01 X46.4331 Y-10.7507 F50.00
G01 X46.4357 Y-11.9370 F50.00
G01 X46.4305 Y-11.9630 F50.00
G01 X46.4180 Y-11.9863 F50.00
G01 X46.3993 Y-12.0050 F50.00
G01 X46.3675 Y-12.0201 F50.00
G01 X46.0824 Y-12.0218 F50.00
G01 X46.0570 Y-12.0141 F50.00
G01 X46.0350 Y-11.9994 F50.00
G01 X46.0182 Y-11.9790 F50.00
G01 X46.0081 Y-11.9545 F50.00
G01 X46.0054 Y-10.7726 F50.00
G01 X46.0107 Y-10.7422 F50.00
G01 X46.0288 Y-10.7120 F50.00
G00 Z2.0000
G00 X46.0288 Y-13.4120
G01 F60.00
G01 Z-0.1500
G01 F50.00
G01 X46.0570 Y-13.3911 F50.00
G01 X46.0912 Y-13.3825 F50.00
G01 X46.3500 Y-13.3825 F50.00
G01 X46.3760 Y-13.3877 F50.00
G01 X46.3993 Y-13.4002 F50.00
G01 X46.4180 Y-13.4189 F50.00
G01 X46.4331 Y-13.4507 F50.00
G01 X46.4357 Y-14.6370 F50.00
G01 X46.4305 Y-14.6630 F50.00
G01 X46.4180 Y-14.6863 F50.00
G01 X46.3993 Y-14.7050 F50.00
G01 X46.3675 Y-14.7201 F50.00
G01 X46.0824 Y-14.7218 F50.00
G01 X46.0570 Y-14.7141 F50.00
G01 X46.0350 Y-14.6994 F50.00
G01 X46.0182 Y-14.6790 F50.00
G01 X46.0081 Y-14.6545 F50.00
G01 X46.0054 Y-13.4726 F50.00
G01 X46.0107 Y-13.4422 F50.00
G01 X46.0288 Y-13.4120 F50.00
G00 Z2.0000
G00 X45.0788 Y-13.4120
G01 F60.00
G01 Z-0.1500
G01 F50.00
G01 X45.1070 Y-13.3911 F50.00
G01 X45.1412 Y-13.3825 F50.00
G01 X45.4000 Y-13.3825 F50.00
G01 X45.4260 Y-13.3877 F50.00
G01 X45.4493 Y-13.4002 F50.00
G01 X45.4680 Y-13.4189 F50.00
G01 X45.4831 Y-13.4507 F50.00
G01 X45.4857 Y-14.6370 F50.00
G01 X45.4805 Y-14.6630 F50.00
G01 X45.4680 Y-14.6863 F50.00
G01 X45.4493 Y-14.7050 F50.00
G01 X45.4175 Y-14.7201 F50.00
G01 X45.1324 Y-14.7218 F50.00
G01 X45.1070 Y-14.7141 F50.00
G01 X45.0850 Y-14.6994 F50.00
G01 X45.0682 Y-14.6790 F50.00
G01 X45.0581 Y-14.6545 F50.00
G01 X45.0554 Y-13.4726 F50.00
G01 X45.0607 Y-13.4422 F50.00
G01 X45.0788 Y-13.4120 F50.00
G00 Z2.0000
G00 X44.1288 Y-13.4120
G01 F60.00
G01 Z-0.1500
G01 F50.00
G01 X44.1570 Y-13.3911 F50.00
G01 X44.1912 Y-13.3825 F50.00
G01 X44.4500 Y-13.3825 F50.00
G01 X44.4760 Y-13.3877 F50.00
G01 X44.4993 Y-13.4002 F50.00
G01 X44.5180 Y-13.4189 F50.00
G01 X44.5331 Y-13.4507 F50.00
G01 X44.5357 Y-14.6370 F50.00
G01 X44.5305 Y-14.6630 F50.00
G01 X44.5180 Y-14.6863 F50.00
G01 X44.4993 Y-14.7050 F50.00
G01 X44.4675 Y-14.7201 F50.00
G01 X44.1824 Y-14.7218 F50.00
G01 X44.1570 Y-14.7141 F50.00
G01 X44.1350 Y-14.6994 F50.00
G01 X44.1182 Y-14.6790 F50.00
G01 X44.1081 Y-14.6545 F50.00
G01 X44.1054 Y-13.4726 F50.00
G01 X44.1107 Y-13.4422 F50.00
G01 X44.1288 Y-13.4120 F50.00
G00 Z2.0000
G00 X42.8368 Y-13.1627
G01 F60.00
G01 Z-0.1500
G01 F50.00
G01 X42.8762 Y-13.1854 F50.00
G01 X42.9038 Y-13.2158 F50.00
G01 X42.9213 Y-13.2530 F50.00
G01 X42.9275 Y-13.2941 F50.00
G01 X42.9270 Y-13.9779 F50.00
G01 X42.9213 Y-14.0092 F50.00
G01 X42.9108 Y-14.0346 F50.00
G01 X42.8762 Y-14.0768 F50.00
G01 X42.8322 Y-14.1011 F50.00
G01 X42.7847 Y-14.1088 F50.00
G01 X41.8401 Y-14.1088 F50.00
G01 X41.8101 Y-14.1059 F50.00
G01 X41.7798 Y-14.0961 F50.00
G01 X41.7521 Y-14.0795 F50.00
G01 X41.7292 Y-14.0574 F50.00
G01 X41.7049 Y-14.0134 F50.00
G01 X41.6973 Y-13.9681 F50.00
G01 X41.6972 Y-13.2963 F50.00
G01 X41.7001 Y-13.2663 F50.00
G01 X41.7099 Y-13.2360 F50.00
G01 X41.7265 Y-13.2083 F50.00
G01 X41.7486 Y-13.1854 F50.00
G01 X41.7926 Y-13.1611 F50.00
G01 X41.8401 Y-13.1534 F50.00
G01 X42.7825 Y-13.1534 F50.00
G01 X42.8368 Y-13.1627 F50.00
G00 Z2.0000
G00 X36.9252 Y-7.4812
G01 F60.00
G01 Z-0.1500
G01 F50.00
G01 X36.9534 Y-7.4603 F50.00
G01 X36.9876 Y-7.4517 F50.00
G01 X38.0920 Y-7.4516 F50.00
G01 X38.1306 Y-7.4603 F50.00
G01 X38.1644 Y-7.4881 F50.00
G01 X38.1769 Y-7.5114 F50.00
G01 X38.1822 Y-7.5418 F50.00
G01 X38.1822 Y-9.1418 F50.00
G01 X38.1735 Y-9.1804 F50.00
G01 X38.1457 Y-9.2142 F50.00
G01 X38.1224 Y-9.2267 F50.00
G01 X38.0920 Y-9.2320 F50.00
G01 X36.9920 Y-9.2320 F50.00
G01 X36.9534 Y-9.2233 F50.00
G01 X36.9196 Y-9.1955 F50.00
G01 X36.9071 Y-9.1722 F50.00
G01 X36.9018 Y-9.1418 F50.00
G01 X36.9018 Y-7.5418 F50.00
G01 X36.9071 Y-7.5114 F50.00
G01 X36.9252 Y-7.4812 F50.00
G00 Z2.0000
G00 X34.6252 Y-7.4812
G01 F60.00
G01 Z-0.1500
G01 F50.00
G01 X34.6534 Y-7.4603 F50.00
G01 X34.6876 Y-7.4517 F50.00
G01 X35.7920 Y-7.4516 F50.00
G01 X35.8306 Y-7.4603 F50.00
G01 X35.8644 Y-7.4881 F50.00
G01 X35.8769 Y-7.5114 F50.00
G01 X35.8822 Y-7.5418 F50.00
G01 X35.8822 Y-9.1418 F50.00
G01 X35.8735 Y-9.1804 F50.00
G01 X35.8457 Y-9.2142 F50.00
G01 X35.8224 Y-9.2267 F50.00
G01 X35.7920 Y-9.2320 F50.00
G01 X34.6920 Y-9.2320 F50.00
G01 X34.6534 Y-9.2233 F50.00
G01 X34.6196 Y-9.1955 F50.00
G01 X34.6071 Y-9.1722 F50.00
G01 X34.6018 Y-9.1418 F50.00
G01 X34.6018 Y-7.5418 F50.00
G01 X34.6071 Y-7.5114 F50.00
G01 X34.6252 Y-7.4812 F50.00
G00 Z2.0000
G00 X32.3252 Y-7.4812
G01 F60.00
G01 Z-0.1500
G01 F50.00
G01 X32.3534 Y-7.4603 F50.00
G01 X32.3876 Y-7.4517 F50.00
G01 X33.4920 Y-7.4516 F50.00
G01 X33.5306 Y-7.4603 F50.00
G01 X33.5644 Y-7.4881 F50.00
G01 X33.5769 Y-7.5114 F50.00
G01 X33.5822 Y-7.5418 F50.00
G01 X33.5822 Y-9.1418 F50.00
G01 X33.5735 Y-9.1804 F50.00
G01 X33.5457 Y-9.2142 F50.00
G01 X33.5224 Y-9.2267 F50.00
G01 X33.4920 Y-9.2320 F50.00
G01 X32.3920 Y-9.2320 F50.00
G01 X32.3534 Y-9.2233 F50.00
G01 X32.3196 Y-9.1955 F50.00
G01 X32.3071 Y-9.1722 F50.00
G01 X32.3018 Y-9.1418 F50.00
G01 X32.3018 Y-7.5418 F50.00
G01 X32.3071 Y-7.5114 F50.00
G01 X32.3252 Y-7.4812 F50.00
G00 Z2.0000
G00 X59.4936 Y-19.7550
G01 F60.00
G01 Z-0.1500
G01 F50.00
G01 X59.5180 Y-19.7220 F50.00
G01 X59.5472 Y-19.6997 F50.00
G01 X59.5806 Y-19.6859 F50.00
G01 X59.6219 Y-19.6808 F50.00
G01 X60.4263 Y-19.6814 F50.00
G01 X60.4576 Y-19.6871 F50.00
G01 X60.4868 Y-19.6997 F50.00
G01 X60.5128 Y-19.7190 F50.00
G01 X60.5334 Y-19.7432 F50.00
G01 X60.5509 Y-19.7804 F50.00
G01 X60.5572 Y-19.8237 F50.00
G01 X60.5572 Y-21.0683 F50.00
G01 X60.5533 Y-21.1026 F50.00
G01 X60.5404 Y-21.1370 F50.00
G01 X60.5223 Y-21.1631 F50.00
G01 X60.4948 Y-21.1874 F50.00
G01 X60.4576 Y-21.2049 F50.00
G01 X60.4143 Y-21.2112 F50.00
G01 X59.6175 Y-21.2111 F50.00
G01 X59.5806 Y-21.2061 F50.00
G01 X59.5510 Y-21.1944 F50.00
G01 X59.5249 Y-21.1763 F50.00
G01 X59.5006 Y-21.1488 F50.00
G01 X59.4831 Y-21.1116 F50.00
G01 X59.4768 Y-21.0661 F50.00
G01 X59.4768 Y-19.8237 F50.00
G01 X59.4807 Y-19.7894 F50.00
G01 X59.4936 Y-19.7550 F50.00
G00 Z2.0000
M05
G00 Z2.0000
G00 Z15.00


